(G-CODE GENERATED BY FLATCAM v8.994 - www.flatcam.org - Version Date: 2020/11/7)

(Name: picoprobe-F_Cu.gbr_iso_combined_cnc)
(Type: G-code from Geometry)
(Units: MM)

(Created on Monday, 18 July 2022 at 11:16)

(This preprocessor is the default preprocessor used by FlatCAM.)
(It is made to work with MACH3 compatible motion controllers.)

(TOOL DIAMETER: 0.8 mm)
(Feedrate_XY: 120.0 mm/min)
(Feedrate_Z: 60.0 mm/min)
(Feedrate rapids 1500.0 mm/min)

(Z_Cut: -0.11 mm)
(Z_Move: 2.0 mm)
(Z Start: None mm)
(Z End: 10.0 mm)
(X,Y End: 0.0000, 0.0000 mm)
(Steps per circle: 64)
(Preprocessor Geometry: Default_no_M6)

(X range:    8.1600 ...   32.0400  mm)
(Y range:    7.4499 ...   75.1800  mm)

(Spindle Speed: 1000.0 RPM)
G21
G90
G94

G01 F120.00

M5
G00 Z15.0000
G00 X0.0000 Y0.0000
T1
(MSG, Change to Tool Dia = 0.8000)
M0
G00 Z15.0000
        
M03 S1000.0
G4 P1.0
G01 F120.00
G00 X17.1535 Y12.1501
G01 F60.00
G01 Z-0.1100
G01 F120.00
G01 X16.1693 Y12.1501
G01 X15.9501 Y12.3693
G01 X15.9501 Y66.8000
G01 X15.9496 Y66.8196
G01 X15.9478 Y66.8539
G01 X15.9459 Y66.8735
G01 X15.9410 Y66.9075
G01 X15.9376 Y66.9268
G01 X15.9333 Y66.9460
G01 X15.9249 Y66.9793
G01 X15.9192 Y66.9981
G01 X15.9077 Y67.0305
G01 X15.9006 Y67.0488
G01 X15.8927 Y67.0667
G01 X15.8779 Y67.0978
G01 X15.8637 Y67.1235
G01 X15.8459 Y67.1530
G01 X15.8350 Y67.1693
G01 X15.8146 Y67.1970
G01 X15.8026 Y67.2124
G01 X15.7897 Y67.2273
G01 X15.7666 Y67.2527
G01 X13.7097 Y69.3097
G01 X13.6955 Y69.3232
G01 X13.6699 Y69.3462
G01 X13.6548 Y69.3587
G01 X13.6272 Y69.3793
G01 X13.6030 Y69.3959
G01 X13.5735 Y69.4137
G01 X13.5565 Y69.4234
G01 X13.5389 Y69.4322
G01 X13.5078 Y69.4468
G01 X13.4897 Y69.4543
G01 X13.4574 Y69.4660
G01 X13.4293 Y69.4749
G01 X13.3960 Y69.4833
G01 X13.3768 Y69.4876
G01 X13.3575 Y69.4910
G01 X13.3235 Y69.4959
G01 X13.2941 Y69.4984
G01 X13.2696 Y69.4996
G01 X13.2500 Y69.5001
G01 X12.4600 Y69.5001
G01 X12.4600 Y69.7000
G01 X12.4595 Y69.7196
G01 X12.4581 Y69.7392
G01 X12.4541 Y69.7684
G01 X12.4480 Y69.7972
G01 X12.4428 Y69.8161
G01 X12.4366 Y69.8348
G01 X12.4257 Y69.8621
G01 X12.4128 Y69.8886
G01 X12.4031 Y69.9056
G01 X12.3926 Y69.9222
G01 X12.3813 Y69.9383
G01 X12.3692 Y69.9538
G01 X12.3564 Y69.9686
G01 X12.3428 Y69.9828
G01 X12.3286 Y69.9964
G01 X12.3138 Y70.0092
G01 X12.2983 Y70.0213
G01 X12.2822 Y70.0326
G01 X12.2656 Y70.0431
G01 X12.2486 Y70.0528
G01 X12.2310 Y70.0616
G01 X12.2131 Y70.0696
G01 X12.1948 Y70.0766
G01 X12.1761 Y70.0828
G01 X12.1572 Y70.0880
G01 X12.1380 Y70.0923
G01 X12.1187 Y70.0957
G01 X12.0992 Y70.0981
G01 X12.0796 Y70.0995
G01 X12.0600 Y70.1000
G01 X8.5600 Y70.1000
G01 X8.5306 Y70.0989
G01 X8.5013 Y70.0957
G01 X8.4724 Y70.0903
G01 X8.4533 Y70.0855
G01 X8.4345 Y70.0798
G01 X8.4069 Y70.0696
G01 X8.3890 Y70.0616
G01 X8.3714 Y70.0528
G01 X8.3460 Y70.0379
G01 X8.3297 Y70.0270
G01 X8.3139 Y70.0153
G01 X8.2987 Y70.0029
G01 X8.2842 Y69.9897
G01 X8.2636 Y69.9686
G01 X8.2447 Y69.9461
G01 X8.2330 Y69.9303
G01 X8.2221 Y69.9140
G01 X8.2120 Y69.8972
G01 X8.2027 Y69.8798
G01 X8.1904 Y69.8531
G01 X8.1802 Y69.8255
G01 X8.1745 Y69.8067
G01 X8.1697 Y69.7876
G01 X8.1643 Y69.7587
G01 X8.1619 Y69.7392
G01 X8.1605 Y69.7196
G01 X8.1600 Y69.7000
G01 X8.1600 Y68.0000
G01 X8.1605 Y67.9804
G01 X8.1619 Y67.9608
G01 X8.1643 Y67.9413
G01 X8.1697 Y67.9124
G01 X8.1772 Y67.8839
G01 X8.1834 Y67.8652
G01 X8.1943 Y67.8379
G01 X8.2027 Y67.8202
G01 X8.2169 Y67.7944
G01 X8.2274 Y67.7778
G01 X8.2387 Y67.7617
G01 X8.2571 Y67.7387
G01 X8.2703 Y67.7242
G01 X8.2914 Y67.7036
G01 X8.3139 Y67.6847
G01 X8.3297 Y67.6730
G01 X8.3460 Y67.6621
G01 X8.3628 Y67.6520
G01 X8.3890 Y67.6384
G01 X8.4069 Y67.6304
G01 X8.4345 Y67.6202
G01 X8.4533 Y67.6145
G01 X8.4724 Y67.6097
G01 X8.5013 Y67.6043
G01 X8.5306 Y67.6011
G01 X8.5502 Y67.6001
G01 X12.0600 Y67.6000
G01 X12.0796 Y67.6005
G01 X12.1090 Y67.6030
G01 X12.1284 Y67.6059
G01 X12.1476 Y67.6097
G01 X12.1761 Y67.6172
G01 X12.1948 Y67.6234
G01 X12.2221 Y67.6343
G01 X12.2398 Y67.6427
G01 X12.2656 Y67.6569
G01 X12.2822 Y67.6674
G01 X12.2983 Y67.6787
G01 X12.3138 Y67.6908
G01 X12.3358 Y67.7103
G01 X12.3497 Y67.7242
G01 X12.3629 Y67.7387
G01 X12.3813 Y67.7617
G01 X12.3926 Y67.7778
G01 X12.4031 Y67.7944
G01 X12.4128 Y67.8114
G01 X12.4216 Y67.8290
G01 X12.4296 Y67.8469
G01 X12.4366 Y67.8652
G01 X12.4428 Y67.8839
G01 X12.4480 Y67.9028
G01 X12.4523 Y67.9220
G01 X12.4557 Y67.9413
G01 X12.4581 Y67.9608
G01 X12.4599 Y67.9902
G01 X12.4600 Y68.1999
G01 X12.9807 Y68.1999
G01 X14.6499 Y66.5307
G01 X14.6499 Y12.1000
G01 X14.6504 Y12.0804
G01 X14.6522 Y12.0461
G01 X14.6541 Y12.0265
G01 X14.6590 Y11.9925
G01 X14.6624 Y11.9732
G01 X14.6667 Y11.9540
G01 X14.6751 Y11.9207
G01 X14.6808 Y11.9019
G01 X14.6923 Y11.8695
G01 X14.6994 Y11.8512
G01 X14.7073 Y11.8333
G01 X14.7221 Y11.8022
G01 X14.7314 Y11.7849
G01 X14.7489 Y11.7554
G01 X14.7594 Y11.7388
G01 X14.7707 Y11.7228
G01 X14.7913 Y11.6952
G01 X14.8038 Y11.6801
G01 X14.8268 Y11.6545
G01 X14.8403 Y11.6403
G01 X15.4473 Y11.0334
G01 X15.4727 Y11.0103
G01 X15.4876 Y10.9974
G01 X15.5030 Y10.9854
G01 X15.5307 Y10.9650
G01 X15.5470 Y10.9541
G01 X15.5765 Y10.9363
G01 X15.6022 Y10.9221
G01 X15.6422 Y10.9032
G01 X15.6603 Y10.8957
G01 X15.7019 Y10.8808
G01 X15.7207 Y10.8751
G01 X15.7636 Y10.8644
G01 X15.7828 Y10.8606
G01 X15.8265 Y10.8541
G01 X15.8559 Y10.8516
G01 X15.8804 Y10.8504
G01 X15.9000 Y10.8499
G01 X16.9700 Y10.8499
G01 X16.9701 Y10.4902
G01 X16.9746 Y10.3971
G01 X16.9771 Y10.3677
G01 X16.9907 Y10.2755
G01 X16.9940 Y10.2561
G01 X16.9983 Y10.2370
G01 X17.0186 Y10.1561
G01 X17.0238 Y10.1371
G01 X17.0300 Y10.1185
G01 X17.0581 Y10.0400
G01 X17.0652 Y10.0216
G01 X17.0731 Y10.0037
G01 X17.1088 Y9.9283
G01 X17.1176 Y9.9108
G01 X17.1273 Y9.8937
G01 X17.1702 Y9.8221
G01 X17.1807 Y9.8055
G01 X17.1920 Y9.7895
G01 X17.2417 Y9.7225
G01 X17.2537 Y9.7070
G01 X17.2666 Y9.6921
G01 X17.3226 Y9.6303
G01 X17.3361 Y9.6161
G01 X17.3503 Y9.6026
G01 X17.4121 Y9.5466
G01 X17.4347 Y9.5276
G01 X17.5095 Y9.4720
G01 X17.5255 Y9.4607
G01 X17.5421 Y9.4502
G01 X17.6137 Y9.4073
G01 X17.6308 Y9.3976
G01 X17.6483 Y9.3888
G01 X17.7237 Y9.3531
G01 X17.7416 Y9.3452
G01 X17.7600 Y9.3381
G01 X17.8385 Y9.3100
G01 X17.8571 Y9.3038
G01 X17.8761 Y9.2986
G01 X17.9570 Y9.2783
G01 X17.9761 Y9.2740
G01 X17.9955 Y9.2707
G01 X18.0780 Y9.2584
G01 X18.0975 Y9.2560
G01 X18.1171 Y9.2546
G01 X18.2004 Y9.2505
G01 X18.2200 Y9.2500
G01 X18.2396 Y9.2505
G01 X18.3229 Y9.2546
G01 X18.3425 Y9.2560
G01 X18.3620 Y9.2584
G01 X18.4445 Y9.2707
G01 X18.4639 Y9.2740
G01 X18.4830 Y9.2783
G01 X18.5639 Y9.2986
G01 X18.5829 Y9.3038
G01 X18.6015 Y9.3100
G01 X18.6800 Y9.3381
G01 X18.6984 Y9.3452
G01 X18.7163 Y9.3531
G01 X18.7917 Y9.3888
G01 X18.8092 Y9.3976
G01 X18.8263 Y9.4073
G01 X18.8979 Y9.4502
G01 X18.9145 Y9.4607
G01 X18.9305 Y9.4720
G01 X18.9975 Y9.5217
G01 X19.0130 Y9.5337
G01 X19.0279 Y9.5466
G01 X19.0897 Y9.6026
G01 X19.1039 Y9.6161
G01 X19.1174 Y9.6303
G01 X19.1734 Y9.6921
G01 X19.1863 Y9.7070
G01 X19.1983 Y9.7225
G01 X19.2480 Y9.7895
G01 X19.2593 Y9.8055
G01 X19.2698 Y9.8221
G01 X19.3127 Y9.8937
G01 X19.3224 Y9.9108
G01 X19.3312 Y9.9283
G01 X19.3669 Y10.0037
G01 X19.3785 Y10.0308
G01 X19.4100 Y10.1185
G01 X19.4189 Y10.1466
G01 X19.4439 Y10.2465
G01 X19.4493 Y10.2755
G01 X19.4629 Y10.3677
G01 X19.4654 Y10.3971
G01 X19.4695 Y10.4804
G01 X19.4700 Y10.5000
G01 X19.4700 Y11.5000
G01 X19.4695 Y11.5196
G01 X19.4654 Y11.6029
G01 X19.4629 Y11.6323
G01 X19.4478 Y11.7342
G01 X19.4417 Y11.7630
G01 X19.4214 Y11.8439
G01 X19.4162 Y11.8629
G01 X19.4100 Y11.8815
G01 X19.3819 Y11.9600
G01 X19.3748 Y11.9784
G01 X19.3669 Y11.9963
G01 X19.3312 Y12.0717
G01 X19.3224 Y12.0892
G01 X19.3127 Y12.1063
G01 X19.2698 Y12.1779
G01 X19.2593 Y12.1945
G01 X19.2480 Y12.2105
G01 X19.1983 Y12.2775
G01 X19.1863 Y12.2930
G01 X19.1734 Y12.3079
G01 X19.1174 Y12.3697
G01 X19.1039 Y12.3839
G01 X19.0897 Y12.3974
G01 X19.0279 Y12.4534
G01 X19.0130 Y12.4663
G01 X18.9975 Y12.4783
G01 X18.9305 Y12.5280
G01 X18.9145 Y12.5393
G01 X18.8979 Y12.5498
G01 X18.8263 Y12.5927
G01 X18.8092 Y12.6024
G01 X18.7917 Y12.6112
G01 X18.7163 Y12.6469
G01 X18.6984 Y12.6548
G01 X18.6800 Y12.6619
G01 X18.6015 Y12.6900
G01 X18.5829 Y12.6962
G01 X18.5639 Y12.7014
G01 X18.4830 Y12.7217
G01 X18.4639 Y12.7260
G01 X18.4445 Y12.7293
G01 X18.3620 Y12.7416
G01 X18.3425 Y12.7440
G01 X18.3229 Y12.7454
G01 X18.2396 Y12.7495
G01 X18.2102 Y12.7499
G01 X18.1073 Y12.7448
G01 X18.0780 Y12.7416
G01 X17.9955 Y12.7293
G01 X17.9761 Y12.7260
G01 X17.9570 Y12.7217
G01 X17.8761 Y12.7014
G01 X17.8571 Y12.6962
G01 X17.8385 Y12.6900
G01 X17.7600 Y12.6619
G01 X17.7416 Y12.6548
G01 X17.7237 Y12.6469
G01 X17.6483 Y12.6112
G01 X17.6222 Y12.5977
G01 X17.5338 Y12.5447
G01 X17.5095 Y12.5280
G01 X17.4425 Y12.4783
G01 X17.4270 Y12.4663
G01 X17.4121 Y12.4534
G01 X17.3431 Y12.3907
G01 X17.3226 Y12.3697
G01 X17.2666 Y12.3079
G01 X17.2476 Y12.2853
G01 X17.1862 Y12.2026
G01 X17.1753 Y12.1862
G01 X17.1535 Y12.1501
G00 Z2.0000
G00 X17.5699 Y16.1065
G01 F60.00
G01 Z-0.1100
G01 F120.00
G01 X17.5338 Y16.0847
G01 X17.5174 Y16.0738
G01 X17.4347 Y16.0124
G01 X17.4121 Y15.9934
G01 X17.3431 Y15.9307
G01 X17.3226 Y15.9097
G01 X17.2666 Y15.8479
G01 X17.2537 Y15.8330
G01 X17.2417 Y15.8175
G01 X17.1862 Y15.7426
G01 X17.1702 Y15.7179
G01 X17.1273 Y15.6463
G01 X17.1176 Y15.6292
G01 X17.1088 Y15.6117
G01 X17.0731 Y15.5363
G01 X17.0652 Y15.5184
G01 X17.0581 Y15.5000
G01 X17.0300 Y15.4215
G01 X17.0238 Y15.4029
G01 X17.0186 Y15.3839
G01 X16.9961 Y15.2935
G01 X16.9907 Y15.2645
G01 X16.9784 Y15.1820
G01 X16.9760 Y15.1625
G01 X16.9746 Y15.1429
G01 X16.9701 Y15.0498
G01 X16.9701 Y14.0302
G01 X16.9746 Y13.9371
G01 X16.9760 Y13.9175
G01 X16.9784 Y13.8980
G01 X16.9907 Y13.8155
G01 X16.9940 Y13.7961
G01 X16.9983 Y13.7770
G01 X17.0186 Y13.6961
G01 X17.0238 Y13.6771
G01 X17.0300 Y13.6585
G01 X17.0581 Y13.5800
G01 X17.0652 Y13.5616
G01 X17.0731 Y13.5437
G01 X17.1088 Y13.4683
G01 X17.1176 Y13.4508
G01 X17.1273 Y13.4337
G01 X17.1702 Y13.3621
G01 X17.1807 Y13.3455
G01 X17.1920 Y13.3295
G01 X17.2417 Y13.2625
G01 X17.2537 Y13.2470
G01 X17.2666 Y13.2321
G01 X17.3226 Y13.1703
G01 X17.3361 Y13.1561
G01 X17.3503 Y13.1426
G01 X17.4121 Y13.0866
G01 X17.4270 Y13.0737
G01 X17.4425 Y13.0617
G01 X17.5095 Y13.0120
G01 X17.5255 Y13.0007
G01 X17.5421 Y12.9902
G01 X17.6137 Y12.9473
G01 X17.6308 Y12.9376
G01 X17.6483 Y12.9288
G01 X17.7237 Y12.8931
G01 X17.7416 Y12.8852
G01 X17.7600 Y12.8781
G01 X17.8385 Y12.8500
G01 X17.8571 Y12.8438
G01 X17.8761 Y12.8386
G01 X17.9570 Y12.8183
G01 X17.9761 Y12.8140
G01 X17.9955 Y12.8107
G01 X18.0780 Y12.7984
G01 X18.0975 Y12.7960
G01 X18.1171 Y12.7946
G01 X18.2004 Y12.7905
G01 X18.2200 Y12.7900
G01 X18.2396 Y12.7905
G01 X18.3229 Y12.7946
G01 X18.3425 Y12.7960
G01 X18.3620 Y12.7984
G01 X18.4445 Y12.8107
G01 X18.4639 Y12.8140
G01 X18.4830 Y12.8183
G01 X18.5639 Y12.8386
G01 X18.5829 Y12.8438
G01 X18.6015 Y12.8500
G01 X18.6800 Y12.8781
G01 X18.6984 Y12.8852
G01 X18.7163 Y12.8931
G01 X18.7917 Y12.9288
G01 X18.8178 Y12.9423
G01 X18.8979 Y12.9902
G01 X18.9145 Y13.0007
G01 X18.9305 Y13.0120
G01 X18.9975 Y13.0617
G01 X19.0130 Y13.0737
G01 X19.0279 Y13.0866
G01 X19.0897 Y13.1426
G01 X19.1039 Y13.1561
G01 X19.1174 Y13.1703
G01 X19.1734 Y13.2321
G01 X19.1863 Y13.2470
G01 X19.1983 Y13.2625
G01 X19.2480 Y13.3295
G01 X19.2593 Y13.3455
G01 X19.2698 Y13.3621
G01 X19.3177 Y13.4422
G01 X19.3312 Y13.4683
G01 X19.3669 Y13.5437
G01 X19.3748 Y13.5616
G01 X19.3819 Y13.5800
G01 X19.4100 Y13.6585
G01 X19.4162 Y13.6771
G01 X19.4214 Y13.6961
G01 X19.4417 Y13.7770
G01 X19.4460 Y13.7961
G01 X19.4493 Y13.8155
G01 X19.4616 Y13.8980
G01 X19.4640 Y13.9175
G01 X19.4654 Y13.9371
G01 X19.4695 Y14.0204
G01 X19.4700 Y14.0400
G01 X19.4700 Y15.0400
G01 X19.4695 Y15.0596
G01 X19.4654 Y15.1429
G01 X19.4640 Y15.1625
G01 X19.4616 Y15.1820
G01 X19.4493 Y15.2645
G01 X19.4460 Y15.2839
G01 X19.4417 Y15.3030
G01 X19.4214 Y15.3839
G01 X19.4162 Y15.4029
G01 X19.4100 Y15.4215
G01 X19.3819 Y15.5000
G01 X19.3748 Y15.5184
G01 X19.3669 Y15.5363
G01 X19.3312 Y15.6117
G01 X19.3224 Y15.6292
G01 X19.3127 Y15.6463
G01 X19.2698 Y15.7179
G01 X19.2593 Y15.7345
G01 X19.2480 Y15.7505
G01 X19.1924 Y15.8253
G01 X19.1734 Y15.8479
G01 X19.1174 Y15.9097
G01 X19.1039 Y15.9239
G01 X19.0897 Y15.9374
G01 X19.0205 Y15.9999
G01 X18.9975 Y16.0183
G01 X18.9226 Y16.0738
G01 X18.9062 Y16.0847
G01 X18.8701 Y16.1065
G01 X18.8701 Y67.0800
G01 X18.8696 Y67.0996
G01 X18.8678 Y67.1339
G01 X18.8659 Y67.1535
G01 X18.8610 Y67.1875
G01 X18.8576 Y67.2068
G01 X18.8533 Y67.2260
G01 X18.8449 Y67.2593
G01 X18.8392 Y67.2781
G01 X18.8277 Y67.3105
G01 X18.8206 Y67.3288
G01 X18.8127 Y67.3467
G01 X18.7979 Y67.3778
G01 X18.7837 Y67.4035
G01 X18.7659 Y67.4330
G01 X18.7550 Y67.4493
G01 X18.7346 Y67.4770
G01 X18.7226 Y67.4924
G01 X18.7097 Y67.5073
G01 X18.6866 Y67.5327
G01 X14.3697 Y71.8497
G01 X14.3555 Y71.8632
G01 X14.3299 Y71.8862
G01 X14.3070 Y71.9046
G01 X14.2793 Y71.9250
G01 X14.2630 Y71.9359
G01 X14.2335 Y71.9537
G01 X14.2165 Y71.9634
G01 X14.1989 Y71.9722
G01 X14.1767 Y71.9827
G01 X14.1588 Y71.9906
G01 X14.1405 Y71.9977
G01 X14.1174 Y72.0060
G01 X14.0893 Y72.0149
G01 X14.0464 Y72.0256
G01 X14.0175 Y72.0310
G01 X13.9932 Y72.0346
G01 X13.9737 Y72.0370
G01 X13.9541 Y72.0384
G01 X13.9296 Y72.0396
G01 X13.9100 Y72.0401
G01 X12.4600 Y72.0401
G01 X12.4599 Y72.2498
G01 X12.4581 Y72.2792
G01 X12.4557 Y72.2987
G01 X12.4523 Y72.3180
G01 X12.4480 Y72.3372
G01 X12.4428 Y72.3561
G01 X12.4366 Y72.3748
G01 X12.4296 Y72.3931
G01 X12.4216 Y72.4110
G01 X12.4128 Y72.4286
G01 X12.4031 Y72.4456
G01 X12.3926 Y72.4622
G01 X12.3813 Y72.4783
G01 X12.3692 Y72.4938
G01 X12.3497 Y72.5158
G01 X12.3286 Y72.5364
G01 X12.3138 Y72.5492
G01 X12.2903 Y72.5670
G01 X12.2740 Y72.5779
G01 X12.2572 Y72.5880
G01 X12.2398 Y72.5973
G01 X12.2221 Y72.6057
G01 X12.1948 Y72.6166
G01 X12.1761 Y72.6228
G01 X12.1476 Y72.6303
G01 X12.1284 Y72.6341
G01 X12.1090 Y72.6370
G01 X12.0894 Y72.6389
G01 X12.0600 Y72.6400
G01 X8.5600 Y72.6400
G01 X8.5306 Y72.6389
G01 X8.5013 Y72.6357
G01 X8.4724 Y72.6303
G01 X8.4533 Y72.6255
G01 X8.4345 Y72.6198
G01 X8.4069 Y72.6096
G01 X8.3890 Y72.6016
G01 X8.3714 Y72.5928
G01 X8.3460 Y72.5779
G01 X8.3297 Y72.5670
G01 X8.3139 Y72.5553
G01 X8.2987 Y72.5429
G01 X8.2842 Y72.5297
G01 X8.2636 Y72.5086
G01 X8.2447 Y72.4861
G01 X8.2330 Y72.4703
G01 X8.2221 Y72.4540
G01 X8.2072 Y72.4286
G01 X8.1943 Y72.4021
G01 X8.1868 Y72.3840
G01 X8.1802 Y72.3655
G01 X8.1720 Y72.3372
G01 X8.1659 Y72.3084
G01 X8.1630 Y72.2890
G01 X8.1611 Y72.2694
G01 X8.1600 Y72.2400
G01 X8.1600 Y70.5400
G01 X8.1605 Y70.5204
G01 X8.1619 Y70.5008
G01 X8.1643 Y70.4813
G01 X8.1677 Y70.4620
G01 X8.1720 Y70.4428
G01 X8.1802 Y70.4145
G01 X8.1868 Y70.3960
G01 X8.1984 Y70.3690
G01 X8.2072 Y70.3514
G01 X8.2221 Y70.3260
G01 X8.2330 Y70.3097
G01 X8.2447 Y70.2939
G01 X8.2636 Y70.2714
G01 X8.2772 Y70.2572
G01 X8.2914 Y70.2436
G01 X8.3139 Y70.2247
G01 X8.3297 Y70.2130
G01 X8.3460 Y70.2021
G01 X8.3628 Y70.1920
G01 X8.3890 Y70.1784
G01 X8.4160 Y70.1668
G01 X8.4439 Y70.1572
G01 X8.4724 Y70.1497
G01 X8.5013 Y70.1443
G01 X8.5306 Y70.1411
G01 X8.5502 Y70.1401
G01 X12.0600 Y70.1400
G01 X12.0796 Y70.1405
G01 X12.0992 Y70.1419
G01 X12.1187 Y70.1443
G01 X12.1476 Y70.1497
G01 X12.1667 Y70.1545
G01 X12.1855 Y70.1602
G01 X12.2131 Y70.1704
G01 X12.2310 Y70.1784
G01 X12.2572 Y70.1920
G01 X12.2740 Y70.2021
G01 X12.2983 Y70.2187
G01 X12.3138 Y70.2308
G01 X12.3358 Y70.2503
G01 X12.3497 Y70.2642
G01 X12.3629 Y70.2787
G01 X12.3813 Y70.3017
G01 X12.3926 Y70.3178
G01 X12.4031 Y70.3344
G01 X12.4128 Y70.3514
G01 X12.4216 Y70.3690
G01 X12.4296 Y70.3869
G01 X12.4366 Y70.4052
G01 X12.4428 Y70.4239
G01 X12.4480 Y70.4428
G01 X12.4523 Y70.4620
G01 X12.4557 Y70.4813
G01 X12.4581 Y70.5008
G01 X12.4599 Y70.5302
G01 X12.4600 Y70.7399
G01 X13.6407 Y70.7399
G01 X17.5699 Y66.8107
G01 X17.5699 Y16.1065
G00 Z2.0000
G00 X20.0499 Y16.0683
G01 F60.00
G01 Z-0.1100
G01 F120.00
G01 X19.9825 Y16.0183
G01 X19.9670 Y16.0063
G01 X19.9521 Y15.9934
G01 X19.8903 Y15.9374
G01 X19.8761 Y15.9239
G01 X19.8626 Y15.9097
G01 X19.8066 Y15.8479
G01 X19.7937 Y15.8330
G01 X19.7817 Y15.8175
G01 X19.7320 Y15.7505
G01 X19.7207 Y15.7345
G01 X19.7102 Y15.7179
G01 X19.6673 Y15.6463
G01 X19.6576 Y15.6292
G01 X19.6488 Y15.6117
G01 X19.6131 Y15.5363
G01 X19.6052 Y15.5184
G01 X19.5981 Y15.5000
G01 X19.5700 Y15.4215
G01 X19.5638 Y15.4029
G01 X19.5586 Y15.3839
G01 X19.5383 Y15.3030
G01 X19.5340 Y15.2839
G01 X19.5307 Y15.2645
G01 X19.5184 Y15.1820
G01 X19.5160 Y15.1625
G01 X19.5146 Y15.1429
G01 X19.5101 Y15.0498
G01 X19.5101 Y14.0302
G01 X19.5146 Y13.9371
G01 X19.5160 Y13.9175
G01 X19.5184 Y13.8980
G01 X19.5307 Y13.8155
G01 X19.5340 Y13.7961
G01 X19.5383 Y13.7770
G01 X19.5586 Y13.6961
G01 X19.5668 Y13.6678
G01 X19.5981 Y13.5800
G01 X19.6052 Y13.5616
G01 X19.6131 Y13.5437
G01 X19.6488 Y13.4683
G01 X19.6576 Y13.4508
G01 X19.6673 Y13.4337
G01 X19.7102 Y13.3621
G01 X19.7207 Y13.3455
G01 X19.7320 Y13.3295
G01 X19.7817 Y13.2625
G01 X19.7937 Y13.2470
G01 X19.8066 Y13.2321
G01 X19.8626 Y13.1703
G01 X19.8761 Y13.1561
G01 X19.8903 Y13.1426
G01 X19.9521 Y13.0866
G01 X19.9670 Y13.0737
G01 X19.9825 Y13.0617
G01 X20.0495 Y13.0120
G01 X20.0655 Y13.0007
G01 X20.0821 Y12.9902
G01 X20.1537 Y12.9473
G01 X20.1708 Y12.9376
G01 X20.1883 Y12.9288
G01 X20.2637 Y12.8931
G01 X20.2816 Y12.8852
G01 X20.3000 Y12.8781
G01 X20.3785 Y12.8500
G01 X20.3971 Y12.8438
G01 X20.4161 Y12.8386
G01 X20.4970 Y12.8183
G01 X20.5161 Y12.8140
G01 X20.5355 Y12.8107
G01 X20.6180 Y12.7984
G01 X20.6375 Y12.7960
G01 X20.6571 Y12.7946
G01 X20.7404 Y12.7905
G01 X20.7600 Y12.7900
G01 X20.7796 Y12.7905
G01 X20.8629 Y12.7946
G01 X20.8825 Y12.7960
G01 X20.9020 Y12.7984
G01 X20.9845 Y12.8107
G01 X21.0039 Y12.8140
G01 X21.0230 Y12.8183
G01 X21.1039 Y12.8386
G01 X21.1322 Y12.8468
G01 X21.2200 Y12.8781
G01 X21.2384 Y12.8852
G01 X21.2563 Y12.8931
G01 X21.3405 Y12.9331
G01 X21.3663 Y12.9473
G01 X21.4379 Y12.9902
G01 X21.4545 Y13.0007
G01 X21.4705 Y13.0120
G01 X21.5375 Y13.0617
G01 X21.5530 Y13.0737
G01 X21.5679 Y13.0866
G01 X21.6297 Y13.1426
G01 X21.6439 Y13.1561
G01 X21.6574 Y13.1703
G01 X21.7134 Y13.2321
G01 X21.7263 Y13.2470
G01 X21.7383 Y13.2625
G01 X21.7880 Y13.3295
G01 X21.7993 Y13.3455
G01 X21.8098 Y13.3621
G01 X21.8577 Y13.4422
G01 X21.8712 Y13.4683
G01 X21.9069 Y13.5437
G01 X21.9148 Y13.5616
G01 X21.9219 Y13.5800
G01 X21.9500 Y13.6585
G01 X21.9562 Y13.6771
G01 X21.9614 Y13.6961
G01 X21.9817 Y13.7770
G01 X21.9860 Y13.7961
G01 X21.9893 Y13.8155
G01 X22.0016 Y13.8980
G01 X22.0040 Y13.9175
G01 X22.0054 Y13.9371
G01 X22.0095 Y14.0204
G01 X22.0100 Y14.0400
G01 X22.0100 Y15.0400
G01 X22.0095 Y15.0596
G01 X22.0054 Y15.1429
G01 X22.0040 Y15.1625
G01 X22.0016 Y15.1820
G01 X21.9893 Y15.2645
G01 X21.9860 Y15.2839
G01 X21.9817 Y15.3030
G01 X21.9614 Y15.3839
G01 X21.9562 Y15.4029
G01 X21.9500 Y15.4215
G01 X21.9219 Y15.5000
G01 X21.9148 Y15.5184
G01 X21.9069 Y15.5363
G01 X21.8712 Y15.6117
G01 X21.8624 Y15.6292
G01 X21.8527 Y15.6463
G01 X21.8098 Y15.7179
G01 X21.7993 Y15.7345
G01 X21.7880 Y15.7505
G01 X21.7383 Y15.8175
G01 X21.7263 Y15.8330
G01 X21.7134 Y15.8479
G01 X21.6574 Y15.9097
G01 X21.6439 Y15.9239
G01 X21.6297 Y15.9374
G01 X21.5679 Y15.9934
G01 X21.5530 Y16.0063
G01 X21.5375 Y16.0183
G01 X21.4705 Y16.0680
G01 X21.4545 Y16.0793
G01 X21.4379 Y16.0898
G01 X21.3663 Y16.1327
G01 X21.3501 Y16.1419
G01 X21.3501 Y65.1507
G01 X21.8593 Y65.6599
G01 X27.7400 Y65.6599
G01 X27.7400 Y65.4600
G01 X27.7411 Y65.4306
G01 X27.7430 Y65.4110
G01 X27.7459 Y65.3916
G01 X27.7497 Y65.3724
G01 X27.7545 Y65.3533
G01 X27.7602 Y65.3345
G01 X27.7668 Y65.3160
G01 X27.7743 Y65.2979
G01 X27.7827 Y65.2802
G01 X27.7920 Y65.2628
G01 X27.8074 Y65.2378
G01 X27.8187 Y65.2217
G01 X27.8308 Y65.2062
G01 X27.8503 Y65.1842
G01 X27.8714 Y65.1636
G01 X27.8862 Y65.1508
G01 X27.9017 Y65.1387
G01 X27.9178 Y65.1274
G01 X27.9344 Y65.1169
G01 X27.9602 Y65.1027
G01 X27.9779 Y65.0943
G01 X27.9960 Y65.0868
G01 X28.0145 Y65.0802
G01 X28.0333 Y65.0745
G01 X28.0524 Y65.0697
G01 X28.0813 Y65.0643
G01 X28.1106 Y65.0611
G01 X28.1400 Y65.0600
G01 X31.6400 Y65.0600
G01 X31.6596 Y65.0605
G01 X31.6890 Y65.0630
G01 X31.7084 Y65.0659
G01 X31.7276 Y65.0697
G01 X31.7561 Y65.0772
G01 X31.7840 Y65.0868
G01 X31.8110 Y65.0984
G01 X31.8286 Y65.1072
G01 X31.8456 Y65.1169
G01 X31.8622 Y65.1274
G01 X31.8783 Y65.1387
G01 X31.9013 Y65.1571
G01 X31.9158 Y65.1703
G01 X31.9297 Y65.1842
G01 X31.9492 Y65.2062
G01 X31.9613 Y65.2217
G01 X31.9726 Y65.2378
G01 X31.9880 Y65.2628
G01 X32.0016 Y65.2890
G01 X32.0096 Y65.3069
G01 X32.0166 Y65.3252
G01 X32.0255 Y65.3533
G01 X32.0303 Y65.3724
G01 X32.0341 Y65.3916
G01 X32.0370 Y65.4110
G01 X32.0389 Y65.4306
G01 X32.0400 Y65.4600
G01 X32.0400 Y67.1600
G01 X32.0389 Y67.1894
G01 X32.0357 Y67.2187
G01 X32.0303 Y67.2476
G01 X32.0255 Y67.2667
G01 X32.0198 Y67.2855
G01 X32.0096 Y67.3131
G01 X31.9973 Y67.3398
G01 X31.9831 Y67.3656
G01 X31.9670 Y67.3903
G01 X31.9492 Y67.4138
G01 X31.9297 Y67.4358
G01 X31.9086 Y67.4564
G01 X31.8861 Y67.4753
G01 X31.8622 Y67.4926
G01 X31.8372 Y67.5080
G01 X31.8110 Y67.5216
G01 X31.7840 Y67.5332
G01 X31.7561 Y67.5428
G01 X31.7276 Y67.5503
G01 X31.7084 Y67.5541
G01 X31.6890 Y67.5570
G01 X31.6596 Y67.5595
G01 X31.6400 Y67.5600
G01 X28.1400 Y67.5600
G01 X28.1106 Y67.5589
G01 X28.0813 Y67.5557
G01 X28.0620 Y67.5523
G01 X28.0428 Y67.5480
G01 X28.0145 Y67.5398
G01 X27.9960 Y67.5332
G01 X27.9779 Y67.5257
G01 X27.9602 Y67.5173
G01 X27.9428 Y67.5080
G01 X27.9178 Y67.4926
G01 X27.9017 Y67.4813
G01 X27.8862 Y67.4692
G01 X27.8642 Y67.4497
G01 X27.8503 Y67.4358
G01 X27.8371 Y67.4213
G01 X27.8187 Y67.3983
G01 X27.8074 Y67.3822
G01 X27.7920 Y67.3572
G01 X27.7827 Y67.3398
G01 X27.7743 Y67.3221
G01 X27.7668 Y67.3040
G01 X27.7602 Y67.2855
G01 X27.7545 Y67.2667
G01 X27.7497 Y67.2476
G01 X27.7459 Y67.2284
G01 X27.7430 Y67.2090
G01 X27.7405 Y67.1796
G01 X27.7400 Y67.1600
G01 X27.7400 Y66.9601
G01 X21.5900 Y66.9601
G01 X21.5704 Y66.9596
G01 X21.5459 Y66.9584
G01 X21.5263 Y66.9570
G01 X21.5068 Y66.9546
G01 X21.4728 Y66.9494
G01 X21.4536 Y66.9456
G01 X21.4202 Y66.9374
G01 X21.4013 Y66.9321
G01 X21.3826 Y66.9260
G01 X21.3503 Y66.9143
G01 X21.3322 Y66.9068
G01 X21.3011 Y66.8922
G01 X21.2835 Y66.8834
G01 X21.2665 Y66.8737
G01 X21.2370 Y66.8559
G01 X21.2207 Y66.8450
G01 X21.1930 Y66.8246
G01 X21.1701 Y66.8062
G01 X21.1445 Y66.7832
G01 X21.1303 Y66.7697
G01 X20.2403 Y65.8797
G01 X20.2268 Y65.8655
G01 X20.2038 Y65.8399
G01 X20.1854 Y65.8170
G01 X20.1707 Y65.7972
G01 X20.1594 Y65.7812
G01 X20.1489 Y65.7646
G01 X20.1363 Y65.7435
G01 X20.1221 Y65.7178
G01 X20.1073 Y65.6867
G01 X20.0994 Y65.6688
G01 X20.0923 Y65.6505
G01 X20.0840 Y65.6274
G01 X20.0751 Y65.5993
G01 X20.0644 Y65.5564
G01 X20.0590 Y65.5275
G01 X20.0554 Y65.5032
G01 X20.0530 Y65.4837
G01 X20.0516 Y65.4641
G01 X20.0504 Y65.4396
G01 X20.0499 Y65.4200
G01 X20.0499 Y16.0683
G00 Z2.0000
G00 X22.6499 Y16.1065
G01 F60.00
G01 Z-0.1100
G01 F120.00
G01 X22.6138 Y16.0847
G01 X22.5974 Y16.0738
G01 X22.5147 Y16.0124
G01 X22.4921 Y15.9934
G01 X22.4231 Y15.9307
G01 X22.4026 Y15.9097
G01 X22.3466 Y15.8479
G01 X22.3337 Y15.8330
G01 X22.3217 Y15.8175
G01 X22.2662 Y15.7426
G01 X22.2502 Y15.7179
G01 X22.2073 Y15.6463
G01 X22.1976 Y15.6292
G01 X22.1888 Y15.6117
G01 X22.1531 Y15.5363
G01 X22.1452 Y15.5184
G01 X22.1381 Y15.5000
G01 X22.1100 Y15.4215
G01 X22.1038 Y15.4029
G01 X22.0986 Y15.3839
G01 X22.0761 Y15.2935
G01 X22.0707 Y15.2645
G01 X22.0584 Y15.1820
G01 X22.0560 Y15.1625
G01 X22.0546 Y15.1429
G01 X22.0501 Y15.0498
G01 X22.0501 Y14.0302
G01 X22.0546 Y13.9371
G01 X22.0560 Y13.9175
G01 X22.0584 Y13.8980
G01 X22.0707 Y13.8155
G01 X22.0740 Y13.7961
G01 X22.0783 Y13.7770
G01 X22.0986 Y13.6961
G01 X22.1038 Y13.6771
G01 X22.1100 Y13.6585
G01 X22.1381 Y13.5800
G01 X22.1452 Y13.5616
G01 X22.1531 Y13.5437
G01 X22.1888 Y13.4683
G01 X22.1976 Y13.4508
G01 X22.2073 Y13.4337
G01 X22.2502 Y13.3621
G01 X22.2607 Y13.3455
G01 X22.2720 Y13.3295
G01 X22.3217 Y13.2625
G01 X22.3337 Y13.2470
G01 X22.3466 Y13.2321
G01 X22.4026 Y13.1703
G01 X22.4161 Y13.1561
G01 X22.4303 Y13.1426
G01 X22.4921 Y13.0866
G01 X22.5070 Y13.0737
G01 X22.5225 Y13.0617
G01 X22.5895 Y13.0120
G01 X22.6055 Y13.0007
G01 X22.6221 Y12.9902
G01 X22.6937 Y12.9473
G01 X22.7108 Y12.9376
G01 X22.7283 Y12.9288
G01 X22.8037 Y12.8931
G01 X22.8216 Y12.8852
G01 X22.8400 Y12.8781
G01 X22.9185 Y12.8500
G01 X22.9371 Y12.8438
G01 X22.9561 Y12.8386
G01 X23.0370 Y12.8183
G01 X23.0561 Y12.8140
G01 X23.0755 Y12.8107
G01 X23.1580 Y12.7984
G01 X23.1775 Y12.7960
G01 X23.1971 Y12.7946
G01 X23.2804 Y12.7905
G01 X23.3000 Y12.7900
G01 X23.3196 Y12.7905
G01 X23.4029 Y12.7946
G01 X23.4225 Y12.7960
G01 X23.4420 Y12.7984
G01 X23.5245 Y12.8107
G01 X23.5439 Y12.8140
G01 X23.5630 Y12.8183
G01 X23.6439 Y12.8386
G01 X23.6629 Y12.8438
G01 X23.6815 Y12.8500
G01 X23.7600 Y12.8781
G01 X23.7784 Y12.8852
G01 X23.7963 Y12.8931
G01 X23.8717 Y12.9288
G01 X23.8978 Y12.9423
G01 X23.9779 Y12.9902
G01 X23.9945 Y13.0007
G01 X24.0105 Y13.0120
G01 X24.0775 Y13.0617
G01 X24.0930 Y13.0737
G01 X24.1079 Y13.0866
G01 X24.1697 Y13.1426
G01 X24.1839 Y13.1561
G01 X24.1974 Y13.1703
G01 X24.2534 Y13.2321
G01 X24.2663 Y13.2470
G01 X24.2783 Y13.2625
G01 X24.3280 Y13.3295
G01 X24.3393 Y13.3455
G01 X24.3498 Y13.3621
G01 X24.3977 Y13.4422
G01 X24.4112 Y13.4683
G01 X24.4469 Y13.5437
G01 X24.4548 Y13.5616
G01 X24.4619 Y13.5800
G01 X24.4900 Y13.6585
G01 X24.4962 Y13.6771
G01 X24.5014 Y13.6961
G01 X24.5217 Y13.7770
G01 X24.5260 Y13.7961
G01 X24.5293 Y13.8155
G01 X24.5416 Y13.8980
G01 X24.5440 Y13.9175
G01 X24.5454 Y13.9371
G01 X24.5495 Y14.0204
G01 X24.5500 Y14.0400
G01 X24.5500 Y15.0400
G01 X24.5495 Y15.0596
G01 X24.5454 Y15.1429
G01 X24.5440 Y15.1625
G01 X24.5416 Y15.1820
G01 X24.5293 Y15.2645
G01 X24.5260 Y15.2839
G01 X24.5217 Y15.3030
G01 X24.5014 Y15.3839
G01 X24.4962 Y15.4029
G01 X24.4900 Y15.4215
G01 X24.4619 Y15.5000
G01 X24.4548 Y15.5184
G01 X24.4469 Y15.5363
G01 X24.4112 Y15.6117
G01 X24.4024 Y15.6292
G01 X24.3927 Y15.6463
G01 X24.3498 Y15.7179
G01 X24.3393 Y15.7345
G01 X24.3280 Y15.7505
G01 X24.2724 Y15.8253
G01 X24.2534 Y15.8479
G01 X24.1974 Y15.9097
G01 X24.1839 Y15.9239
G01 X24.1697 Y15.9374
G01 X24.1005 Y15.9999
G01 X24.0775 Y16.0183
G01 X24.0026 Y16.0738
G01 X23.9862 Y16.0847
G01 X23.9501 Y16.1065
G01 X23.9501 Y62.4307
G01 X24.4693 Y62.9499
G01 X27.7400 Y62.9499
G01 X27.7400 Y62.9200
G01 X27.7405 Y62.9004
G01 X27.7419 Y62.8808
G01 X27.7443 Y62.8613
G01 X27.7477 Y62.8420
G01 X27.7520 Y62.8228
G01 X27.7572 Y62.8039
G01 X27.7634 Y62.7852
G01 X27.7704 Y62.7669
G01 X27.7784 Y62.7490
G01 X27.7872 Y62.7314
G01 X27.7969 Y62.7144
G01 X27.8074 Y62.6978
G01 X27.8187 Y62.6817
G01 X27.8308 Y62.6662
G01 X27.8436 Y62.6514
G01 X27.8572 Y62.6372
G01 X27.8714 Y62.6236
G01 X27.8862 Y62.6108
G01 X27.9017 Y62.5987
G01 X27.9178 Y62.5874
G01 X27.9344 Y62.5769
G01 X27.9514 Y62.5672
G01 X27.9690 Y62.5584
G01 X27.9869 Y62.5504
G01 X28.0052 Y62.5434
G01 X28.0239 Y62.5372
G01 X28.0428 Y62.5320
G01 X28.0620 Y62.5277
G01 X28.0813 Y62.5243
G01 X28.1008 Y62.5219
G01 X28.1204 Y62.5205
G01 X28.1400 Y62.5200
G01 X31.6400 Y62.5200
G01 X31.6694 Y62.5211
G01 X31.6987 Y62.5243
G01 X31.7180 Y62.5277
G01 X31.7372 Y62.5320
G01 X31.7655 Y62.5402
G01 X31.7931 Y62.5504
G01 X31.8198 Y62.5627
G01 X31.8456 Y62.5769
G01 X31.8703 Y62.5930
G01 X31.8938 Y62.6108
G01 X31.9158 Y62.6303
G01 X31.9364 Y62.6514
G01 X31.9492 Y62.6662
G01 X31.9670 Y62.6897
G01 X31.9831 Y62.7144
G01 X31.9973 Y62.7402
G01 X32.0096 Y62.7669
G01 X32.0198 Y62.7945
G01 X32.0280 Y62.8228
G01 X32.0341 Y62.8516
G01 X32.0370 Y62.8710
G01 X32.0395 Y62.9004
G01 X32.0400 Y62.9200
G01 X32.0399 Y64.6298
G01 X32.0381 Y64.6592
G01 X32.0357 Y64.6787
G01 X32.0323 Y64.6980
G01 X32.0255 Y64.7267
G01 X32.0198 Y64.7455
G01 X32.0132 Y64.7640
G01 X32.0057 Y64.7821
G01 X31.9973 Y64.7998
G01 X31.9831 Y64.8256
G01 X31.9726 Y64.8422
G01 X31.9613 Y64.8583
G01 X31.9429 Y64.8813
G01 X31.9297 Y64.8958
G01 X31.9158 Y64.9097
G01 X31.8938 Y64.9292
G01 X31.8783 Y64.9413
G01 X31.8622 Y64.9526
G01 X31.8372 Y64.9680
G01 X31.8198 Y64.9773
G01 X31.8021 Y64.9857
G01 X31.7748 Y64.9966
G01 X31.7561 Y65.0028
G01 X31.7372 Y65.0080
G01 X31.7084 Y65.0141
G01 X31.6792 Y65.0181
G01 X31.6596 Y65.0195
G01 X31.6400 Y65.0200
G01 X28.1400 Y65.0200
G01 X28.1204 Y65.0195
G01 X28.1008 Y65.0181
G01 X28.0716 Y65.0141
G01 X28.0428 Y65.0080
G01 X28.0239 Y65.0028
G01 X27.9960 Y64.9932
G01 X27.9779 Y64.9857
G01 X27.9514 Y64.9728
G01 X27.9260 Y64.9579
G01 X27.9097 Y64.9470
G01 X27.8862 Y64.9292
G01 X27.8714 Y64.9164
G01 X27.8572 Y64.9028
G01 X27.8371 Y64.8813
G01 X27.8187 Y64.8583
G01 X27.8021 Y64.8340
G01 X27.7872 Y64.8086
G01 X27.7784 Y64.7910
G01 X27.7668 Y64.7640
G01 X27.7602 Y64.7455
G01 X27.7545 Y64.7267
G01 X27.7497 Y64.7076
G01 X27.7459 Y64.6884
G01 X27.7430 Y64.6690
G01 X27.7411 Y64.6494
G01 X27.7400 Y64.6200
G01 X27.7400 Y64.2501
G01 X24.2000 Y64.2501
G01 X24.1804 Y64.2496
G01 X24.1559 Y64.2484
G01 X24.1265 Y64.2459
G01 X24.0828 Y64.2394
G01 X24.0540 Y64.2333
G01 X24.0302 Y64.2274
G01 X24.0113 Y64.2221
G01 X23.9926 Y64.2160
G01 X23.9695 Y64.2077
G01 X23.9422 Y64.1968
G01 X23.9022 Y64.1779
G01 X23.8765 Y64.1637
G01 X23.8554 Y64.1511
G01 X23.8388 Y64.1406
G01 X23.8228 Y64.1293
G01 X23.7952 Y64.1087
G01 X23.7727 Y64.0897
G01 X23.7545 Y64.0732
G01 X23.7403 Y64.0597
G01 X22.8403 Y63.1597
G01 X22.8268 Y63.1455
G01 X22.8038 Y63.1199
G01 X22.7854 Y63.0970
G01 X22.7650 Y63.0693
G01 X22.7541 Y63.0530
G01 X22.7363 Y63.0235
G01 X22.7266 Y63.0065
G01 X22.7178 Y62.9889
G01 X22.7032 Y62.9578
G01 X22.6957 Y62.9397
G01 X22.6840 Y62.9074
G01 X22.6779 Y62.8887
G01 X22.6726 Y62.8698
G01 X22.6644 Y62.8364
G01 X22.6606 Y62.8172
G01 X22.6554 Y62.7832
G01 X22.6530 Y62.7637
G01 X22.6516 Y62.7441
G01 X22.6504 Y62.7196
G01 X22.6499 Y62.7000
G01 X22.6499 Y16.1065
G00 Z2.0000
G00 X24.5322 Y12.2501
G01 F60.00
G01 Z-0.1100
G01 F120.00
G01 X24.5247 Y12.2793
G01 X24.5190 Y12.2980
G01 X24.5076 Y12.3304
G01 X24.5005 Y12.3487
G01 X24.4926 Y12.3667
G01 X24.4778 Y12.3977
G01 X24.4685 Y12.4150
G01 X24.4510 Y12.4445
G01 X24.4405 Y12.4611
G01 X24.4292 Y12.4772
G01 X24.4086 Y12.5047
G01 X24.3961 Y12.5199
G01 X24.3732 Y12.5454
G01 X24.3596 Y12.5596
G01 X24.3454 Y12.5732
G01 X24.3199 Y12.5961
G01 X24.3047 Y12.6086
G01 X24.2772 Y12.6292
G01 X24.2611 Y12.6405
G01 X24.2445 Y12.6510
G01 X24.2150 Y12.6685
G01 X24.1977 Y12.6778
G01 X24.1667 Y12.6926
G01 X24.1487 Y12.7005
G01 X24.1304 Y12.7076
G01 X24.0980 Y12.7190
G01 X24.0793 Y12.7247
G01 X24.0460 Y12.7332
G01 X24.0172 Y12.7393
G01 X23.9832 Y12.7445
G01 X23.9637 Y12.7469
G01 X23.9441 Y12.7483
G01 X23.9196 Y12.7495
G01 X23.9000 Y12.7500
G01 X22.7000 Y12.7500
G01 X22.6804 Y12.7495
G01 X22.6461 Y12.7477
G01 X22.6168 Y12.7445
G01 X22.5828 Y12.7393
G01 X22.5636 Y12.7355
G01 X22.5207 Y12.7247
G01 X22.5020 Y12.7190
G01 X22.4604 Y12.7042
G01 X22.4422 Y12.6967
G01 X22.4023 Y12.6778
G01 X22.3850 Y12.6685
G01 X22.3471 Y12.6458
G01 X22.3308 Y12.6349
G01 X22.2953 Y12.6086
G01 X22.2801 Y12.5961
G01 X22.2474 Y12.5665
G01 X22.2335 Y12.5526
G01 X22.2039 Y12.5199
G01 X22.1914 Y12.5047
G01 X22.1708 Y12.4772
G01 X22.1595 Y12.4611
G01 X22.1490 Y12.4445
G01 X22.1315 Y12.4150
G01 X22.1222 Y12.3977
G01 X22.1074 Y12.3667
G01 X22.0958 Y12.3396
G01 X22.0841 Y12.3073
G01 X22.0780 Y12.2887
G01 X22.0728 Y12.2698
G01 X22.0645 Y12.2364
G01 X22.0607 Y12.2172
G01 X22.0555 Y12.1832
G01 X22.0531 Y12.1637
G01 X22.0517 Y12.1441
G01 X22.0505 Y12.1196
G01 X22.0500 Y12.1000
G01 X22.0501 Y9.8902
G01 X22.0523 Y9.8461
G01 X22.0542 Y9.8265
G01 X22.0607 Y9.7828
G01 X22.0668 Y9.7540
G01 X22.0728 Y9.7302
G01 X22.0780 Y9.7113
G01 X22.0841 Y9.6927
G01 X22.0924 Y9.6696
G01 X22.1033 Y9.6422
G01 X22.1222 Y9.6023
G01 X22.1364 Y9.5765
G01 X22.1490 Y9.5555
G01 X22.1595 Y9.5389
G01 X22.1708 Y9.5228
G01 X22.1855 Y9.5031
G01 X22.1975 Y9.4876
G01 X22.2104 Y9.4728
G01 X22.2268 Y9.4546
G01 X22.2404 Y9.4404
G01 X22.2546 Y9.4268
G01 X22.2728 Y9.4104
G01 X22.2953 Y9.3914
G01 X22.3228 Y9.3708
G01 X22.3389 Y9.3595
G01 X22.3555 Y9.3490
G01 X22.3765 Y9.3364
G01 X22.3936 Y9.3268
G01 X22.4111 Y9.3179
G01 X22.4422 Y9.3033
G01 X22.4604 Y9.2958
G01 X22.4927 Y9.2841
G01 X22.5113 Y9.2780
G01 X22.5302 Y9.2728
G01 X22.5636 Y9.2645
G01 X22.5828 Y9.2607
G01 X22.6168 Y9.2555
G01 X22.6363 Y9.2531
G01 X22.6559 Y9.2517
G01 X22.6902 Y9.2501
G01 X23.9000 Y9.2500
G01 X23.9196 Y9.2505
G01 X23.9441 Y9.2517
G01 X23.9735 Y9.2542
G01 X24.0172 Y9.2607
G01 X24.0460 Y9.2668
G01 X24.0698 Y9.2728
G01 X24.0887 Y9.2780
G01 X24.1073 Y9.2841
G01 X24.1304 Y9.2924
G01 X24.1487 Y9.2995
G01 X24.1667 Y9.3074
G01 X24.1889 Y9.3179
G01 X24.2150 Y9.3315
G01 X24.2529 Y9.3542
G01 X24.2692 Y9.3651
G01 X24.3047 Y9.3914
G01 X24.3272 Y9.4104
G01 X24.3526 Y9.4335
G01 X24.3732 Y9.4546
G01 X24.3896 Y9.4728
G01 X24.4025 Y9.4876
G01 X24.4145 Y9.5031
G01 X24.4292 Y9.5228
G01 X24.4458 Y9.5471
G01 X24.4685 Y9.5850
G01 X24.4778 Y9.6023
G01 X24.4967 Y9.6422
G01 X24.5076 Y9.6696
G01 X24.5159 Y9.6927
G01 X24.5220 Y9.7113
G01 X24.5272 Y9.7302
G01 X24.5332 Y9.7540
G01 X24.5375 Y9.7732
G01 X24.5409 Y9.7925
G01 X24.5445 Y9.8168
G01 X24.5469 Y9.8363
G01 X24.5483 Y9.8559
G01 X24.5495 Y9.8804
G01 X24.5500 Y9.9000
G01 X24.5500 Y10.9499
G01 X25.4000 Y10.9499
G01 X25.4196 Y10.9504
G01 X25.4539 Y10.9522
G01 X25.4735 Y10.9541
G01 X25.5075 Y10.9590
G01 X25.5268 Y10.9624
G01 X25.5460 Y10.9667
G01 X25.5698 Y10.9726
G01 X25.5887 Y10.9779
G01 X25.6074 Y10.9840
G01 X25.6397 Y10.9957
G01 X25.6578 Y11.0032
G01 X25.6889 Y11.0178
G01 X25.7151 Y11.0314
G01 X25.7446 Y11.0489
G01 X25.7612 Y11.0594
G01 X25.7772 Y11.0707
G01 X25.8048 Y11.0913
G01 X25.8199 Y11.1038
G01 X25.8455 Y11.1268
G01 X25.8666 Y11.1473
G01 X25.8897 Y11.1727
G01 X25.9026 Y11.1876
G01 X25.9146 Y11.2030
G01 X25.9293 Y11.2228
G01 X25.9459 Y11.2470
G01 X25.9637 Y11.2765
G01 X25.9734 Y11.2935
G01 X25.9822 Y11.3111
G01 X25.9968 Y11.3422
G01 X26.0077 Y11.3695
G01 X26.0160 Y11.3926
G01 X26.0221 Y11.4113
G01 X26.0274 Y11.4302
G01 X26.0356 Y11.4636
G01 X26.0410 Y11.4925
G01 X26.0459 Y11.5265
G01 X26.0478 Y11.5461
G01 X26.0496 Y11.5804
G01 X26.0501 Y11.6000
G01 X26.0501 Y60.2307
G01 X26.3993 Y60.5799
G01 X27.7400 Y60.5799
G01 X27.7400 Y60.3800
G01 X27.7411 Y60.3506
G01 X27.7430 Y60.3310
G01 X27.7459 Y60.3116
G01 X27.7497 Y60.2924
G01 X27.7545 Y60.2733
G01 X27.7602 Y60.2545
G01 X27.7668 Y60.2360
G01 X27.7743 Y60.2179
G01 X27.7827 Y60.2002
G01 X27.7920 Y60.1828
G01 X27.8074 Y60.1578
G01 X27.8187 Y60.1417
G01 X27.8308 Y60.1262
G01 X27.8436 Y60.1114
G01 X27.8572 Y60.0972
G01 X27.8714 Y60.0836
G01 X27.8862 Y60.0708
G01 X27.9097 Y60.0530
G01 X27.9260 Y60.0421
G01 X27.9514 Y60.0272
G01 X27.9690 Y60.0184
G01 X27.9869 Y60.0104
G01 X28.0145 Y60.0002
G01 X28.0333 Y59.9945
G01 X28.0524 Y59.9897
G01 X28.0813 Y59.9843
G01 X28.1106 Y59.9811
G01 X28.1400 Y59.9800
G01 X31.6400 Y59.9800
G01 X31.6596 Y59.9805
G01 X31.6792 Y59.9819
G01 X31.6987 Y59.9843
G01 X31.7180 Y59.9877
G01 X31.7372 Y59.9920
G01 X31.7561 Y59.9972
G01 X31.7840 Y60.0068
G01 X31.8110 Y60.0184
G01 X31.8372 Y60.0320
G01 X31.8622 Y60.0474
G01 X31.8783 Y60.0587
G01 X31.9013 Y60.0771
G01 X31.9228 Y60.0972
G01 X31.9364 Y60.1114
G01 X31.9553 Y60.1339
G01 X31.9670 Y60.1497
G01 X31.9831 Y60.1744
G01 X31.9973 Y60.2002
G01 X32.0096 Y60.2269
G01 X32.0198 Y60.2545
G01 X32.0280 Y60.2828
G01 X32.0341 Y60.3116
G01 X32.0370 Y60.3310
G01 X32.0395 Y60.3604
G01 X32.0400 Y60.3800
G01 X32.0399 Y62.0898
G01 X32.0389 Y62.1094
G01 X32.0370 Y62.1290
G01 X32.0341 Y62.1484
G01 X32.0303 Y62.1676
G01 X32.0228 Y62.1961
G01 X32.0166 Y62.2148
G01 X32.0096 Y62.2331
G01 X31.9973 Y62.2598
G01 X31.9880 Y62.2772
G01 X31.9779 Y62.2940
G01 X31.9670 Y62.3103
G01 X31.9553 Y62.3261
G01 X31.9364 Y62.3486
G01 X31.9158 Y62.3697
G01 X31.9013 Y62.3829
G01 X31.8861 Y62.3953
G01 X31.8622 Y62.4126
G01 X31.8456 Y62.4231
G01 X31.8286 Y62.4328
G01 X31.8110 Y62.4416
G01 X31.7931 Y62.4496
G01 X31.7655 Y62.4598
G01 X31.7467 Y62.4655
G01 X31.7276 Y62.4703
G01 X31.6987 Y62.4757
G01 X31.6694 Y62.4789
G01 X31.6400 Y62.4800
G01 X28.1400 Y62.4800
G01 X28.1204 Y62.4795
G01 X28.0910 Y62.4770
G01 X28.0620 Y62.4723
G01 X28.0333 Y62.4655
G01 X28.0145 Y62.4598
G01 X27.9960 Y62.4532
G01 X27.9779 Y62.4457
G01 X27.9602 Y62.4373
G01 X27.9344 Y62.4231
G01 X27.9178 Y62.4126
G01 X27.9017 Y62.4013
G01 X27.8862 Y62.3892
G01 X27.8714 Y62.3764
G01 X27.8572 Y62.3628
G01 X27.8436 Y62.3486
G01 X27.8308 Y62.3338
G01 X27.8187 Y62.3183
G01 X27.8021 Y62.2940
G01 X27.7920 Y62.2772
G01 X27.7827 Y62.2598
G01 X27.7743 Y62.2421
G01 X27.7668 Y62.2240
G01 X27.7572 Y62.1961
G01 X27.7520 Y62.1772
G01 X27.7477 Y62.1580
G01 X27.7430 Y62.1290
G01 X27.7411 Y62.1094
G01 X27.7400 Y62.0800
G01 X27.7400 Y61.8801
G01 X26.1300 Y61.8801
G01 X26.1104 Y61.8796
G01 X26.0859 Y61.8784
G01 X26.0663 Y61.8770
G01 X26.0468 Y61.8746
G01 X26.0225 Y61.8710
G01 X25.9936 Y61.8656
G01 X25.9507 Y61.8549
G01 X25.9226 Y61.8460
G01 X25.8995 Y61.8377
G01 X25.8812 Y61.8306
G01 X25.8633 Y61.8227
G01 X25.8411 Y61.8122
G01 X25.8149 Y61.7986
G01 X25.7854 Y61.7811
G01 X25.7688 Y61.7706
G01 X25.7528 Y61.7593
G01 X25.7330 Y61.7446
G01 X25.7101 Y61.7262
G01 X25.6773 Y61.6966
G01 X24.9403 Y60.9597
G01 X24.9268 Y60.9455
G01 X24.9038 Y60.9199
G01 X24.8913 Y60.9048
G01 X24.8707 Y60.8772
G01 X24.8541 Y60.8530
G01 X24.8363 Y60.8235
G01 X24.8266 Y60.8065
G01 X24.8178 Y60.7889
G01 X24.8032 Y60.7578
G01 X24.7923 Y60.7305
G01 X24.7808 Y60.6981
G01 X24.7751 Y60.6793
G01 X24.7667 Y60.6460
G01 X24.7624 Y60.6268
G01 X24.7590 Y60.6075
G01 X24.7554 Y60.5832
G01 X24.7522 Y60.5539
G01 X24.7504 Y60.5196
G01 X24.7499 Y60.5000
G01 X24.7499 Y12.2501
G01 X24.5322 Y12.2501
G00 Z2.0000
G00 X20.1099 Y9.4335
G01 F60.00
G01 Z-0.1100
G01 F120.00
G01 X20.1099 Y8.1400
G01 X20.1104 Y8.1204
G01 X20.1116 Y8.0959
G01 X20.1130 Y8.0763
G01 X20.1154 Y8.0568
G01 X20.1190 Y8.0325
G01 X20.1224 Y8.0132
G01 X20.1267 Y7.9940
G01 X20.1326 Y7.9702
G01 X20.1408 Y7.9419
G01 X20.1557 Y7.9003
G01 X20.1673 Y7.8733
G01 X20.1778 Y7.8511
G01 X20.1866 Y7.8335
G01 X20.1963 Y7.8165
G01 X20.2089 Y7.7954
G01 X20.2250 Y7.7707
G01 X20.2513 Y7.7352
G01 X20.2703 Y7.7127
G01 X20.2868 Y7.6945
G01 X20.3003 Y7.6803
G01 X20.3473 Y7.6334
G01 X20.3727 Y7.6103
G01 X20.3876 Y7.5974
G01 X20.4030 Y7.5854
G01 X20.4228 Y7.5707
G01 X20.4470 Y7.5541
G01 X20.4849 Y7.5314
G01 X20.5111 Y7.5178
G01 X20.5333 Y7.5073
G01 X20.5512 Y7.4994
G01 X20.5695 Y7.4923
G01 X20.5926 Y7.4840
G01 X20.6207 Y7.4751
G01 X20.6540 Y7.4667
G01 X20.6828 Y7.4606
G01 X20.7265 Y7.4541
G01 X20.7461 Y7.4522
G01 X20.7902 Y7.4500
G01 X24.2000 Y7.4499
G01 X24.2196 Y7.4504
G01 X24.2539 Y7.4522
G01 X24.2832 Y7.4554
G01 X24.3172 Y7.4606
G01 X24.3364 Y7.4644
G01 X24.3698 Y7.4726
G01 X24.3887 Y7.4779
G01 X24.4074 Y7.4840
G01 X24.4305 Y7.4923
G01 X24.4488 Y7.4994
G01 X24.4667 Y7.5073
G01 X24.4978 Y7.5221
G01 X24.5151 Y7.5314
G01 X24.5446 Y7.5489
G01 X24.5612 Y7.5594
G01 X24.5772 Y7.5707
G01 X24.6048 Y7.5913
G01 X24.6199 Y7.6038
G01 X24.6455 Y7.6268
G01 X24.6597 Y7.6403
G01 X27.1716 Y10.1523
G01 X27.1947 Y10.1777
G01 X27.2076 Y10.1926
G01 X27.2196 Y10.2080
G01 X27.2343 Y10.2278
G01 X27.2509 Y10.2520
G01 X27.2687 Y10.2815
G01 X27.2784 Y10.2985
G01 X27.2872 Y10.3161
G01 X27.3018 Y10.3472
G01 X27.3127 Y10.3745
G01 X27.3210 Y10.3976
G01 X27.3271 Y10.4163
G01 X27.3324 Y10.4352
G01 X27.3406 Y10.4686
G01 X27.3460 Y10.4975
G01 X27.3496 Y10.5218
G01 X27.3520 Y10.5413
G01 X27.3534 Y10.5609
G01 X27.3546 Y10.5854
G01 X27.3551 Y10.6050
G01 X27.3551 Y57.6307
G01 X27.7400 Y58.0156
G01 X27.7401 Y57.8302
G01 X27.7411 Y57.8106
G01 X27.7443 Y57.7813
G01 X27.7477 Y57.7620
G01 X27.7520 Y57.7428
G01 X27.7572 Y57.7239
G01 X27.7634 Y57.7052
G01 X27.7704 Y57.6869
G01 X27.7784 Y57.6690
G01 X27.7872 Y57.6514
G01 X27.7969 Y57.6344
G01 X27.8074 Y57.6178
G01 X27.8247 Y57.5939
G01 X27.8436 Y57.5714
G01 X27.8572 Y57.5572
G01 X27.8714 Y57.5436
G01 X27.8862 Y57.5308
G01 X27.9097 Y57.5130
G01 X27.9260 Y57.5021
G01 X27.9428 Y57.4920
G01 X27.9602 Y57.4827
G01 X27.9869 Y57.4704
G01 X28.0052 Y57.4634
G01 X28.0239 Y57.4572
G01 X28.0428 Y57.4520
G01 X28.0716 Y57.4459
G01 X28.0910 Y57.4430
G01 X28.1106 Y57.4411
G01 X28.1400 Y57.4400
G01 X31.6400 Y57.4400
G01 X31.6596 Y57.4405
G01 X31.6890 Y57.4430
G01 X31.7180 Y57.4477
G01 X31.7372 Y57.4520
G01 X31.7561 Y57.4572
G01 X31.7840 Y57.4668
G01 X31.8110 Y57.4784
G01 X31.8286 Y57.4872
G01 X31.8456 Y57.4969
G01 X31.8703 Y57.5130
G01 X31.8861 Y57.5247
G01 X31.9086 Y57.5436
G01 X31.9228 Y57.5572
G01 X31.9429 Y57.5787
G01 X31.9553 Y57.5939
G01 X31.9726 Y57.6178
G01 X31.9831 Y57.6344
G01 X31.9973 Y57.6602
G01 X32.0096 Y57.6869
G01 X32.0166 Y57.7052
G01 X32.0228 Y57.7239
G01 X32.0303 Y57.7524
G01 X32.0341 Y57.7716
G01 X32.0381 Y57.8008
G01 X32.0395 Y57.8204
G01 X32.0400 Y57.8400
G01 X32.0400 Y59.5400
G01 X32.0395 Y59.5596
G01 X32.0381 Y59.5792
G01 X32.0357 Y59.5987
G01 X32.0303 Y59.6276
G01 X32.0228 Y59.6561
G01 X32.0166 Y59.6748
G01 X32.0096 Y59.6931
G01 X31.9973 Y59.7198
G01 X31.9831 Y59.7456
G01 X31.9670 Y59.7703
G01 X31.9553 Y59.7861
G01 X31.9429 Y59.8013
G01 X31.9297 Y59.8158
G01 X31.9158 Y59.8297
G01 X31.8938 Y59.8492
G01 X31.8703 Y59.8670
G01 X31.8456 Y59.8831
G01 X31.8286 Y59.8928
G01 X31.8110 Y59.9016
G01 X31.7840 Y59.9132
G01 X31.7561 Y59.9228
G01 X31.7276 Y59.9303
G01 X31.7084 Y59.9341
G01 X31.6890 Y59.9370
G01 X31.6694 Y59.9389
G01 X31.6400 Y59.9400
G01 X28.1400 Y59.9400
G01 X28.1204 Y59.9395
G01 X28.1008 Y59.9381
G01 X28.0716 Y59.9341
G01 X28.0524 Y59.9303
G01 X28.0333 Y59.9255
G01 X28.0052 Y59.9166
G01 X27.9869 Y59.9096
G01 X27.9690 Y59.9016
G01 X27.9514 Y59.8928
G01 X27.9344 Y59.8831
G01 X27.9178 Y59.8726
G01 X27.9017 Y59.8613
G01 X27.8862 Y59.8492
G01 X27.8714 Y59.8364
G01 X27.8572 Y59.8228
G01 X27.8436 Y59.8086
G01 X27.8308 Y59.7938
G01 X27.8187 Y59.7783
G01 X27.8074 Y59.7622
G01 X27.7969 Y59.7456
G01 X27.7872 Y59.7286
G01 X27.7784 Y59.7110
G01 X27.7668 Y59.6840
G01 X27.7602 Y59.6655
G01 X27.7545 Y59.6467
G01 X27.7477 Y59.6180
G01 X27.7443 Y59.5987
G01 X27.7419 Y59.5792
G01 X27.7405 Y59.5596
G01 X27.7400 Y59.5400
G01 X27.7400 Y59.3401
G01 X27.4950 Y59.3401
G01 X27.4754 Y59.3396
G01 X27.4411 Y59.3378
G01 X27.4215 Y59.3359
G01 X27.3778 Y59.3294
G01 X27.3586 Y59.3256
G01 X27.3157 Y59.3149
G01 X27.2876 Y59.3060
G01 X27.2645 Y59.2977
G01 X27.2462 Y59.2906
G01 X27.2283 Y59.2827
G01 X27.2061 Y59.2722
G01 X27.1799 Y59.2586
G01 X27.1420 Y59.2359
G01 X27.1178 Y59.2193
G01 X27.0980 Y59.2046
G01 X27.0826 Y59.1926
G01 X27.0677 Y59.1797
G01 X27.0495 Y59.1632
G01 X27.0353 Y59.1497
G01 X26.2453 Y58.3597
G01 X26.2318 Y58.3455
G01 X26.2153 Y58.3273
G01 X26.2024 Y58.3124
G01 X26.1904 Y58.2970
G01 X26.1700 Y58.2693
G01 X26.1591 Y58.2530
G01 X26.1413 Y58.2235
G01 X26.1271 Y58.1978
G01 X26.1123 Y58.1667
G01 X26.1044 Y58.1488
G01 X26.0973 Y58.1305
G01 X26.0858 Y58.0981
G01 X26.0776 Y58.0698
G01 X26.0717 Y58.0460
G01 X26.0674 Y58.0268
G01 X26.0640 Y58.0075
G01 X26.0591 Y57.9735
G01 X26.0566 Y57.9441
G01 X26.0554 Y57.9196
G01 X26.0549 Y57.9000
G01 X26.0549 Y10.8743
G01 X23.9307 Y8.7501
G01 X21.4101 Y8.7501
G01 X21.4101 Y9.4335
G01 X21.4462 Y9.4553
G01 X21.4626 Y9.4662
G01 X21.5453 Y9.5276
G01 X21.5679 Y9.5466
G01 X21.6369 Y9.6093
G01 X21.6574 Y9.6303
G01 X21.7134 Y9.6921
G01 X21.7263 Y9.7070
G01 X21.7383 Y9.7225
G01 X21.7938 Y9.7974
G01 X21.8098 Y9.8221
G01 X21.8527 Y9.8937
G01 X21.8624 Y9.9108
G01 X21.8712 Y9.9283
G01 X21.9069 Y10.0037
G01 X21.9148 Y10.0216
G01 X21.9219 Y10.0400
G01 X21.9500 Y10.1185
G01 X21.9562 Y10.1371
G01 X21.9614 Y10.1561
G01 X21.9817 Y10.2370
G01 X21.9860 Y10.2561
G01 X21.9893 Y10.2755
G01 X22.0016 Y10.3580
G01 X22.0040 Y10.3775
G01 X22.0054 Y10.3971
G01 X22.0099 Y10.4902
G01 X22.0100 Y11.5000
G01 X22.0095 Y11.5196
G01 X22.0054 Y11.6029
G01 X22.0040 Y11.6225
G01 X22.0016 Y11.6420
G01 X21.9893 Y11.7245
G01 X21.9839 Y11.7535
G01 X21.9614 Y11.8439
G01 X21.9562 Y11.8629
G01 X21.9500 Y11.8815
G01 X21.9219 Y11.9600
G01 X21.9148 Y11.9784
G01 X21.9069 Y11.9963
G01 X21.8712 Y12.0717
G01 X21.8624 Y12.0892
G01 X21.8527 Y12.1063
G01 X21.8098 Y12.1779
G01 X21.7993 Y12.1945
G01 X21.7880 Y12.2105
G01 X21.7383 Y12.2775
G01 X21.7263 Y12.2930
G01 X21.7134 Y12.3079
G01 X21.6574 Y12.3697
G01 X21.6439 Y12.3839
G01 X21.6297 Y12.3974
G01 X21.5679 Y12.4534
G01 X21.5530 Y12.4663
G01 X21.5375 Y12.4783
G01 X21.4705 Y12.5280
G01 X21.4545 Y12.5393
G01 X21.4379 Y12.5498
G01 X21.3663 Y12.5927
G01 X21.3492 Y12.6024
G01 X21.3317 Y12.6112
G01 X21.2563 Y12.6469
G01 X21.2384 Y12.6548
G01 X21.2200 Y12.6619
G01 X21.1415 Y12.6900
G01 X21.1229 Y12.6962
G01 X21.1039 Y12.7014
G01 X21.0230 Y12.7217
G01 X21.0039 Y12.7260
G01 X20.9845 Y12.7293
G01 X20.9020 Y12.7416
G01 X20.8825 Y12.7440
G01 X20.8629 Y12.7454
G01 X20.7796 Y12.7495
G01 X20.7600 Y12.7500
G01 X20.7404 Y12.7495
G01 X20.6571 Y12.7454
G01 X20.6375 Y12.7440
G01 X20.6180 Y12.7416
G01 X20.5355 Y12.7293
G01 X20.5161 Y12.7260
G01 X20.4970 Y12.7217
G01 X20.4161 Y12.7014
G01 X20.3971 Y12.6962
G01 X20.3785 Y12.6900
G01 X20.3000 Y12.6619
G01 X20.2816 Y12.6548
G01 X20.2637 Y12.6469
G01 X20.1883 Y12.6112
G01 X20.1708 Y12.6024
G01 X20.1537 Y12.5927
G01 X20.0821 Y12.5498
G01 X20.0655 Y12.5393
G01 X20.0495 Y12.5280
G01 X19.9825 Y12.4783
G01 X19.9595 Y12.4599
G01 X19.8903 Y12.3974
G01 X19.8761 Y12.3839
G01 X19.8626 Y12.3697
G01 X19.8066 Y12.3079
G01 X19.7876 Y12.2853
G01 X19.7320 Y12.2105
G01 X19.7207 Y12.1945
G01 X19.7102 Y12.1779
G01 X19.6673 Y12.1063
G01 X19.6576 Y12.0892
G01 X19.6488 Y12.0717
G01 X19.6131 Y11.9963
G01 X19.6052 Y11.9784
G01 X19.5981 Y11.9600
G01 X19.5700 Y11.8815
G01 X19.5638 Y11.8629
G01 X19.5586 Y11.8439
G01 X19.5383 Y11.7630
G01 X19.5340 Y11.7439
G01 X19.5307 Y11.7245
G01 X19.5171 Y11.6323
G01 X19.5146 Y11.6029
G01 X19.5105 Y11.5196
G01 X19.5100 Y11.5000
G01 X19.5101 Y10.4902
G01 X19.5152 Y10.3873
G01 X19.5184 Y10.3580
G01 X19.5307 Y10.2755
G01 X19.5340 Y10.2561
G01 X19.5383 Y10.2370
G01 X19.5611 Y10.1466
G01 X19.5700 Y10.1185
G01 X19.5981 Y10.0400
G01 X19.6052 Y10.0216
G01 X19.6131 Y10.0037
G01 X19.6488 Y9.9283
G01 X19.6576 Y9.9108
G01 X19.6673 Y9.8937
G01 X19.7102 Y9.8221
G01 X19.7207 Y9.8055
G01 X19.7320 Y9.7895
G01 X19.7876 Y9.7147
G01 X19.8066 Y9.6921
G01 X19.8626 Y9.6303
G01 X19.8761 Y9.6161
G01 X19.8903 Y9.6026
G01 X19.9595 Y9.5401
G01 X19.9825 Y9.5217
G01 X20.0574 Y9.4662
G01 X20.0738 Y9.4553
G01 X20.1099 Y9.4335
G00 Z2.0000
G00 X12.0600 Y24.4200
G01 F60.00
G01 Z-0.1100
G01 F120.00
G01 X12.0796 Y24.4205
G01 X12.0992 Y24.4219
G01 X12.1187 Y24.4243
G01 X12.1380 Y24.4277
G01 X12.1572 Y24.4320
G01 X12.1761 Y24.4372
G01 X12.2040 Y24.4468
G01 X12.2221 Y24.4543
G01 X12.2398 Y24.4627
G01 X12.2572 Y24.4720
G01 X12.2740 Y24.4821
G01 X12.2903 Y24.4930
G01 X12.3061 Y24.5047
G01 X12.3213 Y24.5171
G01 X12.3358 Y24.5303
G01 X12.3497 Y24.5442
G01 X12.3629 Y24.5587
G01 X12.3753 Y24.5739
G01 X12.3870 Y24.5897
G01 X12.4031 Y24.6144
G01 X12.4128 Y24.6314
G01 X12.4216 Y24.6490
G01 X12.4296 Y24.6669
G01 X12.4366 Y24.6852
G01 X12.4428 Y24.7039
G01 X12.4480 Y24.7228
G01 X12.4523 Y24.7420
G01 X12.4557 Y24.7613
G01 X12.4589 Y24.7906
G01 X12.4600 Y24.8200
G01 X12.4600 Y26.5200
G01 X12.4595 Y26.5396
G01 X12.4581 Y26.5592
G01 X12.4541 Y26.5884
G01 X12.4503 Y26.6076
G01 X12.4455 Y26.6267
G01 X12.4366 Y26.6548
G01 X12.4296 Y26.6731
G01 X12.4216 Y26.6910
G01 X12.4128 Y26.7086
G01 X12.3979 Y26.7340
G01 X12.3813 Y26.7583
G01 X12.3692 Y26.7738
G01 X12.3497 Y26.7958
G01 X12.3358 Y26.8097
G01 X12.3213 Y26.8229
G01 X12.3061 Y26.8353
G01 X12.2903 Y26.8470
G01 X12.2656 Y26.8631
G01 X12.2398 Y26.8773
G01 X12.2131 Y26.8896
G01 X12.1855 Y26.8998
G01 X12.1667 Y26.9055
G01 X12.1380 Y26.9123
G01 X12.1187 Y26.9157
G01 X12.0992 Y26.9181
G01 X12.0698 Y26.9199
G01 X8.5502 Y26.9199
G01 X8.5306 Y26.9189
G01 X8.5013 Y26.9157
G01 X8.4724 Y26.9103
G01 X8.4533 Y26.9055
G01 X8.4345 Y26.8998
G01 X8.4069 Y26.8896
G01 X8.3890 Y26.8816
G01 X8.3628 Y26.8680
G01 X8.3460 Y26.8579
G01 X8.3217 Y26.8413
G01 X8.2987 Y26.8229
G01 X8.2772 Y26.8028
G01 X8.2636 Y26.7886
G01 X8.2447 Y26.7661
G01 X8.2330 Y26.7503
G01 X8.2169 Y26.7256
G01 X8.2027 Y26.6998
G01 X8.1904 Y26.6731
G01 X8.1802 Y26.6455
G01 X8.1745 Y26.6267
G01 X8.1677 Y26.5980
G01 X8.1643 Y26.5787
G01 X8.1619 Y26.5592
G01 X8.1601 Y26.5298
G01 X8.1600 Y24.8200
G01 X8.1605 Y24.8004
G01 X8.1630 Y24.7710
G01 X8.1659 Y24.7516
G01 X8.1697 Y24.7324
G01 X8.1772 Y24.7039
G01 X8.1868 Y24.6760
G01 X8.1943 Y24.6579
G01 X8.2027 Y24.6402
G01 X8.2169 Y24.6144
G01 X8.2330 Y24.5897
G01 X8.2447 Y24.5739
G01 X8.2636 Y24.5514
G01 X8.2772 Y24.5372
G01 X8.2987 Y24.5171
G01 X8.3139 Y24.5047
G01 X8.3297 Y24.4930
G01 X8.3544 Y24.4769
G01 X8.3802 Y24.4627
G01 X8.4069 Y24.4504
G01 X8.4252 Y24.4434
G01 X8.4533 Y24.4345
G01 X8.4820 Y24.4277
G01 X8.5013 Y24.4243
G01 X8.5208 Y24.4219
G01 X8.5502 Y24.4201
G01 X12.0600 Y24.4200
G00 Z2.0000
G00 X12.0600 Y26.9600
G01 F60.00
G01 Z-0.1100
G01 F120.00
G01 X12.0796 Y26.9605
G01 X12.0992 Y26.9619
G01 X12.1187 Y26.9643
G01 X12.1380 Y26.9677
G01 X12.1572 Y26.9720
G01 X12.1761 Y26.9772
G01 X12.2040 Y26.9868
G01 X12.2221 Y26.9943
G01 X12.2398 Y27.0027
G01 X12.2572 Y27.0120
G01 X12.2740 Y27.0221
G01 X12.2903 Y27.0330
G01 X12.3061 Y27.0447
G01 X12.3213 Y27.0571
G01 X12.3358 Y27.0703
G01 X12.3497 Y27.0842
G01 X12.3629 Y27.0987
G01 X12.3753 Y27.1139
G01 X12.3870 Y27.1297
G01 X12.4031 Y27.1544
G01 X12.4128 Y27.1714
G01 X12.4216 Y27.1890
G01 X12.4296 Y27.2069
G01 X12.4366 Y27.2252
G01 X12.4428 Y27.2439
G01 X12.4480 Y27.2628
G01 X12.4523 Y27.2820
G01 X12.4557 Y27.3013
G01 X12.4589 Y27.3306
G01 X12.4600 Y27.3600
G01 X12.4600 Y29.0600
G01 X12.4595 Y29.0796
G01 X12.4581 Y29.0992
G01 X12.4541 Y29.1284
G01 X12.4503 Y29.1476
G01 X12.4455 Y29.1667
G01 X12.4366 Y29.1948
G01 X12.4296 Y29.2131
G01 X12.4216 Y29.2310
G01 X12.4128 Y29.2486
G01 X12.3979 Y29.2740
G01 X12.3813 Y29.2983
G01 X12.3692 Y29.3138
G01 X12.3497 Y29.3358
G01 X12.3358 Y29.3497
G01 X12.3213 Y29.3629
G01 X12.3061 Y29.3753
G01 X12.2903 Y29.3870
G01 X12.2656 Y29.4031
G01 X12.2398 Y29.4173
G01 X12.2131 Y29.4296
G01 X12.1855 Y29.4398
G01 X12.1667 Y29.4455
G01 X12.1380 Y29.4523
G01 X12.1187 Y29.4557
G01 X12.0992 Y29.4581
G01 X12.0698 Y29.4599
G01 X8.5502 Y29.4599
G01 X8.5306 Y29.4589
G01 X8.5013 Y29.4557
G01 X8.4724 Y29.4503
G01 X8.4533 Y29.4455
G01 X8.4345 Y29.4398
G01 X8.4069 Y29.4296
G01 X8.3890 Y29.4216
G01 X8.3628 Y29.4080
G01 X8.3460 Y29.3979
G01 X8.3217 Y29.3813
G01 X8.2987 Y29.3629
G01 X8.2772 Y29.3428
G01 X8.2636 Y29.3286
G01 X8.2447 Y29.3061
G01 X8.2330 Y29.2903
G01 X8.2169 Y29.2656
G01 X8.2027 Y29.2398
G01 X8.1904 Y29.2131
G01 X8.1802 Y29.1855
G01 X8.1745 Y29.1667
G01 X8.1677 Y29.1380
G01 X8.1643 Y29.1187
G01 X8.1619 Y29.0992
G01 X8.1601 Y29.0698
G01 X8.1600 Y27.3600
G01 X8.1605 Y27.3404
G01 X8.1630 Y27.3110
G01 X8.1659 Y27.2916
G01 X8.1697 Y27.2724
G01 X8.1772 Y27.2439
G01 X8.1868 Y27.2160
G01 X8.1943 Y27.1979
G01 X8.2027 Y27.1802
G01 X8.2169 Y27.1544
G01 X8.2330 Y27.1297
G01 X8.2447 Y27.1139
G01 X8.2636 Y27.0914
G01 X8.2772 Y27.0772
G01 X8.2987 Y27.0571
G01 X8.3139 Y27.0447
G01 X8.3297 Y27.0330
G01 X8.3544 Y27.0169
G01 X8.3802 Y27.0027
G01 X8.4069 Y26.9904
G01 X8.4252 Y26.9834
G01 X8.4533 Y26.9745
G01 X8.4820 Y26.9677
G01 X8.5013 Y26.9643
G01 X8.5208 Y26.9619
G01 X8.5502 Y26.9601
G01 X12.0600 Y26.9600
G00 Z2.0000
G00 X12.0600 Y29.5000
G01 F60.00
G01 Z-0.1100
G01 F120.00
G01 X12.0796 Y29.5005
G01 X12.0992 Y29.5019
G01 X12.1187 Y29.5043
G01 X12.1380 Y29.5077
G01 X12.1572 Y29.5120
G01 X12.1761 Y29.5172
G01 X12.2040 Y29.5268
G01 X12.2221 Y29.5343
G01 X12.2398 Y29.5427
G01 X12.2572 Y29.5520
G01 X12.2740 Y29.5621
G01 X12.2903 Y29.5730
G01 X12.3061 Y29.5847
G01 X12.3213 Y29.5971
G01 X12.3358 Y29.6103
G01 X12.3497 Y29.6242
G01 X12.3629 Y29.6387
G01 X12.3753 Y29.6539
G01 X12.3870 Y29.6697
G01 X12.4031 Y29.6944
G01 X12.4128 Y29.7114
G01 X12.4216 Y29.7290
G01 X12.4296 Y29.7469
G01 X12.4366 Y29.7652
G01 X12.4428 Y29.7839
G01 X12.4480 Y29.8028
G01 X12.4523 Y29.8220
G01 X12.4557 Y29.8413
G01 X12.4589 Y29.8706
G01 X12.4600 Y29.9000
G01 X12.4600 Y31.6000
G01 X12.4595 Y31.6196
G01 X12.4581 Y31.6392
G01 X12.4541 Y31.6684
G01 X12.4503 Y31.6876
G01 X12.4455 Y31.7067
G01 X12.4366 Y31.7348
G01 X12.4296 Y31.7531
G01 X12.4216 Y31.7710
G01 X12.4128 Y31.7886
G01 X12.3979 Y31.8140
G01 X12.3813 Y31.8383
G01 X12.3692 Y31.8538
G01 X12.3497 Y31.8758
G01 X12.3358 Y31.8897
G01 X12.3213 Y31.9029
G01 X12.3061 Y31.9153
G01 X12.2903 Y31.9270
G01 X12.2656 Y31.9431
G01 X12.2398 Y31.9573
G01 X12.2131 Y31.9696
G01 X12.1855 Y31.9798
G01 X12.1667 Y31.9855
G01 X12.1380 Y31.9923
G01 X12.1187 Y31.9957
G01 X12.0992 Y31.9981
G01 X12.0698 Y31.9999
G01 X8.5502 Y31.9999
G01 X8.5306 Y31.9989
G01 X8.5013 Y31.9957
G01 X8.4724 Y31.9903
G01 X8.4533 Y31.9855
G01 X8.4345 Y31.9798
G01 X8.4069 Y31.9696
G01 X8.3890 Y31.9616
G01 X8.3628 Y31.9480
G01 X8.3460 Y31.9379
G01 X8.3217 Y31.9213
G01 X8.2987 Y31.9029
G01 X8.2772 Y31.8828
G01 X8.2636 Y31.8686
G01 X8.2447 Y31.8461
G01 X8.2330 Y31.8303
G01 X8.2169 Y31.8056
G01 X8.2027 Y31.7798
G01 X8.1904 Y31.7531
G01 X8.1802 Y31.7255
G01 X8.1745 Y31.7067
G01 X8.1677 Y31.6780
G01 X8.1643 Y31.6587
G01 X8.1619 Y31.6392
G01 X8.1601 Y31.6098
G01 X8.1600 Y29.9000
G01 X8.1605 Y29.8804
G01 X8.1630 Y29.8510
G01 X8.1659 Y29.8316
G01 X8.1697 Y29.8124
G01 X8.1772 Y29.7839
G01 X8.1868 Y29.7560
G01 X8.1943 Y29.7379
G01 X8.2027 Y29.7202
G01 X8.2169 Y29.6944
G01 X8.2330 Y29.6697
G01 X8.2447 Y29.6539
G01 X8.2636 Y29.6314
G01 X8.2772 Y29.6172
G01 X8.2987 Y29.5971
G01 X8.3139 Y29.5847
G01 X8.3297 Y29.5730
G01 X8.3544 Y29.5569
G01 X8.3802 Y29.5427
G01 X8.4069 Y29.5304
G01 X8.4252 Y29.5234
G01 X8.4533 Y29.5145
G01 X8.4820 Y29.5077
G01 X8.5013 Y29.5043
G01 X8.5208 Y29.5019
G01 X8.5502 Y29.5001
G01 X12.0600 Y29.5000
G00 Z2.0000
G00 X12.0600 Y32.0400
G01 F60.00
G01 Z-0.1100
G01 F120.00
G01 X12.0796 Y32.0405
G01 X12.0992 Y32.0419
G01 X12.1187 Y32.0443
G01 X12.1380 Y32.0477
G01 X12.1572 Y32.0520
G01 X12.1761 Y32.0572
G01 X12.1948 Y32.0634
G01 X12.2131 Y32.0704
G01 X12.2398 Y32.0827
G01 X12.2572 Y32.0920
G01 X12.2740 Y32.1021
G01 X12.2903 Y32.1130
G01 X12.3061 Y32.1247
G01 X12.3213 Y32.1371
G01 X12.3358 Y32.1503
G01 X12.3497 Y32.1642
G01 X12.3629 Y32.1787
G01 X12.3813 Y32.2017
G01 X12.3926 Y32.2178
G01 X12.4031 Y32.2344
G01 X12.4128 Y32.2514
G01 X12.4216 Y32.2690
G01 X12.4296 Y32.2869
G01 X12.4366 Y32.3052
G01 X12.4428 Y32.3239
G01 X12.4480 Y32.3428
G01 X12.4523 Y32.3620
G01 X12.4557 Y32.3813
G01 X12.4589 Y32.4106
G01 X12.4600 Y32.4400
G01 X12.4600 Y34.1400
G01 X12.4595 Y34.1596
G01 X12.4581 Y34.1792
G01 X12.4541 Y34.2084
G01 X12.4503 Y34.2276
G01 X12.4455 Y34.2467
G01 X12.4366 Y34.2748
G01 X12.4296 Y34.2931
G01 X12.4216 Y34.3110
G01 X12.4080 Y34.3372
G01 X12.3979 Y34.3540
G01 X12.3813 Y34.3783
G01 X12.3692 Y34.3938
G01 X12.3564 Y34.4086
G01 X12.3358 Y34.4297
G01 X12.3138 Y34.4492
G01 X12.2983 Y34.4613
G01 X12.2822 Y34.4726
G01 X12.2656 Y34.4831
G01 X12.2398 Y34.4973
G01 X12.2221 Y34.5057
G01 X12.2040 Y34.5132
G01 X12.1761 Y34.5228
G01 X12.1476 Y34.5303
G01 X12.1284 Y34.5341
G01 X12.0992 Y34.5381
G01 X12.0698 Y34.5399
G01 X8.5502 Y34.5399
G01 X8.5208 Y34.5381
G01 X8.5013 Y34.5357
G01 X8.4820 Y34.5323
G01 X8.4533 Y34.5255
G01 X8.4252 Y34.5166
G01 X8.4069 Y34.5096
G01 X8.3890 Y34.5016
G01 X8.3628 Y34.4880
G01 X8.3378 Y34.4726
G01 X8.3139 Y34.4553
G01 X8.2987 Y34.4429
G01 X8.2772 Y34.4228
G01 X8.2636 Y34.4086
G01 X8.2447 Y34.3861
G01 X8.2330 Y34.3703
G01 X8.2169 Y34.3456
G01 X8.2027 Y34.3198
G01 X8.1943 Y34.3021
G01 X8.1834 Y34.2748
G01 X8.1745 Y34.2467
G01 X8.1677 Y34.2180
G01 X8.1643 Y34.1987
G01 X8.1619 Y34.1792
G01 X8.1601 Y34.1498
G01 X8.1600 Y32.4400
G01 X8.1605 Y32.4204
G01 X8.1630 Y32.3910
G01 X8.1659 Y32.3716
G01 X8.1720 Y32.3428
G01 X8.1772 Y32.3239
G01 X8.1868 Y32.2960
G01 X8.1943 Y32.2779
G01 X8.2027 Y32.2602
G01 X8.2169 Y32.2344
G01 X8.2274 Y32.2178
G01 X8.2447 Y32.1939
G01 X8.2636 Y32.1714
G01 X8.2772 Y32.1572
G01 X8.2914 Y32.1436
G01 X8.3139 Y32.1247
G01 X8.3378 Y32.1074
G01 X8.3544 Y32.0969
G01 X8.3714 Y32.0872
G01 X8.3979 Y32.0743
G01 X8.4252 Y32.0634
G01 X8.4533 Y32.0545
G01 X8.4724 Y32.0497
G01 X8.5013 Y32.0443
G01 X8.5208 Y32.0419
G01 X8.5502 Y32.0401
G01 X12.0600 Y32.0400
G00 Z2.0000
G00 X12.0600 Y34.5800
G01 F60.00
G01 Z-0.1100
G01 F120.00
G01 X12.0796 Y34.5805
G01 X12.0992 Y34.5819
G01 X12.1187 Y34.5843
G01 X12.1380 Y34.5877
G01 X12.1572 Y34.5920
G01 X12.1761 Y34.5972
G01 X12.1948 Y34.6034
G01 X12.2131 Y34.6104
G01 X12.2398 Y34.6227
G01 X12.2572 Y34.6320
G01 X12.2740 Y34.6421
G01 X12.2903 Y34.6530
G01 X12.3061 Y34.6647
G01 X12.3213 Y34.6771
G01 X12.3358 Y34.6903
G01 X12.3497 Y34.7042
G01 X12.3629 Y34.7187
G01 X12.3813 Y34.7417
G01 X12.3926 Y34.7578
G01 X12.4031 Y34.7744
G01 X12.4128 Y34.7914
G01 X12.4216 Y34.8090
G01 X12.4296 Y34.8269
G01 X12.4366 Y34.8452
G01 X12.4428 Y34.8639
G01 X12.4480 Y34.8828
G01 X12.4523 Y34.9020
G01 X12.4557 Y34.9213
G01 X12.4589 Y34.9506
G01 X12.4600 Y34.9800
G01 X12.4600 Y36.6800
G01 X12.4595 Y36.6996
G01 X12.4581 Y36.7192
G01 X12.4541 Y36.7484
G01 X12.4503 Y36.7676
G01 X12.4455 Y36.7867
G01 X12.4366 Y36.8148
G01 X12.4296 Y36.8331
G01 X12.4216 Y36.8510
G01 X12.4080 Y36.8772
G01 X12.3979 Y36.8940
G01 X12.3813 Y36.9183
G01 X12.3692 Y36.9338
G01 X12.3564 Y36.9486
G01 X12.3358 Y36.9697
G01 X12.3138 Y36.9892
G01 X12.2983 Y37.0013
G01 X12.2822 Y37.0126
G01 X12.2656 Y37.0231
G01 X12.2398 Y37.0373
G01 X12.2221 Y37.0457
G01 X12.2040 Y37.0532
G01 X12.1761 Y37.0628
G01 X12.1476 Y37.0703
G01 X12.1284 Y37.0741
G01 X12.0992 Y37.0781
G01 X12.0698 Y37.0799
G01 X8.5502 Y37.0799
G01 X8.5208 Y37.0781
G01 X8.5013 Y37.0757
G01 X8.4820 Y37.0723
G01 X8.4533 Y37.0655
G01 X8.4252 Y37.0566
G01 X8.4069 Y37.0496
G01 X8.3890 Y37.0416
G01 X8.3628 Y37.0280
G01 X8.3378 Y37.0126
G01 X8.3139 Y36.9953
G01 X8.2987 Y36.9829
G01 X8.2772 Y36.9628
G01 X8.2636 Y36.9486
G01 X8.2447 Y36.9261
G01 X8.2330 Y36.9103
G01 X8.2169 Y36.8856
G01 X8.2027 Y36.8598
G01 X8.1943 Y36.8421
G01 X8.1834 Y36.8148
G01 X8.1745 Y36.7867
G01 X8.1677 Y36.7580
G01 X8.1643 Y36.7387
G01 X8.1619 Y36.7192
G01 X8.1601 Y36.6898
G01 X8.1600 Y34.9800
G01 X8.1605 Y34.9604
G01 X8.1630 Y34.9310
G01 X8.1659 Y34.9116
G01 X8.1720 Y34.8828
G01 X8.1772 Y34.8639
G01 X8.1868 Y34.8360
G01 X8.1943 Y34.8179
G01 X8.2027 Y34.8002
G01 X8.2169 Y34.7744
G01 X8.2274 Y34.7578
G01 X8.2447 Y34.7339
G01 X8.2636 Y34.7114
G01 X8.2772 Y34.6972
G01 X8.2914 Y34.6836
G01 X8.3139 Y34.6647
G01 X8.3378 Y34.6474
G01 X8.3544 Y34.6369
G01 X8.3714 Y34.6272
G01 X8.3979 Y34.6143
G01 X8.4252 Y34.6034
G01 X8.4533 Y34.5945
G01 X8.4724 Y34.5897
G01 X8.5013 Y34.5843
G01 X8.5208 Y34.5819
G01 X8.5502 Y34.5801
G01 X12.0600 Y34.5800
G00 Z2.0000
G00 X12.0600 Y37.1200
G01 F60.00
G01 Z-0.1100
G01 F120.00
G01 X12.0796 Y37.1205
G01 X12.0992 Y37.1219
G01 X12.1187 Y37.1243
G01 X12.1380 Y37.1277
G01 X12.1572 Y37.1320
G01 X12.1761 Y37.1372
G01 X12.1948 Y37.1434
G01 X12.2131 Y37.1504
G01 X12.2398 Y37.1627
G01 X12.2572 Y37.1720
G01 X12.2740 Y37.1821
G01 X12.2903 Y37.1930
G01 X12.3061 Y37.2047
G01 X12.3213 Y37.2171
G01 X12.3358 Y37.2303
G01 X12.3497 Y37.2442
G01 X12.3629 Y37.2587
G01 X12.3813 Y37.2817
G01 X12.3926 Y37.2978
G01 X12.4031 Y37.3144
G01 X12.4128 Y37.3314
G01 X12.4216 Y37.3490
G01 X12.4296 Y37.3669
G01 X12.4366 Y37.3852
G01 X12.4428 Y37.4039
G01 X12.4480 Y37.4228
G01 X12.4523 Y37.4420
G01 X12.4557 Y37.4613
G01 X12.4589 Y37.4906
G01 X12.4600 Y37.5200
G01 X12.4600 Y39.2200
G01 X12.4595 Y39.2396
G01 X12.4581 Y39.2592
G01 X12.4541 Y39.2884
G01 X12.4503 Y39.3076
G01 X12.4455 Y39.3267
G01 X12.4366 Y39.3548
G01 X12.4296 Y39.3731
G01 X12.4216 Y39.3910
G01 X12.4080 Y39.4172
G01 X12.3979 Y39.4340
G01 X12.3813 Y39.4583
G01 X12.3692 Y39.4738
G01 X12.3564 Y39.4886
G01 X12.3358 Y39.5097
G01 X12.3138 Y39.5292
G01 X12.2983 Y39.5413
G01 X12.2822 Y39.5526
G01 X12.2656 Y39.5631
G01 X12.2398 Y39.5773
G01 X12.2221 Y39.5857
G01 X12.2040 Y39.5932
G01 X12.1761 Y39.6028
G01 X12.1476 Y39.6103
G01 X12.1284 Y39.6141
G01 X12.0992 Y39.6181
G01 X12.0698 Y39.6199
G01 X8.5502 Y39.6199
G01 X8.5208 Y39.6181
G01 X8.5013 Y39.6157
G01 X8.4820 Y39.6123
G01 X8.4533 Y39.6055
G01 X8.4252 Y39.5966
G01 X8.4069 Y39.5896
G01 X8.3890 Y39.5816
G01 X8.3628 Y39.5680
G01 X8.3378 Y39.5526
G01 X8.3139 Y39.5353
G01 X8.2987 Y39.5229
G01 X8.2772 Y39.5028
G01 X8.2636 Y39.4886
G01 X8.2447 Y39.4661
G01 X8.2330 Y39.4503
G01 X8.2169 Y39.4256
G01 X8.2027 Y39.3998
G01 X8.1943 Y39.3821
G01 X8.1834 Y39.3548
G01 X8.1745 Y39.3267
G01 X8.1677 Y39.2980
G01 X8.1643 Y39.2787
G01 X8.1619 Y39.2592
G01 X8.1601 Y39.2298
G01 X8.1600 Y37.5200
G01 X8.1605 Y37.5004
G01 X8.1630 Y37.4710
G01 X8.1659 Y37.4516
G01 X8.1720 Y37.4228
G01 X8.1772 Y37.4039
G01 X8.1868 Y37.3760
G01 X8.1943 Y37.3579
G01 X8.2027 Y37.3402
G01 X8.2169 Y37.3144
G01 X8.2274 Y37.2978
G01 X8.2447 Y37.2739
G01 X8.2636 Y37.2514
G01 X8.2772 Y37.2372
G01 X8.2914 Y37.2236
G01 X8.3139 Y37.2047
G01 X8.3378 Y37.1874
G01 X8.3544 Y37.1769
G01 X8.3714 Y37.1672
G01 X8.3979 Y37.1543
G01 X8.4252 Y37.1434
G01 X8.4533 Y37.1345
G01 X8.4724 Y37.1297
G01 X8.5013 Y37.1243
G01 X8.5208 Y37.1219
G01 X8.5502 Y37.1201
G01 X12.0600 Y37.1200
G00 Z2.0000
G00 X12.0600 Y39.6600
G01 F60.00
G01 Z-0.1100
G01 F120.00
G01 X12.0796 Y39.6605
G01 X12.0992 Y39.6619
G01 X12.1187 Y39.6643
G01 X12.1380 Y39.6677
G01 X12.1572 Y39.6720
G01 X12.1761 Y39.6772
G01 X12.1948 Y39.6834
G01 X12.2131 Y39.6904
G01 X12.2398 Y39.7027
G01 X12.2572 Y39.7120
G01 X12.2740 Y39.7221
G01 X12.2903 Y39.7330
G01 X12.3061 Y39.7447
G01 X12.3213 Y39.7571
G01 X12.3358 Y39.7703
G01 X12.3497 Y39.7842
G01 X12.3629 Y39.7987
G01 X12.3813 Y39.8217
G01 X12.3926 Y39.8378
G01 X12.4031 Y39.8544
G01 X12.4128 Y39.8714
G01 X12.4216 Y39.8890
G01 X12.4296 Y39.9069
G01 X12.4366 Y39.9252
G01 X12.4428 Y39.9439
G01 X12.4480 Y39.9628
G01 X12.4523 Y39.9820
G01 X12.4557 Y40.0013
G01 X12.4589 Y40.0306
G01 X12.4600 Y40.0600
G01 X12.4600 Y41.7600
G01 X12.4595 Y41.7796
G01 X12.4581 Y41.7992
G01 X12.4541 Y41.8284
G01 X12.4503 Y41.8476
G01 X12.4455 Y41.8667
G01 X12.4366 Y41.8948
G01 X12.4296 Y41.9131
G01 X12.4216 Y41.9310
G01 X12.4080 Y41.9572
G01 X12.3979 Y41.9740
G01 X12.3813 Y41.9983
G01 X12.3692 Y42.0138
G01 X12.3564 Y42.0286
G01 X12.3358 Y42.0497
G01 X12.3138 Y42.0692
G01 X12.2983 Y42.0813
G01 X12.2822 Y42.0926
G01 X12.2656 Y42.1031
G01 X12.2398 Y42.1173
G01 X12.2221 Y42.1257
G01 X12.2040 Y42.1332
G01 X12.1761 Y42.1428
G01 X12.1476 Y42.1503
G01 X12.1284 Y42.1541
G01 X12.0992 Y42.1581
G01 X12.0698 Y42.1599
G01 X8.5502 Y42.1599
G01 X8.5208 Y42.1581
G01 X8.5013 Y42.1557
G01 X8.4820 Y42.1523
G01 X8.4533 Y42.1455
G01 X8.4252 Y42.1366
G01 X8.4069 Y42.1296
G01 X8.3890 Y42.1216
G01 X8.3628 Y42.1080
G01 X8.3378 Y42.0926
G01 X8.3139 Y42.0753
G01 X8.2987 Y42.0629
G01 X8.2772 Y42.0428
G01 X8.2636 Y42.0286
G01 X8.2447 Y42.0061
G01 X8.2330 Y41.9903
G01 X8.2169 Y41.9656
G01 X8.2027 Y41.9398
G01 X8.1943 Y41.9221
G01 X8.1834 Y41.8948
G01 X8.1745 Y41.8667
G01 X8.1677 Y41.8380
G01 X8.1643 Y41.8187
G01 X8.1619 Y41.7992
G01 X8.1601 Y41.7698
G01 X8.1600 Y40.0600
G01 X8.1605 Y40.0404
G01 X8.1630 Y40.0110
G01 X8.1659 Y39.9916
G01 X8.1720 Y39.9628
G01 X8.1772 Y39.9439
G01 X8.1868 Y39.9160
G01 X8.1943 Y39.8979
G01 X8.2027 Y39.8802
G01 X8.2169 Y39.8544
G01 X8.2274 Y39.8378
G01 X8.2447 Y39.8139
G01 X8.2636 Y39.7914
G01 X8.2772 Y39.7772
G01 X8.2914 Y39.7636
G01 X8.3139 Y39.7447
G01 X8.3378 Y39.7274
G01 X8.3544 Y39.7169
G01 X8.3714 Y39.7072
G01 X8.3979 Y39.6943
G01 X8.4252 Y39.6834
G01 X8.4533 Y39.6745
G01 X8.4724 Y39.6697
G01 X8.5013 Y39.6643
G01 X8.5208 Y39.6619
G01 X8.5502 Y39.6601
G01 X12.0600 Y39.6600
G00 Z2.0000
G00 X12.0600 Y42.2000
G01 F60.00
G01 Z-0.1100
G01 F120.00
G01 X12.0796 Y42.2005
G01 X12.0992 Y42.2019
G01 X12.1187 Y42.2043
G01 X12.1380 Y42.2077
G01 X12.1572 Y42.2120
G01 X12.1761 Y42.2172
G01 X12.1948 Y42.2234
G01 X12.2131 Y42.2304
G01 X12.2398 Y42.2427
G01 X12.2572 Y42.2520
G01 X12.2740 Y42.2621
G01 X12.2903 Y42.2730
G01 X12.3061 Y42.2847
G01 X12.3213 Y42.2971
G01 X12.3358 Y42.3103
G01 X12.3497 Y42.3242
G01 X12.3629 Y42.3387
G01 X12.3813 Y42.3617
G01 X12.3926 Y42.3778
G01 X12.4031 Y42.3944
G01 X12.4128 Y42.4114
G01 X12.4216 Y42.4290
G01 X12.4296 Y42.4469
G01 X12.4366 Y42.4652
G01 X12.4428 Y42.4839
G01 X12.4480 Y42.5028
G01 X12.4523 Y42.5220
G01 X12.4557 Y42.5413
G01 X12.4589 Y42.5706
G01 X12.4600 Y42.6000
G01 X12.4600 Y44.3000
G01 X12.4595 Y44.3196
G01 X12.4581 Y44.3392
G01 X12.4541 Y44.3684
G01 X12.4503 Y44.3876
G01 X12.4455 Y44.4067
G01 X12.4366 Y44.4348
G01 X12.4296 Y44.4531
G01 X12.4216 Y44.4710
G01 X12.4080 Y44.4972
G01 X12.3979 Y44.5140
G01 X12.3813 Y44.5383
G01 X12.3692 Y44.5538
G01 X12.3564 Y44.5686
G01 X12.3358 Y44.5897
G01 X12.3138 Y44.6092
G01 X12.2983 Y44.6213
G01 X12.2822 Y44.6326
G01 X12.2656 Y44.6431
G01 X12.2398 Y44.6573
G01 X12.2221 Y44.6657
G01 X12.2040 Y44.6732
G01 X12.1761 Y44.6828
G01 X12.1476 Y44.6903
G01 X12.1284 Y44.6941
G01 X12.0992 Y44.6981
G01 X12.0698 Y44.6999
G01 X8.5502 Y44.6999
G01 X8.5208 Y44.6981
G01 X8.5013 Y44.6957
G01 X8.4820 Y44.6923
G01 X8.4533 Y44.6855
G01 X8.4252 Y44.6766
G01 X8.4069 Y44.6696
G01 X8.3890 Y44.6616
G01 X8.3628 Y44.6480
G01 X8.3378 Y44.6326
G01 X8.3139 Y44.6153
G01 X8.2987 Y44.6029
G01 X8.2772 Y44.5828
G01 X8.2636 Y44.5686
G01 X8.2447 Y44.5461
G01 X8.2330 Y44.5303
G01 X8.2169 Y44.5056
G01 X8.2027 Y44.4798
G01 X8.1943 Y44.4621
G01 X8.1834 Y44.4348
G01 X8.1745 Y44.4067
G01 X8.1677 Y44.3780
G01 X8.1643 Y44.3587
G01 X8.1619 Y44.3392
G01 X8.1601 Y44.3098
G01 X8.1600 Y42.6000
G01 X8.1605 Y42.5804
G01 X8.1630 Y42.5510
G01 X8.1659 Y42.5316
G01 X8.1720 Y42.5028
G01 X8.1772 Y42.4839
G01 X8.1868 Y42.4560
G01 X8.1943 Y42.4379
G01 X8.2027 Y42.4202
G01 X8.2169 Y42.3944
G01 X8.2274 Y42.3778
G01 X8.2447 Y42.3539
G01 X8.2636 Y42.3314
G01 X8.2772 Y42.3172
G01 X8.2914 Y42.3036
G01 X8.3139 Y42.2847
G01 X8.3378 Y42.2674
G01 X8.3544 Y42.2569
G01 X8.3714 Y42.2472
G01 X8.3979 Y42.2343
G01 X8.4252 Y42.2234
G01 X8.4533 Y42.2145
G01 X8.4724 Y42.2097
G01 X8.5013 Y42.2043
G01 X8.5208 Y42.2019
G01 X8.5502 Y42.2001
G01 X12.0600 Y42.2000
G00 Z2.0000
G00 X12.0600 Y44.7400
G01 F60.00
G01 Z-0.1100
G01 F120.00
G01 X12.0796 Y44.7405
G01 X12.0992 Y44.7419
G01 X12.1187 Y44.7443
G01 X12.1380 Y44.7477
G01 X12.1572 Y44.7520
G01 X12.1761 Y44.7572
G01 X12.1948 Y44.7634
G01 X12.2131 Y44.7704
G01 X12.2398 Y44.7827
G01 X12.2572 Y44.7920
G01 X12.2740 Y44.8021
G01 X12.2903 Y44.8130
G01 X12.3061 Y44.8247
G01 X12.3213 Y44.8371
G01 X12.3358 Y44.8503
G01 X12.3497 Y44.8642
G01 X12.3629 Y44.8787
G01 X12.3813 Y44.9017
G01 X12.3926 Y44.9178
G01 X12.4031 Y44.9344
G01 X12.4128 Y44.9514
G01 X12.4216 Y44.9690
G01 X12.4296 Y44.9869
G01 X12.4366 Y45.0052
G01 X12.4428 Y45.0239
G01 X12.4480 Y45.0428
G01 X12.4523 Y45.0620
G01 X12.4557 Y45.0813
G01 X12.4589 Y45.1106
G01 X12.4600 Y45.1400
G01 X12.4600 Y46.8400
G01 X12.4595 Y46.8596
G01 X12.4581 Y46.8792
G01 X12.4541 Y46.9084
G01 X12.4503 Y46.9276
G01 X12.4455 Y46.9467
G01 X12.4366 Y46.9748
G01 X12.4296 Y46.9931
G01 X12.4216 Y47.0110
G01 X12.4080 Y47.0372
G01 X12.3979 Y47.0540
G01 X12.3813 Y47.0783
G01 X12.3692 Y47.0938
G01 X12.3564 Y47.1086
G01 X12.3358 Y47.1297
G01 X12.3138 Y47.1492
G01 X12.2983 Y47.1613
G01 X12.2822 Y47.1726
G01 X12.2656 Y47.1831
G01 X12.2398 Y47.1973
G01 X12.2221 Y47.2057
G01 X12.2040 Y47.2132
G01 X12.1761 Y47.2228
G01 X12.1476 Y47.2303
G01 X12.1284 Y47.2341
G01 X12.0992 Y47.2381
G01 X12.0698 Y47.2399
G01 X8.5502 Y47.2399
G01 X8.5208 Y47.2381
G01 X8.5013 Y47.2357
G01 X8.4820 Y47.2323
G01 X8.4533 Y47.2255
G01 X8.4252 Y47.2166
G01 X8.4069 Y47.2096
G01 X8.3890 Y47.2016
G01 X8.3628 Y47.1880
G01 X8.3378 Y47.1726
G01 X8.3139 Y47.1553
G01 X8.2987 Y47.1429
G01 X8.2772 Y47.1228
G01 X8.2636 Y47.1086
G01 X8.2447 Y47.0861
G01 X8.2330 Y47.0703
G01 X8.2169 Y47.0456
G01 X8.2027 Y47.0198
G01 X8.1943 Y47.0021
G01 X8.1834 Y46.9748
G01 X8.1745 Y46.9467
G01 X8.1677 Y46.9180
G01 X8.1643 Y46.8987
G01 X8.1619 Y46.8792
G01 X8.1601 Y46.8498
G01 X8.1600 Y45.1400
G01 X8.1605 Y45.1204
G01 X8.1630 Y45.0910
G01 X8.1659 Y45.0716
G01 X8.1720 Y45.0428
G01 X8.1772 Y45.0239
G01 X8.1868 Y44.9960
G01 X8.1943 Y44.9779
G01 X8.2027 Y44.9602
G01 X8.2169 Y44.9344
G01 X8.2274 Y44.9178
G01 X8.2447 Y44.8939
G01 X8.2636 Y44.8714
G01 X8.2772 Y44.8572
G01 X8.2914 Y44.8436
G01 X8.3139 Y44.8247
G01 X8.3378 Y44.8074
G01 X8.3544 Y44.7969
G01 X8.3714 Y44.7872
G01 X8.3979 Y44.7743
G01 X8.4252 Y44.7634
G01 X8.4533 Y44.7545
G01 X8.4724 Y44.7497
G01 X8.5013 Y44.7443
G01 X8.5208 Y44.7419
G01 X8.5502 Y44.7401
G01 X12.0600 Y44.7400
G00 Z2.0000
G00 X12.0600 Y47.2800
G01 F60.00
G01 Z-0.1100
G01 F120.00
G01 X12.0796 Y47.2805
G01 X12.0992 Y47.2819
G01 X12.1187 Y47.2843
G01 X12.1380 Y47.2877
G01 X12.1572 Y47.2920
G01 X12.1761 Y47.2972
G01 X12.1948 Y47.3034
G01 X12.2131 Y47.3104
G01 X12.2398 Y47.3227
G01 X12.2572 Y47.3320
G01 X12.2740 Y47.3421
G01 X12.2903 Y47.3530
G01 X12.3061 Y47.3647
G01 X12.3213 Y47.3771
G01 X12.3358 Y47.3903
G01 X12.3497 Y47.4042
G01 X12.3629 Y47.4187
G01 X12.3813 Y47.4417
G01 X12.3926 Y47.4578
G01 X12.4031 Y47.4744
G01 X12.4128 Y47.4914
G01 X12.4216 Y47.5090
G01 X12.4296 Y47.5269
G01 X12.4366 Y47.5452
G01 X12.4428 Y47.5639
G01 X12.4480 Y47.5828
G01 X12.4523 Y47.6020
G01 X12.4557 Y47.6213
G01 X12.4589 Y47.6506
G01 X12.4600 Y47.6800
G01 X12.4600 Y49.3800
G01 X12.4595 Y49.3996
G01 X12.4581 Y49.4192
G01 X12.4541 Y49.4484
G01 X12.4503 Y49.4676
G01 X12.4455 Y49.4867
G01 X12.4366 Y49.5148
G01 X12.4296 Y49.5331
G01 X12.4216 Y49.5510
G01 X12.4080 Y49.5772
G01 X12.3979 Y49.5940
G01 X12.3813 Y49.6183
G01 X12.3692 Y49.6338
G01 X12.3564 Y49.6486
G01 X12.3358 Y49.6697
G01 X12.3138 Y49.6892
G01 X12.2983 Y49.7013
G01 X12.2822 Y49.7126
G01 X12.2656 Y49.7231
G01 X12.2398 Y49.7373
G01 X12.2221 Y49.7457
G01 X12.2040 Y49.7532
G01 X12.1761 Y49.7628
G01 X12.1476 Y49.7703
G01 X12.1284 Y49.7741
G01 X12.0992 Y49.7781
G01 X12.0698 Y49.7799
G01 X8.5502 Y49.7799
G01 X8.5208 Y49.7781
G01 X8.5013 Y49.7757
G01 X8.4820 Y49.7723
G01 X8.4533 Y49.7655
G01 X8.4252 Y49.7566
G01 X8.4069 Y49.7496
G01 X8.3890 Y49.7416
G01 X8.3628 Y49.7280
G01 X8.3378 Y49.7126
G01 X8.3139 Y49.6953
G01 X8.2987 Y49.6829
G01 X8.2772 Y49.6628
G01 X8.2636 Y49.6486
G01 X8.2447 Y49.6261
G01 X8.2330 Y49.6103
G01 X8.2169 Y49.5856
G01 X8.2027 Y49.5598
G01 X8.1943 Y49.5421
G01 X8.1834 Y49.5148
G01 X8.1745 Y49.4867
G01 X8.1677 Y49.4580
G01 X8.1643 Y49.4387
G01 X8.1619 Y49.4192
G01 X8.1601 Y49.3898
G01 X8.1600 Y47.6800
G01 X8.1605 Y47.6604
G01 X8.1630 Y47.6310
G01 X8.1659 Y47.6116
G01 X8.1720 Y47.5828
G01 X8.1772 Y47.5639
G01 X8.1868 Y47.5360
G01 X8.1943 Y47.5179
G01 X8.2027 Y47.5002
G01 X8.2169 Y47.4744
G01 X8.2274 Y47.4578
G01 X8.2447 Y47.4339
G01 X8.2636 Y47.4114
G01 X8.2772 Y47.3972
G01 X8.2914 Y47.3836
G01 X8.3139 Y47.3647
G01 X8.3378 Y47.3474
G01 X8.3544 Y47.3369
G01 X8.3714 Y47.3272
G01 X8.3979 Y47.3143
G01 X8.4252 Y47.3034
G01 X8.4533 Y47.2945
G01 X8.4724 Y47.2897
G01 X8.5013 Y47.2843
G01 X8.5208 Y47.2819
G01 X8.5502 Y47.2801
G01 X12.0600 Y47.2800
G00 Z2.0000
G00 X12.0600 Y49.8200
G01 F60.00
G01 Z-0.1100
G01 F120.00
G01 X12.0796 Y49.8205
G01 X12.0992 Y49.8219
G01 X12.1187 Y49.8243
G01 X12.1380 Y49.8277
G01 X12.1572 Y49.8320
G01 X12.1761 Y49.8372
G01 X12.1948 Y49.8434
G01 X12.2131 Y49.8504
G01 X12.2398 Y49.8627
G01 X12.2572 Y49.8720
G01 X12.2740 Y49.8821
G01 X12.2903 Y49.8930
G01 X12.3061 Y49.9047
G01 X12.3213 Y49.9171
G01 X12.3358 Y49.9303
G01 X12.3497 Y49.9442
G01 X12.3629 Y49.9587
G01 X12.3813 Y49.9817
G01 X12.3926 Y49.9978
G01 X12.4031 Y50.0144
G01 X12.4128 Y50.0314
G01 X12.4216 Y50.0490
G01 X12.4296 Y50.0669
G01 X12.4366 Y50.0852
G01 X12.4428 Y50.1039
G01 X12.4480 Y50.1228
G01 X12.4523 Y50.1420
G01 X12.4557 Y50.1613
G01 X12.4589 Y50.1906
G01 X12.4600 Y50.2200
G01 X12.4600 Y51.9200
G01 X12.4595 Y51.9396
G01 X12.4581 Y51.9592
G01 X12.4541 Y51.9884
G01 X12.4503 Y52.0076
G01 X12.4455 Y52.0267
G01 X12.4366 Y52.0548
G01 X12.4296 Y52.0731
G01 X12.4216 Y52.0910
G01 X12.4080 Y52.1172
G01 X12.3979 Y52.1340
G01 X12.3813 Y52.1583
G01 X12.3692 Y52.1738
G01 X12.3564 Y52.1886
G01 X12.3358 Y52.2097
G01 X12.3138 Y52.2292
G01 X12.2983 Y52.2413
G01 X12.2822 Y52.2526
G01 X12.2656 Y52.2631
G01 X12.2398 Y52.2773
G01 X12.2221 Y52.2857
G01 X12.2040 Y52.2932
G01 X12.1761 Y52.3028
G01 X12.1476 Y52.3103
G01 X12.1284 Y52.3141
G01 X12.0992 Y52.3181
G01 X12.0698 Y52.3199
G01 X8.5502 Y52.3199
G01 X8.5208 Y52.3181
G01 X8.5013 Y52.3157
G01 X8.4820 Y52.3123
G01 X8.4533 Y52.3055
G01 X8.4252 Y52.2966
G01 X8.4069 Y52.2896
G01 X8.3890 Y52.2816
G01 X8.3628 Y52.2680
G01 X8.3378 Y52.2526
G01 X8.3139 Y52.2353
G01 X8.2987 Y52.2229
G01 X8.2772 Y52.2028
G01 X8.2636 Y52.1886
G01 X8.2447 Y52.1661
G01 X8.2330 Y52.1503
G01 X8.2169 Y52.1256
G01 X8.2027 Y52.0998
G01 X8.1943 Y52.0821
G01 X8.1834 Y52.0548
G01 X8.1745 Y52.0267
G01 X8.1677 Y51.9980
G01 X8.1643 Y51.9787
G01 X8.1619 Y51.9592
G01 X8.1601 Y51.9298
G01 X8.1600 Y50.2200
G01 X8.1605 Y50.2004
G01 X8.1630 Y50.1710
G01 X8.1659 Y50.1516
G01 X8.1720 Y50.1228
G01 X8.1772 Y50.1039
G01 X8.1868 Y50.0760
G01 X8.1943 Y50.0579
G01 X8.2027 Y50.0402
G01 X8.2169 Y50.0144
G01 X8.2274 Y49.9978
G01 X8.2447 Y49.9739
G01 X8.2636 Y49.9514
G01 X8.2772 Y49.9372
G01 X8.2914 Y49.9236
G01 X8.3139 Y49.9047
G01 X8.3378 Y49.8874
G01 X8.3544 Y49.8769
G01 X8.3714 Y49.8672
G01 X8.3979 Y49.8543
G01 X8.4252 Y49.8434
G01 X8.4533 Y49.8345
G01 X8.4724 Y49.8297
G01 X8.5013 Y49.8243
G01 X8.5208 Y49.8219
G01 X8.5502 Y49.8201
G01 X12.0600 Y49.8200
G00 Z2.0000
G00 X12.0600 Y52.3600
G01 F60.00
G01 Z-0.1100
G01 F120.00
G01 X12.0796 Y52.3605
G01 X12.0992 Y52.3619
G01 X12.1187 Y52.3643
G01 X12.1380 Y52.3677
G01 X12.1572 Y52.3720
G01 X12.1761 Y52.3772
G01 X12.1948 Y52.3834
G01 X12.2131 Y52.3904
G01 X12.2398 Y52.4027
G01 X12.2572 Y52.4120
G01 X12.2740 Y52.4221
G01 X12.2903 Y52.4330
G01 X12.3061 Y52.4447
G01 X12.3213 Y52.4571
G01 X12.3358 Y52.4703
G01 X12.3497 Y52.4842
G01 X12.3629 Y52.4987
G01 X12.3813 Y52.5217
G01 X12.3926 Y52.5378
G01 X12.4031 Y52.5544
G01 X12.4128 Y52.5714
G01 X12.4216 Y52.5890
G01 X12.4296 Y52.6069
G01 X12.4366 Y52.6252
G01 X12.4428 Y52.6439
G01 X12.4480 Y52.6628
G01 X12.4523 Y52.6820
G01 X12.4557 Y52.7013
G01 X12.4589 Y52.7306
G01 X12.4600 Y52.7600
G01 X12.4600 Y54.4600
G01 X12.4595 Y54.4796
G01 X12.4581 Y54.4992
G01 X12.4541 Y54.5284
G01 X12.4503 Y54.5476
G01 X12.4455 Y54.5667
G01 X12.4366 Y54.5948
G01 X12.4296 Y54.6131
G01 X12.4216 Y54.6310
G01 X12.4080 Y54.6572
G01 X12.3979 Y54.6740
G01 X12.3870 Y54.6903
G01 X12.3692 Y54.7138
G01 X12.3564 Y54.7286
G01 X12.3358 Y54.7497
G01 X12.3138 Y54.7692
G01 X12.2983 Y54.7813
G01 X12.2822 Y54.7926
G01 X12.2656 Y54.8031
G01 X12.2398 Y54.8173
G01 X12.2221 Y54.8257
G01 X12.2040 Y54.8332
G01 X12.1761 Y54.8428
G01 X12.1476 Y54.8503
G01 X12.1284 Y54.8541
G01 X12.0992 Y54.8581
G01 X12.0698 Y54.8599
G01 X8.5502 Y54.8599
G01 X8.5208 Y54.8581
G01 X8.5013 Y54.8557
G01 X8.4820 Y54.8523
G01 X8.4533 Y54.8455
G01 X8.4252 Y54.8366
G01 X8.4069 Y54.8296
G01 X8.3802 Y54.8173
G01 X8.3544 Y54.8031
G01 X8.3378 Y54.7926
G01 X8.3139 Y54.7753
G01 X8.2914 Y54.7564
G01 X8.2772 Y54.7428
G01 X8.2636 Y54.7286
G01 X8.2447 Y54.7061
G01 X8.2330 Y54.6903
G01 X8.2169 Y54.6656
G01 X8.2027 Y54.6398
G01 X8.1904 Y54.6131
G01 X8.1834 Y54.5948
G01 X8.1745 Y54.5667
G01 X8.1677 Y54.5380
G01 X8.1643 Y54.5187
G01 X8.1611 Y54.4894
G01 X8.1601 Y54.4698
G01 X8.1600 Y52.7600
G01 X8.1605 Y52.7404
G01 X8.1630 Y52.7110
G01 X8.1659 Y52.6916
G01 X8.1720 Y52.6628
G01 X8.1772 Y52.6439
G01 X8.1834 Y52.6252
G01 X8.1943 Y52.5979
G01 X8.2072 Y52.5714
G01 X8.2169 Y52.5544
G01 X8.2274 Y52.5378
G01 X8.2447 Y52.5139
G01 X8.2571 Y52.4987
G01 X8.2772 Y52.4772
G01 X8.2987 Y52.4571
G01 X8.3139 Y52.4447
G01 X8.3378 Y52.4274
G01 X8.3544 Y52.4169
G01 X8.3802 Y52.4027
G01 X8.4069 Y52.3904
G01 X8.4345 Y52.3802
G01 X8.4533 Y52.3745
G01 X8.4724 Y52.3697
G01 X8.5013 Y52.3643
G01 X8.5208 Y52.3619
G01 X8.5502 Y52.3601
G01 X12.0600 Y52.3600
G00 Z2.0000
G00 X12.0600 Y54.9000
G01 F60.00
G01 Z-0.1100
G01 F120.00
G01 X12.0796 Y54.9005
G01 X12.0992 Y54.9019
G01 X12.1187 Y54.9043
G01 X12.1380 Y54.9077
G01 X12.1572 Y54.9120
G01 X12.1761 Y54.9172
G01 X12.1948 Y54.9234
G01 X12.2131 Y54.9304
G01 X12.2310 Y54.9384
G01 X12.2486 Y54.9472
G01 X12.2656 Y54.9569
G01 X12.2822 Y54.9674
G01 X12.2983 Y54.9787
G01 X12.3138 Y54.9908
G01 X12.3358 Y55.0103
G01 X12.3497 Y55.0242
G01 X12.3629 Y55.0387
G01 X12.3753 Y55.0539
G01 X12.3870 Y55.0697
G01 X12.3979 Y55.0860
G01 X12.4080 Y55.1028
G01 X12.4216 Y55.1290
G01 X12.4296 Y55.1469
G01 X12.4366 Y55.1652
G01 X12.4428 Y55.1839
G01 X12.4480 Y55.2028
G01 X12.4523 Y55.2220
G01 X12.4557 Y55.2413
G01 X12.4589 Y55.2706
G01 X12.4600 Y55.3000
G01 X12.4600 Y57.0000
G01 X12.4595 Y57.0196
G01 X12.4581 Y57.0392
G01 X12.4541 Y57.0684
G01 X12.4503 Y57.0876
G01 X12.4455 Y57.1067
G01 X12.4366 Y57.1348
G01 X12.4296 Y57.1531
G01 X12.4216 Y57.1710
G01 X12.4080 Y57.1972
G01 X12.3979 Y57.2140
G01 X12.3870 Y57.2303
G01 X12.3692 Y57.2538
G01 X12.3564 Y57.2686
G01 X12.3358 Y57.2897
G01 X12.3138 Y57.3092
G01 X12.2983 Y57.3213
G01 X12.2822 Y57.3326
G01 X12.2656 Y57.3431
G01 X12.2398 Y57.3573
G01 X12.2221 Y57.3657
G01 X12.2040 Y57.3732
G01 X12.1761 Y57.3828
G01 X12.1476 Y57.3903
G01 X12.1284 Y57.3941
G01 X12.0992 Y57.3981
G01 X12.0698 Y57.3999
G01 X8.5502 Y57.3999
G01 X8.5208 Y57.3981
G01 X8.5013 Y57.3957
G01 X8.4820 Y57.3923
G01 X8.4533 Y57.3855
G01 X8.4252 Y57.3766
G01 X8.4069 Y57.3696
G01 X8.3802 Y57.3573
G01 X8.3544 Y57.3431
G01 X8.3378 Y57.3326
G01 X8.3139 Y57.3153
G01 X8.2914 Y57.2964
G01 X8.2772 Y57.2828
G01 X8.2636 Y57.2686
G01 X8.2447 Y57.2461
G01 X8.2330 Y57.2303
G01 X8.2169 Y57.2056
G01 X8.2027 Y57.1798
G01 X8.1904 Y57.1531
G01 X8.1834 Y57.1348
G01 X8.1745 Y57.1067
G01 X8.1677 Y57.0780
G01 X8.1643 Y57.0587
G01 X8.1611 Y57.0294
G01 X8.1601 Y57.0098
G01 X8.1600 Y55.3000
G01 X8.1605 Y55.2804
G01 X8.1630 Y55.2510
G01 X8.1659 Y55.2316
G01 X8.1720 Y55.2028
G01 X8.1772 Y55.1839
G01 X8.1868 Y55.1560
G01 X8.1943 Y55.1379
G01 X8.2072 Y55.1114
G01 X8.2169 Y55.0944
G01 X8.2330 Y55.0697
G01 X8.2447 Y55.0539
G01 X8.2571 Y55.0387
G01 X8.2772 Y55.0172
G01 X8.2987 Y54.9971
G01 X8.3139 Y54.9847
G01 X8.3378 Y54.9674
G01 X8.3544 Y54.9569
G01 X8.3802 Y54.9427
G01 X8.4069 Y54.9304
G01 X8.4345 Y54.9202
G01 X8.4533 Y54.9145
G01 X8.4724 Y54.9097
G01 X8.5013 Y54.9043
G01 X8.5208 Y54.9019
G01 X8.5502 Y54.9001
G01 X12.0600 Y54.9000
G00 Z2.0000
G00 X12.0600 Y57.4400
G01 F60.00
G01 Z-0.1100
G01 F120.00
G01 X12.0796 Y57.4405
G01 X12.0992 Y57.4419
G01 X12.1187 Y57.4443
G01 X12.1380 Y57.4477
G01 X12.1572 Y57.4520
G01 X12.1761 Y57.4572
G01 X12.1948 Y57.4634
G01 X12.2131 Y57.4704
G01 X12.2310 Y57.4784
G01 X12.2486 Y57.4872
G01 X12.2656 Y57.4969
G01 X12.2822 Y57.5074
G01 X12.2983 Y57.5187
G01 X12.3138 Y57.5308
G01 X12.3358 Y57.5503
G01 X12.3497 Y57.5642
G01 X12.3629 Y57.5787
G01 X12.3753 Y57.5939
G01 X12.3870 Y57.6097
G01 X12.3979 Y57.6260
G01 X12.4080 Y57.6428
G01 X12.4216 Y57.6690
G01 X12.4296 Y57.6869
G01 X12.4366 Y57.7052
G01 X12.4428 Y57.7239
G01 X12.4480 Y57.7428
G01 X12.4523 Y57.7620
G01 X12.4557 Y57.7813
G01 X12.4589 Y57.8106
G01 X12.4600 Y57.8400
G01 X12.4600 Y59.5400
G01 X12.4595 Y59.5596
G01 X12.4581 Y59.5792
G01 X12.4541 Y59.6084
G01 X12.4503 Y59.6276
G01 X12.4455 Y59.6467
G01 X12.4366 Y59.6748
G01 X12.4296 Y59.6931
G01 X12.4216 Y59.7110
G01 X12.4080 Y59.7372
G01 X12.3979 Y59.7540
G01 X12.3870 Y59.7703
G01 X12.3692 Y59.7938
G01 X12.3497 Y59.8158
G01 X12.3358 Y59.8297
G01 X12.3138 Y59.8492
G01 X12.2983 Y59.8613
G01 X12.2822 Y59.8726
G01 X12.2656 Y59.8831
G01 X12.2486 Y59.8928
G01 X12.2221 Y59.9057
G01 X12.2040 Y59.9132
G01 X12.1761 Y59.9228
G01 X12.1476 Y59.9303
G01 X12.1284 Y59.9341
G01 X12.0992 Y59.9381
G01 X12.0698 Y59.9399
G01 X8.5502 Y59.9399
G01 X8.5208 Y59.9381
G01 X8.5013 Y59.9357
G01 X8.4820 Y59.9323
G01 X8.4533 Y59.9255
G01 X8.4252 Y59.9166
G01 X8.4069 Y59.9096
G01 X8.3802 Y59.8973
G01 X8.3544 Y59.8831
G01 X8.3378 Y59.8726
G01 X8.3139 Y59.8553
G01 X8.2914 Y59.8364
G01 X8.2772 Y59.8228
G01 X8.2636 Y59.8086
G01 X8.2447 Y59.7861
G01 X8.2330 Y59.7703
G01 X8.2169 Y59.7456
G01 X8.2027 Y59.7198
G01 X8.1904 Y59.6931
G01 X8.1834 Y59.6748
G01 X8.1745 Y59.6467
G01 X8.1677 Y59.6180
G01 X8.1643 Y59.5987
G01 X8.1611 Y59.5694
G01 X8.1601 Y59.5498
G01 X8.1600 Y57.8400
G01 X8.1605 Y57.8204
G01 X8.1630 Y57.7910
G01 X8.1659 Y57.7716
G01 X8.1720 Y57.7428
G01 X8.1772 Y57.7239
G01 X8.1868 Y57.6960
G01 X8.1943 Y57.6779
G01 X8.2072 Y57.6514
G01 X8.2169 Y57.6344
G01 X8.2330 Y57.6097
G01 X8.2447 Y57.5939
G01 X8.2571 Y57.5787
G01 X8.2772 Y57.5572
G01 X8.2987 Y57.5371
G01 X8.3139 Y57.5247
G01 X8.3378 Y57.5074
G01 X8.3544 Y57.4969
G01 X8.3802 Y57.4827
G01 X8.4069 Y57.4704
G01 X8.4345 Y57.4602
G01 X8.4533 Y57.4545
G01 X8.4724 Y57.4497
G01 X8.5013 Y57.4443
G01 X8.5208 Y57.4419
G01 X8.5502 Y57.4401
G01 X12.0600 Y57.4400
G00 Z2.0000
G00 X12.0600 Y59.9800
G01 F60.00
G01 Z-0.1100
G01 F120.00
G01 X12.0796 Y59.9805
G01 X12.0992 Y59.9819
G01 X12.1187 Y59.9843
G01 X12.1380 Y59.9877
G01 X12.1572 Y59.9920
G01 X12.1761 Y59.9972
G01 X12.1948 Y60.0034
G01 X12.2131 Y60.0104
G01 X12.2310 Y60.0184
G01 X12.2486 Y60.0272
G01 X12.2656 Y60.0369
G01 X12.2822 Y60.0474
G01 X12.2983 Y60.0587
G01 X12.3138 Y60.0708
G01 X12.3358 Y60.0903
G01 X12.3497 Y60.1042
G01 X12.3629 Y60.1187
G01 X12.3753 Y60.1339
G01 X12.3870 Y60.1497
G01 X12.3979 Y60.1660
G01 X12.4080 Y60.1828
G01 X12.4216 Y60.2090
G01 X12.4296 Y60.2269
G01 X12.4366 Y60.2452
G01 X12.4428 Y60.2639
G01 X12.4480 Y60.2828
G01 X12.4523 Y60.3020
G01 X12.4557 Y60.3213
G01 X12.4589 Y60.3506
G01 X12.4600 Y60.3800
G01 X12.4600 Y62.0800
G01 X12.4595 Y62.0996
G01 X12.4581 Y62.1192
G01 X12.4541 Y62.1484
G01 X12.4503 Y62.1676
G01 X12.4455 Y62.1867
G01 X12.4366 Y62.2148
G01 X12.4296 Y62.2331
G01 X12.4216 Y62.2510
G01 X12.4080 Y62.2772
G01 X12.3979 Y62.2940
G01 X12.3870 Y62.3103
G01 X12.3692 Y62.3338
G01 X12.3564 Y62.3486
G01 X12.3358 Y62.3697
G01 X12.3138 Y62.3892
G01 X12.2983 Y62.4013
G01 X12.2822 Y62.4126
G01 X12.2656 Y62.4231
G01 X12.2398 Y62.4373
G01 X12.2221 Y62.4457
G01 X12.2040 Y62.4532
G01 X12.1761 Y62.4628
G01 X12.1476 Y62.4703
G01 X12.1284 Y62.4741
G01 X12.0992 Y62.4781
G01 X12.0698 Y62.4799
G01 X8.5502 Y62.4799
G01 X8.5208 Y62.4781
G01 X8.5013 Y62.4757
G01 X8.4820 Y62.4723
G01 X8.4533 Y62.4655
G01 X8.4252 Y62.4566
G01 X8.4069 Y62.4496
G01 X8.3802 Y62.4373
G01 X8.3544 Y62.4231
G01 X8.3378 Y62.4126
G01 X8.3139 Y62.3953
G01 X8.2914 Y62.3764
G01 X8.2772 Y62.3628
G01 X8.2636 Y62.3486
G01 X8.2447 Y62.3261
G01 X8.2330 Y62.3103
G01 X8.2169 Y62.2856
G01 X8.2027 Y62.2598
G01 X8.1904 Y62.2331
G01 X8.1834 Y62.2148
G01 X8.1745 Y62.1867
G01 X8.1677 Y62.1580
G01 X8.1643 Y62.1387
G01 X8.1611 Y62.1094
G01 X8.1601 Y62.0898
G01 X8.1600 Y60.3800
G01 X8.1605 Y60.3604
G01 X8.1630 Y60.3310
G01 X8.1659 Y60.3116
G01 X8.1720 Y60.2828
G01 X8.1772 Y60.2639
G01 X8.1868 Y60.2360
G01 X8.1943 Y60.2179
G01 X8.2072 Y60.1914
G01 X8.2169 Y60.1744
G01 X8.2330 Y60.1497
G01 X8.2447 Y60.1339
G01 X8.2571 Y60.1187
G01 X8.2772 Y60.0972
G01 X8.2987 Y60.0771
G01 X8.3139 Y60.0647
G01 X8.3378 Y60.0474
G01 X8.3544 Y60.0369
G01 X8.3802 Y60.0227
G01 X8.4069 Y60.0104
G01 X8.4345 Y60.0002
G01 X8.4533 Y59.9945
G01 X8.4724 Y59.9897
G01 X8.5013 Y59.9843
G01 X8.5208 Y59.9819
G01 X8.5502 Y59.9801
G01 X12.0600 Y59.9800
G00 Z2.0000
G00 X12.0600 Y62.5200
G01 F60.00
G01 Z-0.1100
G01 F120.00
G01 X12.0796 Y62.5205
G01 X12.0992 Y62.5219
G01 X12.1187 Y62.5243
G01 X12.1380 Y62.5277
G01 X12.1572 Y62.5320
G01 X12.1761 Y62.5372
G01 X12.1948 Y62.5434
G01 X12.2131 Y62.5504
G01 X12.2310 Y62.5584
G01 X12.2486 Y62.5672
G01 X12.2656 Y62.5769
G01 X12.2822 Y62.5874
G01 X12.2983 Y62.5987
G01 X12.3138 Y62.6108
G01 X12.3358 Y62.6303
G01 X12.3497 Y62.6442
G01 X12.3629 Y62.6587
G01 X12.3753 Y62.6739
G01 X12.3870 Y62.6897
G01 X12.3979 Y62.7060
G01 X12.4080 Y62.7228
G01 X12.4216 Y62.7490
G01 X12.4296 Y62.7669
G01 X12.4366 Y62.7852
G01 X12.4428 Y62.8039
G01 X12.4480 Y62.8228
G01 X12.4523 Y62.8420
G01 X12.4557 Y62.8613
G01 X12.4589 Y62.8906
G01 X12.4600 Y62.9200
G01 X12.4600 Y64.6200
G01 X12.4595 Y64.6396
G01 X12.4581 Y64.6592
G01 X12.4557 Y64.6787
G01 X12.4503 Y64.7076
G01 X12.4455 Y64.7267
G01 X12.4366 Y64.7548
G01 X12.4257 Y64.7821
G01 X12.4173 Y64.7998
G01 X12.4080 Y64.8172
G01 X12.3979 Y64.8340
G01 X12.3813 Y64.8583
G01 X12.3692 Y64.8738
G01 X12.3497 Y64.8958
G01 X12.3358 Y64.9097
G01 X12.3213 Y64.9229
G01 X12.2983 Y64.9413
G01 X12.2822 Y64.9526
G01 X12.2656 Y64.9631
G01 X12.2398 Y64.9773
G01 X12.2131 Y64.9896
G01 X12.1855 Y64.9998
G01 X12.1667 Y65.0055
G01 X12.1476 Y65.0103
G01 X12.1187 Y65.0157
G01 X12.0992 Y65.0181
G01 X12.0698 Y65.0199
G01 X8.5502 Y65.0199
G01 X8.5208 Y65.0181
G01 X8.5013 Y65.0157
G01 X8.4724 Y65.0103
G01 X8.4533 Y65.0055
G01 X8.4345 Y64.9998
G01 X8.4069 Y64.9896
G01 X8.3890 Y64.9816
G01 X8.3628 Y64.9680
G01 X8.3378 Y64.9526
G01 X8.3139 Y64.9353
G01 X8.2987 Y64.9229
G01 X8.2772 Y64.9028
G01 X8.2636 Y64.8886
G01 X8.2447 Y64.8661
G01 X8.2330 Y64.8503
G01 X8.2169 Y64.8256
G01 X8.2027 Y64.7998
G01 X8.1943 Y64.7821
G01 X8.1834 Y64.7548
G01 X8.1745 Y64.7267
G01 X8.1677 Y64.6980
G01 X8.1643 Y64.6787
G01 X8.1611 Y64.6494
G01 X8.1601 Y64.6298
G01 X8.1600 Y62.9200
G01 X8.1605 Y62.9004
G01 X8.1630 Y62.8710
G01 X8.1659 Y62.8516
G01 X8.1720 Y62.8228
G01 X8.1772 Y62.8039
G01 X8.1868 Y62.7760
G01 X8.1943 Y62.7579
G01 X8.2072 Y62.7314
G01 X8.2169 Y62.7144
G01 X8.2330 Y62.6897
G01 X8.2447 Y62.6739
G01 X8.2571 Y62.6587
G01 X8.2772 Y62.6372
G01 X8.2987 Y62.6171
G01 X8.3139 Y62.6047
G01 X8.3378 Y62.5874
G01 X8.3544 Y62.5769
G01 X8.3802 Y62.5627
G01 X8.4069 Y62.5504
G01 X8.4345 Y62.5402
G01 X8.4533 Y62.5345
G01 X8.4724 Y62.5297
G01 X8.5013 Y62.5243
G01 X8.5208 Y62.5219
G01 X8.5502 Y62.5201
G01 X12.0600 Y62.5200
G00 Z2.0000
G00 X12.0600 Y65.0600
G01 F60.00
G01 Z-0.1100
G01 F120.00
G01 X12.0796 Y65.0605
G01 X12.0992 Y65.0619
G01 X12.1284 Y65.0659
G01 X12.1476 Y65.0697
G01 X12.1667 Y65.0745
G01 X12.1855 Y65.0802
G01 X12.2040 Y65.0868
G01 X12.2221 Y65.0943
G01 X12.2398 Y65.1027
G01 X12.2572 Y65.1120
G01 X12.2740 Y65.1221
G01 X12.2903 Y65.1330
G01 X12.3061 Y65.1447
G01 X12.3213 Y65.1571
G01 X12.3358 Y65.1703
G01 X12.3497 Y65.1842
G01 X12.3629 Y65.1987
G01 X12.3813 Y65.2217
G01 X12.3926 Y65.2378
G01 X12.4031 Y65.2544
G01 X12.4128 Y65.2714
G01 X12.4216 Y65.2890
G01 X12.4296 Y65.3069
G01 X12.4366 Y65.3252
G01 X12.4428 Y65.3439
G01 X12.4480 Y65.3628
G01 X12.4523 Y65.3820
G01 X12.4557 Y65.4013
G01 X12.4589 Y65.4306
G01 X12.4600 Y65.4600
G01 X12.4600 Y67.1600
G01 X12.4595 Y67.1796
G01 X12.4581 Y67.1992
G01 X12.4557 Y67.2187
G01 X12.4503 Y67.2476
G01 X12.4455 Y67.2667
G01 X12.4366 Y67.2948
G01 X12.4257 Y67.3221
G01 X12.4173 Y67.3398
G01 X12.4080 Y67.3572
G01 X12.3979 Y67.3740
G01 X12.3813 Y67.3983
G01 X12.3692 Y67.4138
G01 X12.3497 Y67.4358
G01 X12.3358 Y67.4497
G01 X12.3213 Y67.4629
G01 X12.2983 Y67.4813
G01 X12.2822 Y67.4926
G01 X12.2656 Y67.5031
G01 X12.2398 Y67.5173
G01 X12.2131 Y67.5296
G01 X12.1855 Y67.5398
G01 X12.1667 Y67.5455
G01 X12.1476 Y67.5503
G01 X12.1187 Y67.5557
G01 X12.0992 Y67.5581
G01 X12.0698 Y67.5599
G01 X8.5502 Y67.5599
G01 X8.5208 Y67.5581
G01 X8.5013 Y67.5557
G01 X8.4724 Y67.5503
G01 X8.4533 Y67.5455
G01 X8.4345 Y67.5398
G01 X8.4069 Y67.5296
G01 X8.3890 Y67.5216
G01 X8.3628 Y67.5080
G01 X8.3378 Y67.4926
G01 X8.3139 Y67.4753
G01 X8.2987 Y67.4629
G01 X8.2772 Y67.4428
G01 X8.2636 Y67.4286
G01 X8.2447 Y67.4061
G01 X8.2330 Y67.3903
G01 X8.2169 Y67.3656
G01 X8.2027 Y67.3398
G01 X8.1943 Y67.3221
G01 X8.1834 Y67.2948
G01 X8.1745 Y67.2667
G01 X8.1677 Y67.2380
G01 X8.1643 Y67.2187
G01 X8.1611 Y67.1894
G01 X8.1601 Y67.1698
G01 X8.1600 Y65.4600
G01 X8.1605 Y65.4404
G01 X8.1630 Y65.4110
G01 X8.1659 Y65.3916
G01 X8.1720 Y65.3628
G01 X8.1772 Y65.3439
G01 X8.1868 Y65.3160
G01 X8.1943 Y65.2979
G01 X8.2072 Y65.2714
G01 X8.2169 Y65.2544
G01 X8.2274 Y65.2378
G01 X8.2447 Y65.2139
G01 X8.2571 Y65.1987
G01 X8.2772 Y65.1772
G01 X8.2914 Y65.1636
G01 X8.3139 Y65.1447
G01 X8.3297 Y65.1330
G01 X8.3544 Y65.1169
G01 X8.3802 Y65.1027
G01 X8.4069 Y65.0904
G01 X8.4345 Y65.0802
G01 X8.4533 Y65.0745
G01 X8.4724 Y65.0697
G01 X8.5013 Y65.0643
G01 X8.5306 Y65.0611
G01 X8.5502 Y65.0601
G01 X12.0600 Y65.0600
G00 Z2.0000
G00 X12.0600 Y72.6800
G01 F60.00
G01 Z-0.1100
G01 F120.00
G01 X12.0796 Y72.6805
G01 X12.0992 Y72.6819
G01 X12.1284 Y72.6859
G01 X12.1476 Y72.6897
G01 X12.1667 Y72.6945
G01 X12.1855 Y72.7002
G01 X12.2040 Y72.7068
G01 X12.2221 Y72.7143
G01 X12.2398 Y72.7227
G01 X12.2572 Y72.7320
G01 X12.2740 Y72.7421
G01 X12.2903 Y72.7530
G01 X12.3061 Y72.7647
G01 X12.3213 Y72.7771
G01 X12.3358 Y72.7903
G01 X12.3497 Y72.8042
G01 X12.3629 Y72.8187
G01 X12.3813 Y72.8417
G01 X12.3926 Y72.8578
G01 X12.4031 Y72.8744
G01 X12.4128 Y72.8914
G01 X12.4216 Y72.9090
G01 X12.4296 Y72.9269
G01 X12.4366 Y72.9452
G01 X12.4428 Y72.9639
G01 X12.4480 Y72.9828
G01 X12.4523 Y73.0020
G01 X12.4557 Y73.0213
G01 X12.4589 Y73.0506
G01 X12.4600 Y73.0800
G01 X12.4600 Y74.7800
G01 X12.4595 Y74.7996
G01 X12.4581 Y74.8192
G01 X12.4557 Y74.8387
G01 X12.4503 Y74.8676
G01 X12.4455 Y74.8867
G01 X12.4366 Y74.9148
G01 X12.4257 Y74.9421
G01 X12.4173 Y74.9598
G01 X12.4080 Y74.9772
G01 X12.3979 Y74.9940
G01 X12.3813 Y75.0183
G01 X12.3692 Y75.0338
G01 X12.3497 Y75.0558
G01 X12.3358 Y75.0697
G01 X12.3213 Y75.0829
G01 X12.2983 Y75.1013
G01 X12.2822 Y75.1126
G01 X12.2656 Y75.1231
G01 X12.2398 Y75.1373
G01 X12.2131 Y75.1496
G01 X12.1855 Y75.1598
G01 X12.1667 Y75.1655
G01 X12.1476 Y75.1703
G01 X12.1187 Y75.1757
G01 X12.0992 Y75.1781
G01 X12.0698 Y75.1799
G01 X8.5502 Y75.1799
G01 X8.5208 Y75.1781
G01 X8.5013 Y75.1757
G01 X8.4724 Y75.1703
G01 X8.4533 Y75.1655
G01 X8.4345 Y75.1598
G01 X8.4069 Y75.1496
G01 X8.3890 Y75.1416
G01 X8.3628 Y75.1280
G01 X8.3378 Y75.1126
G01 X8.3139 Y75.0953
G01 X8.2987 Y75.0829
G01 X8.2772 Y75.0628
G01 X8.2636 Y75.0486
G01 X8.2447 Y75.0261
G01 X8.2330 Y75.0103
G01 X8.2169 Y74.9856
G01 X8.2027 Y74.9598
G01 X8.1943 Y74.9421
G01 X8.1834 Y74.9148
G01 X8.1745 Y74.8867
G01 X8.1677 Y74.8580
G01 X8.1643 Y74.8387
G01 X8.1611 Y74.8094
G01 X8.1601 Y74.7898
G01 X8.1600 Y73.0800
G01 X8.1605 Y73.0604
G01 X8.1630 Y73.0310
G01 X8.1659 Y73.0116
G01 X8.1720 Y72.9828
G01 X8.1772 Y72.9639
G01 X8.1868 Y72.9360
G01 X8.1943 Y72.9179
G01 X8.2072 Y72.8914
G01 X8.2169 Y72.8744
G01 X8.2274 Y72.8578
G01 X8.2447 Y72.8339
G01 X8.2571 Y72.8187
G01 X8.2772 Y72.7972
G01 X8.2914 Y72.7836
G01 X8.3139 Y72.7647
G01 X8.3297 Y72.7530
G01 X8.3544 Y72.7369
G01 X8.3802 Y72.7227
G01 X8.4069 Y72.7104
G01 X8.4345 Y72.7002
G01 X8.4533 Y72.6945
G01 X8.4724 Y72.6897
G01 X8.5013 Y72.6843
G01 X8.5306 Y72.6811
G01 X8.5502 Y72.6801
G01 X12.0600 Y72.6800
G00 Z2.0000
G00 X31.6400 Y72.6800
G01 F60.00
G01 Z-0.1100
G01 F120.00
G01 X31.6596 Y72.6805
G01 X31.6792 Y72.6819
G01 X31.7084 Y72.6859
G01 X31.7276 Y72.6897
G01 X31.7467 Y72.6945
G01 X31.7655 Y72.7002
G01 X31.7840 Y72.7068
G01 X31.8021 Y72.7143
G01 X31.8198 Y72.7227
G01 X31.8372 Y72.7320
G01 X31.8540 Y72.7421
G01 X31.8703 Y72.7530
G01 X31.8861 Y72.7647
G01 X31.9013 Y72.7771
G01 X31.9158 Y72.7903
G01 X31.9364 Y72.8114
G01 X31.9492 Y72.8262
G01 X31.9613 Y72.8417
G01 X31.9726 Y72.8578
G01 X31.9831 Y72.8744
G01 X31.9928 Y72.8914
G01 X32.0016 Y72.9090
G01 X32.0096 Y72.9269
G01 X32.0166 Y72.9452
G01 X32.0228 Y72.9639
G01 X32.0280 Y72.9828
G01 X32.0341 Y73.0116
G01 X32.0370 Y73.0310
G01 X32.0389 Y73.0506
G01 X32.0400 Y73.0800
G01 X32.0400 Y74.7800
G01 X32.0395 Y74.7996
G01 X32.0381 Y74.8192
G01 X32.0357 Y74.8387
G01 X32.0303 Y74.8676
G01 X32.0255 Y74.8867
G01 X32.0166 Y74.9148
G01 X32.0057 Y74.9421
G01 X31.9973 Y74.9598
G01 X31.9880 Y74.9772
G01 X31.9779 Y74.9940
G01 X31.9613 Y75.0183
G01 X31.9492 Y75.0338
G01 X31.9297 Y75.0558
G01 X31.9158 Y75.0697
G01 X31.9013 Y75.0829
G01 X31.8783 Y75.1013
G01 X31.8622 Y75.1126
G01 X31.8456 Y75.1231
G01 X31.8198 Y75.1373
G01 X31.7931 Y75.1496
G01 X31.7655 Y75.1598
G01 X31.7467 Y75.1655
G01 X31.7276 Y75.1703
G01 X31.6987 Y75.1757
G01 X31.6792 Y75.1781
G01 X31.6498 Y75.1799
G01 X28.1302 Y75.1799
G01 X28.1008 Y75.1781
G01 X28.0813 Y75.1757
G01 X28.0524 Y75.1703
G01 X28.0333 Y75.1655
G01 X28.0145 Y75.1598
G01 X27.9869 Y75.1496
G01 X27.9690 Y75.1416
G01 X27.9428 Y75.1280
G01 X27.9178 Y75.1126
G01 X27.8939 Y75.0953
G01 X27.8714 Y75.0764
G01 X27.8572 Y75.0628
G01 X27.8436 Y75.0486
G01 X27.8247 Y75.0261
G01 X27.8074 Y75.0022
G01 X27.7969 Y74.9856
G01 X27.7827 Y74.9598
G01 X27.7743 Y74.9421
G01 X27.7634 Y74.9148
G01 X27.7572 Y74.8961
G01 X27.7497 Y74.8676
G01 X27.7443 Y74.8387
G01 X27.7419 Y74.8192
G01 X27.7401 Y74.7898
G01 X27.7400 Y73.0800
G01 X27.7405 Y73.0604
G01 X27.7419 Y73.0408
G01 X27.7459 Y73.0116
G01 X27.7497 Y72.9924
G01 X27.7572 Y72.9639
G01 X27.7668 Y72.9360
G01 X27.7743 Y72.9179
G01 X27.7872 Y72.8914
G01 X27.7969 Y72.8744
G01 X27.8074 Y72.8578
G01 X27.8247 Y72.8339
G01 X27.8371 Y72.8187
G01 X27.8572 Y72.7972
G01 X27.8714 Y72.7836
G01 X27.8939 Y72.7647
G01 X27.9097 Y72.7530
G01 X27.9344 Y72.7369
G01 X27.9602 Y72.7227
G01 X27.9869 Y72.7104
G01 X28.0145 Y72.7002
G01 X28.0333 Y72.6945
G01 X28.0524 Y72.6897
G01 X28.0813 Y72.6843
G01 X28.1106 Y72.6811
G01 X28.1302 Y72.6801
G01 X31.6400 Y72.6800
G00 Z2.0000
G00 X31.6400 Y70.1400
G01 F60.00
G01 Z-0.1100
G01 F120.00
G01 X31.6596 Y70.1405
G01 X31.6792 Y70.1419
G01 X31.7084 Y70.1459
G01 X31.7276 Y70.1497
G01 X31.7467 Y70.1545
G01 X31.7655 Y70.1602
G01 X31.7840 Y70.1668
G01 X31.8021 Y70.1743
G01 X31.8198 Y70.1827
G01 X31.8372 Y70.1920
G01 X31.8540 Y70.2021
G01 X31.8703 Y70.2130
G01 X31.8861 Y70.2247
G01 X31.9013 Y70.2371
G01 X31.9158 Y70.2503
G01 X31.9364 Y70.2714
G01 X31.9492 Y70.2862
G01 X31.9613 Y70.3017
G01 X31.9726 Y70.3178
G01 X31.9831 Y70.3344
G01 X31.9928 Y70.3514
G01 X32.0016 Y70.3690
G01 X32.0096 Y70.3869
G01 X32.0166 Y70.4052
G01 X32.0228 Y70.4239
G01 X32.0280 Y70.4428
G01 X32.0341 Y70.4716
G01 X32.0370 Y70.4910
G01 X32.0389 Y70.5106
G01 X32.0400 Y70.5400
G01 X32.0400 Y72.2400
G01 X32.0395 Y72.2596
G01 X32.0381 Y72.2792
G01 X32.0357 Y72.2987
G01 X32.0303 Y72.3276
G01 X32.0255 Y72.3467
G01 X32.0166 Y72.3748
G01 X32.0057 Y72.4021
G01 X31.9973 Y72.4198
G01 X31.9880 Y72.4372
G01 X31.9779 Y72.4540
G01 X31.9613 Y72.4783
G01 X31.9492 Y72.4938
G01 X31.9297 Y72.5158
G01 X31.9158 Y72.5297
G01 X31.9013 Y72.5429
G01 X31.8783 Y72.5613
G01 X31.8622 Y72.5726
G01 X31.8456 Y72.5831
G01 X31.8198 Y72.5973
G01 X31.7931 Y72.6096
G01 X31.7655 Y72.6198
G01 X31.7467 Y72.6255
G01 X31.7276 Y72.6303
G01 X31.6987 Y72.6357
G01 X31.6792 Y72.6381
G01 X31.6498 Y72.6399
G01 X28.1302 Y72.6399
G01 X28.1008 Y72.6381
G01 X28.0813 Y72.6357
G01 X28.0524 Y72.6303
G01 X28.0333 Y72.6255
G01 X28.0145 Y72.6198
G01 X27.9869 Y72.6096
G01 X27.9690 Y72.6016
G01 X27.9428 Y72.5880
G01 X27.9178 Y72.5726
G01 X27.8939 Y72.5553
G01 X27.8714 Y72.5364
G01 X27.8572 Y72.5228
G01 X27.8436 Y72.5086
G01 X27.8247 Y72.4861
G01 X27.8074 Y72.4622
G01 X27.7969 Y72.4456
G01 X27.7827 Y72.4198
G01 X27.7743 Y72.4021
G01 X27.7634 Y72.3748
G01 X27.7572 Y72.3561
G01 X27.7497 Y72.3276
G01 X27.7443 Y72.2987
G01 X27.7419 Y72.2792
G01 X27.7401 Y72.2498
G01 X27.7400 Y70.5400
G01 X27.7405 Y70.5204
G01 X27.7419 Y70.5008
G01 X27.7459 Y70.4716
G01 X27.7497 Y70.4524
G01 X27.7572 Y70.4239
G01 X27.7668 Y70.3960
G01 X27.7743 Y70.3779
G01 X27.7872 Y70.3514
G01 X27.7969 Y70.3344
G01 X27.8074 Y70.3178
G01 X27.8247 Y70.2939
G01 X27.8371 Y70.2787
G01 X27.8572 Y70.2572
G01 X27.8714 Y70.2436
G01 X27.8939 Y70.2247
G01 X27.9097 Y70.2130
G01 X27.9344 Y70.1969
G01 X27.9602 Y70.1827
G01 X27.9869 Y70.1704
G01 X28.0145 Y70.1602
G01 X28.0333 Y70.1545
G01 X28.0524 Y70.1497
G01 X28.0813 Y70.1443
G01 X28.1106 Y70.1411
G01 X28.1302 Y70.1401
G01 X31.6400 Y70.1400
G00 Z2.0000
G00 X31.6400 Y67.6000
G01 F60.00
G01 Z-0.1100
G01 F120.00
G01 X31.6596 Y67.6005
G01 X31.6792 Y67.6019
G01 X31.7084 Y67.6059
G01 X31.7276 Y67.6097
G01 X31.7467 Y67.6145
G01 X31.7655 Y67.6202
G01 X31.7840 Y67.6268
G01 X31.8021 Y67.6343
G01 X31.8198 Y67.6427
G01 X31.8372 Y67.6520
G01 X31.8540 Y67.6621
G01 X31.8703 Y67.6730
G01 X31.8861 Y67.6847
G01 X31.9013 Y67.6971
G01 X31.9158 Y67.7103
G01 X31.9364 Y67.7314
G01 X31.9492 Y67.7462
G01 X31.9613 Y67.7617
G01 X31.9726 Y67.7778
G01 X31.9831 Y67.7944
G01 X31.9928 Y67.8114
G01 X32.0016 Y67.8290
G01 X32.0096 Y67.8469
G01 X32.0166 Y67.8652
G01 X32.0228 Y67.8839
G01 X32.0280 Y67.9028
G01 X32.0341 Y67.9316
G01 X32.0370 Y67.9510
G01 X32.0389 Y67.9706
G01 X32.0400 Y68.0000
G01 X32.0400 Y69.7000
G01 X32.0395 Y69.7196
G01 X32.0381 Y69.7392
G01 X32.0357 Y69.7587
G01 X32.0303 Y69.7876
G01 X32.0255 Y69.8067
G01 X32.0166 Y69.8348
G01 X32.0057 Y69.8621
G01 X31.9973 Y69.8798
G01 X31.9880 Y69.8972
G01 X31.9779 Y69.9140
G01 X31.9613 Y69.9383
G01 X31.9492 Y69.9538
G01 X31.9297 Y69.9758
G01 X31.9158 Y69.9897
G01 X31.9013 Y70.0029
G01 X31.8783 Y70.0213
G01 X31.8622 Y70.0326
G01 X31.8456 Y70.0431
G01 X31.8198 Y70.0573
G01 X31.7931 Y70.0696
G01 X31.7655 Y70.0798
G01 X31.7467 Y70.0855
G01 X31.7276 Y70.0903
G01 X31.6987 Y70.0957
G01 X31.6792 Y70.0981
G01 X31.6498 Y70.0999
G01 X28.1302 Y70.0999
G01 X28.1008 Y70.0981
G01 X28.0813 Y70.0957
G01 X28.0524 Y70.0903
G01 X28.0333 Y70.0855
G01 X28.0145 Y70.0798
G01 X27.9869 Y70.0696
G01 X27.9690 Y70.0616
G01 X27.9428 Y70.0480
G01 X27.9178 Y70.0326
G01 X27.8939 Y70.0153
G01 X27.8714 Y69.9964
G01 X27.8572 Y69.9828
G01 X27.8436 Y69.9686
G01 X27.8247 Y69.9461
G01 X27.8074 Y69.9222
G01 X27.7969 Y69.9056
G01 X27.7827 Y69.8798
G01 X27.7743 Y69.8621
G01 X27.7634 Y69.8348
G01 X27.7572 Y69.8161
G01 X27.7497 Y69.7876
G01 X27.7443 Y69.7587
G01 X27.7419 Y69.7392
G01 X27.7401 Y69.7098
G01 X27.7400 Y68.0000
G01 X27.7405 Y67.9804
G01 X27.7419 Y67.9608
G01 X27.7459 Y67.9316
G01 X27.7497 Y67.9124
G01 X27.7572 Y67.8839
G01 X27.7668 Y67.8560
G01 X27.7743 Y67.8379
G01 X27.7872 Y67.8114
G01 X27.7969 Y67.7944
G01 X27.8074 Y67.7778
G01 X27.8247 Y67.7539
G01 X27.8371 Y67.7387
G01 X27.8572 Y67.7172
G01 X27.8714 Y67.7036
G01 X27.8939 Y67.6847
G01 X27.9097 Y67.6730
G01 X27.9344 Y67.6569
G01 X27.9602 Y67.6427
G01 X27.9869 Y67.6304
G01 X28.0145 Y67.6202
G01 X28.0333 Y67.6145
G01 X28.0524 Y67.6097
G01 X28.0813 Y67.6043
G01 X28.1106 Y67.6011
G01 X28.1302 Y67.6001
G01 X31.6400 Y67.6000
G00 Z2.0000
G00 X31.6400 Y54.9000
G01 F60.00
G01 Z-0.1100
G01 F120.00
G01 X31.6596 Y54.9005
G01 X31.6792 Y54.9019
G01 X31.6987 Y54.9043
G01 X31.7180 Y54.9077
G01 X31.7372 Y54.9120
G01 X31.7561 Y54.9172
G01 X31.7748 Y54.9234
G01 X31.7931 Y54.9304
G01 X31.8110 Y54.9384
G01 X31.8286 Y54.9472
G01 X31.8456 Y54.9569
G01 X31.8622 Y54.9674
G01 X31.8861 Y54.9847
G01 X31.9013 Y54.9971
G01 X31.9158 Y55.0103
G01 X31.9297 Y55.0242
G01 X31.9429 Y55.0387
G01 X31.9553 Y55.0539
G01 X31.9670 Y55.0697
G01 X31.9831 Y55.0944
G01 X31.9928 Y55.1114
G01 X32.0016 Y55.1290
G01 X32.0096 Y55.1469
G01 X32.0166 Y55.1652
G01 X32.0228 Y55.1839
G01 X32.0280 Y55.2028
G01 X32.0341 Y55.2316
G01 X32.0370 Y55.2510
G01 X32.0389 Y55.2706
G01 X32.0400 Y55.3000
G01 X32.0400 Y57.0000
G01 X32.0395 Y57.0196
G01 X32.0381 Y57.0392
G01 X32.0357 Y57.0587
G01 X32.0303 Y57.0876
G01 X32.0255 Y57.1067
G01 X32.0166 Y57.1348
G01 X32.0096 Y57.1531
G01 X31.9973 Y57.1798
G01 X31.9880 Y57.1972
G01 X31.9779 Y57.2140
G01 X31.9670 Y57.2303
G01 X31.9492 Y57.2538
G01 X31.9364 Y57.2686
G01 X31.9158 Y57.2897
G01 X31.8938 Y57.3092
G01 X31.8783 Y57.3213
G01 X31.8622 Y57.3326
G01 X31.8456 Y57.3431
G01 X31.8286 Y57.3528
G01 X31.8021 Y57.3657
G01 X31.7840 Y57.3732
G01 X31.7561 Y57.3828
G01 X31.7276 Y57.3903
G01 X31.7084 Y57.3941
G01 X31.6792 Y57.3981
G01 X31.6498 Y57.3999
G01 X28.1302 Y57.3999
G01 X28.1008 Y57.3981
G01 X28.0813 Y57.3957
G01 X28.0620 Y57.3923
G01 X28.0333 Y57.3855
G01 X28.0052 Y57.3766
G01 X27.9869 Y57.3696
G01 X27.9602 Y57.3573
G01 X27.9428 Y57.3480
G01 X27.9178 Y57.3326
G01 X27.8939 Y57.3153
G01 X27.8714 Y57.2964
G01 X27.8572 Y57.2828
G01 X27.8436 Y57.2686
G01 X27.8247 Y57.2461
G01 X27.8074 Y57.2222
G01 X27.7969 Y57.2056
G01 X27.7827 Y57.1798
G01 X27.7743 Y57.1621
G01 X27.7634 Y57.1348
G01 X27.7545 Y57.1067
G01 X27.7477 Y57.0780
G01 X27.7443 Y57.0587
G01 X27.7411 Y57.0294
G01 X27.7401 Y57.0098
G01 X27.7400 Y55.3000
G01 X27.7405 Y55.2804
G01 X27.7430 Y55.2510
G01 X27.7459 Y55.2316
G01 X27.7520 Y55.2028
G01 X27.7572 Y55.1839
G01 X27.7634 Y55.1652
G01 X27.7743 Y55.1379
G01 X27.7872 Y55.1114
G01 X27.7969 Y55.0944
G01 X27.8130 Y55.0697
G01 X27.8247 Y55.0539
G01 X27.8371 Y55.0387
G01 X27.8572 Y55.0172
G01 X27.8787 Y54.9971
G01 X27.8939 Y54.9847
G01 X27.9097 Y54.9730
G01 X27.9344 Y54.9569
G01 X27.9602 Y54.9427
G01 X27.9869 Y54.9304
G01 X28.0052 Y54.9234
G01 X28.0333 Y54.9145
G01 X28.0524 Y54.9097
G01 X28.0813 Y54.9043
G01 X28.1008 Y54.9019
G01 X28.1302 Y54.9001
G01 X31.6400 Y54.9000
G00 Z2.0000
G00 X31.6400 Y52.3600
G01 F60.00
G01 Z-0.1100
G01 F120.00
G01 X31.6596 Y52.3605
G01 X31.6792 Y52.3619
G01 X31.6987 Y52.3643
G01 X31.7180 Y52.3677
G01 X31.7372 Y52.3720
G01 X31.7561 Y52.3772
G01 X31.7748 Y52.3834
G01 X31.7931 Y52.3904
G01 X31.8110 Y52.3984
G01 X31.8286 Y52.4072
G01 X31.8456 Y52.4169
G01 X31.8622 Y52.4274
G01 X31.8861 Y52.4447
G01 X31.9013 Y52.4571
G01 X31.9158 Y52.4703
G01 X31.9297 Y52.4842
G01 X31.9429 Y52.4987
G01 X31.9553 Y52.5139
G01 X31.9670 Y52.5297
G01 X31.9831 Y52.5544
G01 X31.9928 Y52.5714
G01 X32.0016 Y52.5890
G01 X32.0096 Y52.6069
G01 X32.0166 Y52.6252
G01 X32.0228 Y52.6439
G01 X32.0280 Y52.6628
G01 X32.0341 Y52.6916
G01 X32.0370 Y52.7110
G01 X32.0389 Y52.7306
G01 X32.0400 Y52.7600
G01 X32.0400 Y54.4600
G01 X32.0395 Y54.4796
G01 X32.0381 Y54.4992
G01 X32.0357 Y54.5187
G01 X32.0303 Y54.5476
G01 X32.0255 Y54.5667
G01 X32.0166 Y54.5948
G01 X32.0096 Y54.6131
G01 X31.9973 Y54.6398
G01 X31.9880 Y54.6572
G01 X31.9779 Y54.6740
G01 X31.9670 Y54.6903
G01 X31.9492 Y54.7138
