(G-CODE GENERATED BY FLATCAM v8.994 - www.flatcam.org - Version Date: 2020/11/7)

(Name: picoprobe.drl_cnc)
(Type: G-code from Geometry)
(Units: MM)

(Created on Monday, 18 July 2022 at 11:17)

(This preprocessor is the default preprocessor used by FlatCAM.)
(It is made to work with MACH3 compatible motion controllers.)


(TOOLS DIAMETER: )
(Tool: 1 -> Dia: 1.0)
(Tool: 2 -> Dia: 1.02)

(FEEDRATE Z: )
(Tool: 1 -> Feedrate: 200.0)
(Tool: 2 -> Feedrate: 200.0)

(FEEDRATE RAPIDS: )
(Tool: 1 -> Feedrate Rapids: 1500)
(Tool: 2 -> Feedrate Rapids: 1500)

(Z_CUT: )
(Tool: 1 -> Z_Cut: -1.8)
(Tool: 2 -> Z_Cut: -1.8)

(Tools Offset: )
(Tool: 1 -> Offset Z: 0.0)
(Tool: 2 -> Offset Z: 0.0)

(Z_MOVE: )
(Tool: 1 -> Z_Move: 2)
(Tool: 2 -> Z_Move: 2)

(Z Toolchange: 5.0 mm)
(X,Y Toolchange: 0.0000, 0.0000 mm)
(Z Start: None mm)
(Z End: 10.0 mm)
(X,Y End: 0.0000, 0.0000 mm)
(Steps per circle: 64)
(Preprocessor Excellon: default)

(X range:   10.7000 ...   29.5000  mm)
(Y range:   11.0000 ...   74.4400  mm)

(Spindle Speed: 1000 RPM)
G21
G90
G94

G01 F200.00

M5
G00 Z5.0000
T1
G00 X0.0000 Y0.0000                
M6
(MSG, Change to Tool Dia = 1.0000 ||| Total drills for tool T1 = 46)
M0
G00 Z5.0000

G01 F200.00
M03 S1000
G4 P1
G00 X23.3000 Y14.0400
G01 Z-1.8000
G01 Z0
G00 Z2.0000
G00 X28.9900 Y25.6700
G01 Z-1.8000
G01 Z0
G00 Z2.0000
G00 X28.9900 Y28.2100
G01 Z-1.8000
G01 Z0
G00 Z2.0000
G00 X28.9900 Y30.7500
G01 Z-1.8000
G01 Z0
G00 Z2.0000
G00 X28.9900 Y33.2900
G01 Z-1.8000
G01 Z0
G00 Z2.0000
G00 X28.9900 Y35.8300
G01 Z-1.8000
G01 Z0
G00 Z2.0000
G00 X28.9900 Y38.3700
G01 Z-1.8000
G01 Z0
G00 Z2.0000
G00 X28.9900 Y40.9100
G01 Z-1.8000
G01 Z0
G00 Z2.0000
G00 X28.9900 Y43.4500
G01 Z-1.8000
G01 Z0
G00 Z2.0000
G00 X28.9900 Y45.9900
G01 Z-1.8000
G01 Z0
G00 Z2.0000
G00 X28.9900 Y48.5300
G01 Z-1.8000
G01 Z0
G00 Z2.0000
G00 X28.9900 Y51.0700
G01 Z-1.8000
G01 Z0
G00 Z2.0000
G00 X28.9900 Y53.6100
G01 Z-1.8000
G01 Z0
G00 Z2.0000
G00 X28.9900 Y56.1500
G01 Z-1.8000
G01 Z0
G00 Z2.0000
G00 X28.9900 Y58.6900
G01 Z-1.8000
G01 Z0
G00 Z2.0000
G00 X28.9900 Y61.2300
G01 Z-1.8000
G01 Z0
G00 Z2.0000
G00 X28.9900 Y63.7700
G01 Z-1.8000
G01 Z0
G00 Z2.0000
G00 X28.9900 Y66.3100
G01 Z-1.8000
G01 Z0
G00 Z2.0000
G00 X28.9900 Y68.8500
G01 Z-1.8000
G01 Z0
G00 Z2.0000
G00 X28.9900 Y71.3900
G01 Z-1.8000
G01 Z0
G00 Z2.0000
G00 X28.9900 Y73.9300
G01 Z-1.8000
G01 Z0
G00 Z2.0000
G00 X11.2100 Y73.9300
G01 Z-1.8000
G01 Z0
G00 Z2.0000
G00 X11.2100 Y71.3900
G01 Z-1.8000
G01 Z0
G00 Z2.0000
G00 X11.2100 Y68.8500
G01 Z-1.8000
G01 Z0
G00 Z2.0000
G00 X11.2100 Y66.3100
G01 Z-1.8000
G01 Z0
G00 Z2.0000
G00 X11.2100 Y63.7700
G01 Z-1.8000
G01 Z0
G00 Z2.0000
G00 X11.2100 Y61.2300
G01 Z-1.8000
G01 Z0
G00 Z2.0000
G00 X11.2100 Y58.6900
G01 Z-1.8000
G01 Z0
G00 Z2.0000
G00 X11.2100 Y56.1500
G01 Z-1.8000
G01 Z0
G00 Z2.0000
G00 X11.2100 Y53.6100
G01 Z-1.8000
G01 Z0
G00 Z2.0000
G00 X11.2100 Y51.0700
G01 Z-1.8000
G01 Z0
G00 Z2.0000
G00 X11.2100 Y48.5300
G01 Z-1.8000
G01 Z0
G00 Z2.0000
G00 X11.2100 Y45.9900
G01 Z-1.8000
G01 Z0
G00 Z2.0000
G00 X11.2100 Y43.4500
G01 Z-1.8000
G01 Z0
G00 Z2.0000
G00 X11.2100 Y40.9100
G01 Z-1.8000
G01 Z0
G00 Z2.0000
G00 X11.2100 Y38.3700
G01 Z-1.8000
G01 Z0
G00 Z2.0000
G00 X11.2100 Y35.8300
G01 Z-1.8000
G01 Z0
G00 Z2.0000
G00 X11.2100 Y33.2900
G01 Z-1.8000
G01 Z0
G00 Z2.0000
G00 X11.2100 Y30.7500
G01 Z-1.8000
G01 Z0
G00 Z2.0000
G00 X11.2100 Y28.2100
G01 Z-1.8000
G01 Z0
G00 Z2.0000
G00 X11.2100 Y25.6700
G01 Z-1.8000
G01 Z0
G00 Z2.0000
G00 X18.2200 Y14.0400
G01 Z-1.8000
G01 Z0
G00 Z2.0000
G00 X18.2200 Y11.5000
G01 Z-1.8000
G01 Z0
G00 Z2.0000
G00 X20.7600 Y11.5000
G01 Z-1.8000
G01 Z0
G00 Z2.0000
G00 X23.3000 Y11.5000
G01 Z-1.8000
G01 Z0
G00 Z2.0000
G00 X20.7600 Y14.0400
G01 Z-1.8000
G01 Z0
G00 Z2.0000
M05
G00 Z10.00
G00 X0.0 Y0.0


