(G-CODE GENERATED BY FLATCAM v8.994 - www.flatcam.org - Version Date: 2020/11/7)

(Name: picoprobe-F_Cu.gbr_cutout_cnc)
(Type: G-code from Geometry)
(Units: MM)

(Created on Monday, 18 July 2022 at 11:23)

(This preprocessor is the default preprocessor used by FlatCAM.)
(It is made to work with MACH3 compatible motion controllers.)

(TOOL DIAMETER: 1.2 mm)
(Feedrate_XY: 100.0 mm/min)
(Feedrate_Z: 60.0 mm/min)
(Feedrate rapids 1500.0 mm/min)

(Z_Cut: -1.5 mm)
(DepthPerCut: 0.5 mm <=>3 passes)
(Z_Move: 2.0 mm)
(Z Start: None mm)
(Z End: 10.0 mm)
(X,Y End: 0.0000, 0.0000 mm)
(Steps per circle: 64)
(Preprocessor Geometry: Default_no_M6)

(X range:    3.9600 ...   36.2400  mm)
(Y range:    3.2499 ...   79.3800  mm)

(Spindle Speed: 1000.0 RPM)
G21
G90
G94

G01 F100.00

M5
G00 Z15.0000
G00 X0.0000 Y0.0000
T1
(MSG, Change to Tool Dia = 1.2000)
M0
G00 Z15.0000
        
M03 S1000.0
G4 P1.0
G01 F100.00
G00 X31.6400 Y3.2499
G01 F60.00
G01 Z-0.5000
G01 F100.00
G01 X8.5600 Y3.2499
G01 X8.1091 Y3.2720
G01 X7.6626 Y3.3383
G01 X7.2247 Y3.4479
G01 X6.7997 Y3.6000
G01 X6.3916 Y3.7930
G01 X6.0044 Y4.0251
G01 X5.6418 Y4.2940
G01 X5.3073 Y4.5972
G01 X5.0042 Y4.9317
G01 X4.7352 Y5.2943
G01 X4.5032 Y5.6815
G01 X4.3102 Y6.0895
G01 X4.1581 Y6.5146
G01 X4.0484 Y6.9525
G01 X3.9822 Y7.3990
G01 X3.9600 Y7.8499
G01 X3.9600 Y74.7800
G01 X3.9822 Y75.2309
G01 X4.0484 Y75.6774
G01 X4.1581 Y76.1153
G01 X4.3102 Y76.5403
G01 X4.5032 Y76.9484
G01 X4.7352 Y77.3356
G01 X5.0042 Y77.6982
G01 X5.3073 Y78.0327
G01 X5.6418 Y78.3358
G01 X6.0044 Y78.6048
G01 X6.3916 Y78.8368
G01 X6.7997 Y79.0298
G01 X7.2247 Y79.1819
G01 X7.6626 Y79.2916
G01 X8.1091 Y79.3578
G01 X8.5600 Y79.3800
G01 X31.6400 Y79.3800
G01 X32.0909 Y79.3578
G01 X32.5374 Y79.2916
G01 X32.9753 Y79.1819
G01 X33.4003 Y79.0298
G01 X33.8084 Y78.8368
G01 X34.1956 Y78.6048
G01 X34.5582 Y78.3358
G01 X34.8927 Y78.0327
G01 X35.1958 Y77.6982
G01 X35.4648 Y77.3356
G01 X35.6968 Y76.9484
G01 X35.8898 Y76.5403
G01 X36.0419 Y76.1153
G01 X36.1516 Y75.6774
G01 X36.2178 Y75.2309
G01 X36.2400 Y74.7800
G01 X36.2400 Y7.8499
G01 X36.2178 Y7.3990
G01 X36.1516 Y6.9525
G01 X36.0419 Y6.5146
G01 X35.8898 Y6.0895
G01 X35.6968 Y5.6815
G01 X35.4648 Y5.2943
G01 X35.1958 Y4.9317
G01 X34.8927 Y4.5972
G01 X34.5582 Y4.2940
G01 X34.1956 Y4.0251
G01 X33.8084 Y3.7930
G01 X33.4003 Y3.6000
G01 X32.9753 Y3.4479
G01 X32.5374 Y3.3383
G01 X32.0909 Y3.2720
G01 X31.6400 Y3.2499
G00 X31.6400 Y3.2499
G01 F60.00
G01 Z-1.0000
G01 F100.00
G01 X32.0909 Y3.2720
G01 X32.5374 Y3.3383
G01 X32.9753 Y3.4479
G01 X33.4003 Y3.6000
G01 X33.8084 Y3.7930
G01 X34.1956 Y4.0251
G01 X34.5582 Y4.2940
G01 X34.8927 Y4.5972
G01 X35.1958 Y4.9317
G01 X35.4648 Y5.2943
G01 X35.6968 Y5.6815
G01 X35.8898 Y6.0895
G01 X36.0419 Y6.5146
G01 X36.1516 Y6.9525
G01 X36.2178 Y7.3990
G01 X36.2400 Y7.8499
G01 X36.2400 Y74.7800
G01 X36.2178 Y75.2309
G01 X36.1516 Y75.6774
G01 X36.0419 Y76.1153
G01 X35.8898 Y76.5403
G01 X35.6968 Y76.9484
G01 X35.4648 Y77.3356
G01 X35.1958 Y77.6982
G01 X34.8927 Y78.0327
G01 X34.5582 Y78.3358
G01 X34.1956 Y78.6048
G01 X33.8084 Y78.8368
G01 X33.4003 Y79.0298
G01 X32.9753 Y79.1819
G01 X32.5374 Y79.2916
G01 X32.0909 Y79.3578
G01 X31.6400 Y79.3800
G01 X8.5600 Y79.3800
G01 X8.1091 Y79.3578
G01 X7.6626 Y79.2916
G01 X7.2247 Y79.1819
G01 X6.7997 Y79.0298
G01 X6.3916 Y78.8368
G01 X6.0044 Y78.6048
G01 X5.6418 Y78.3358
G01 X5.3073 Y78.0327
G01 X5.0042 Y77.6982
G01 X4.7352 Y77.3356
G01 X4.5032 Y76.9484
G01 X4.3102 Y76.5403
G01 X4.1581 Y76.1153
G01 X4.0484 Y75.6774
G01 X3.9822 Y75.2309
G01 X3.9600 Y74.7800
G01 X3.9600 Y7.8499
G01 X3.9822 Y7.3990
G01 X4.0484 Y6.9525
G01 X4.1581 Y6.5146
G01 X4.3102 Y6.0895
G01 X4.5032 Y5.6815
G01 X4.7352 Y5.2943
G01 X5.0042 Y4.9317
G01 X5.3073 Y4.5972
G01 X5.6418 Y4.2940
G01 X6.0044 Y4.0251
G01 X6.3916 Y3.7930
G01 X6.7997 Y3.6000
G01 X7.2247 Y3.4479
G01 X7.6626 Y3.3383
G01 X8.1091 Y3.2720
G01 X8.5600 Y3.2499
G01 X31.6400 Y3.2499
G00 X31.6400 Y3.2499
G01 F60.00
G01 Z-1.5000
G01 F100.00
G01 X8.5600 Y3.2499
G01 X8.1091 Y3.2720
G01 X7.6626 Y3.3383
G01 X7.2247 Y3.4479
G01 X6.7997 Y3.6000
G01 X6.3916 Y3.7930
G01 X6.0044 Y4.0251
G01 X5.6418 Y4.2940
G01 X5.3073 Y4.5972
G01 X5.0042 Y4.9317
G01 X4.7352 Y5.2943
G01 X4.5032 Y5.6815
G01 X4.3102 Y6.0895
G01 X4.1581 Y6.5146
G01 X4.0484 Y6.9525
G01 X3.9822 Y7.3990
G01 X3.9600 Y7.8499
G01 X3.9600 Y74.7800
G01 X3.9822 Y75.2309
G01 X4.0484 Y75.6774
G01 X4.1581 Y76.1153
G01 X4.3102 Y76.5403
G01 X4.5032 Y76.9484
G01 X4.7352 Y77.3356
G01 X5.0042 Y77.6982
G01 X5.3073 Y78.0327
G01 X5.6418 Y78.3358
G01 X6.0044 Y78.6048
G01 X6.3916 Y78.8368
G01 X6.7997 Y79.0298
G01 X7.2247 Y79.1819
G01 X7.6626 Y79.2916
G01 X8.1091 Y79.3578
G01 X8.5600 Y79.3800
G01 X31.6400 Y79.3800
G01 X32.0909 Y79.3578
G01 X32.5374 Y79.2916
G01 X32.9753 Y79.1819
G01 X33.4003 Y79.0298
G01 X33.8084 Y78.8368
G01 X34.1956 Y78.6048
G01 X34.5582 Y78.3358
G01 X34.8927 Y78.0327
G01 X35.1958 Y77.6982
G01 X35.4648 Y77.3356
G01 X35.6968 Y76.9484
G01 X35.8898 Y76.5403
G01 X36.0419 Y76.1153
G01 X36.1516 Y75.6774
G01 X36.2178 Y75.2309
G01 X36.2400 Y74.7800
G01 X36.2400 Y7.8499
G01 X36.2178 Y7.3990
G01 X36.1516 Y6.9525
G01 X36.0419 Y6.5146
G01 X35.8898 Y6.0895
G01 X35.6968 Y5.6815
G01 X35.4648 Y5.2943
G01 X35.1958 Y4.9317
G01 X34.8927 Y4.5972
G01 X34.5582 Y4.2940
G01 X34.1956 Y4.0251
G01 X33.8084 Y3.7930
G01 X33.4003 Y3.6000
G01 X32.9753 Y3.4479
G01 X32.5374 Y3.3383
G01 X32.0909 Y3.2720
G01 X31.6400 Y3.2499
G00 Z2.0000
M05
G00 Z2.0000
G00 Z10.00
G00 X0.0 Y0.0


