(G-CODE GENERATED BY FLATCAM v8.994 - www.flatcam.org - Version Date: 2020/11/7)

(Name: picoprobeTarget-F_Cu.gbr_iso_combined_cnc)
(Type: G-code from Geometry)
(Units: MM)

(Created on Friday, 22 July 2022 at 19:13)

(This preprocessor is the default preprocessor used by FlatCAM.)
(It is made to work with MACH3 compatible motion controllers.)

(TOOL DIAMETER: 0.8 mm)
(Feedrate_XY: 100.0 mm/min)
(Feedrate_Z: 60.0 mm/min)
(Feedrate rapids 1500.0 mm/min)

(Z_Cut: -0.11 mm)
(Z_Move: 2.0 mm)
(Z Start: None mm)
(Z End: 10.0 mm)
(X,Y End: 0.0000, 0.0000 mm)
(Steps per circle: 64)
(Preprocessor Geometry: Default_no_M6)

(X range:    3.9676 ...   51.0125  mm)
(Y range:    3.9750 ...   87.5501  mm)

(Spindle Speed: 1000.0 RPM)
G21
G90
G94

G01 F100.00

M5
G00 Z15.0000
G00 X0.0000 Y0.0000
T1
(MSG, Change to Tool Dia = 0.8000)
M0
G00 Z15.0000
        
M03 S1000.0
G4 P1.0
G01 F100.00
G00 X17.5051 Y17.3850
G01 F60.00
G01 Z-0.1100
G01 F100.00
G01 X14.0051 Y17.3850
G01 X13.9757 Y17.3861
G01 X13.9465 Y17.3893
G01 X13.9175 Y17.3947
G01 X13.8985 Y17.3995
G01 X13.8797 Y17.4052
G01 X13.8612 Y17.4118
G01 X13.8431 Y17.4193
G01 X13.8253 Y17.4277
G01 X13.7995 Y17.4419
G01 X13.7829 Y17.4524
G01 X13.7669 Y17.4637
G01 X13.7514 Y17.4758
G01 X13.7293 Y17.4953
G01 X13.7155 Y17.5092
G01 X13.6959 Y17.5312
G01 X13.6839 Y17.5467
G01 X13.6726 Y17.5628
G01 X13.6571 Y17.5878
G01 X13.6479 Y17.6052
G01 X13.6395 Y17.6229
G01 X13.6320 Y17.6410
G01 X13.6253 Y17.6595
G01 X13.6196 Y17.6783
G01 X13.6149 Y17.6974
G01 X13.6110 Y17.7166
G01 X13.6082 Y17.7360
G01 X13.6062 Y17.7556
G01 X13.6051 Y17.7850
G01 X13.6051 Y17.9849
G01 X7.4676 Y17.9849
G01 X7.4675 Y17.8402
G01 X7.4657 Y17.8108
G01 X7.4618 Y17.7816
G01 X7.4579 Y17.7624
G01 X7.4532 Y17.7433
G01 X7.4475 Y17.7245
G01 X7.4408 Y17.7060
G01 X7.4333 Y17.6879
G01 X7.4249 Y17.6702
G01 X7.4157 Y17.6528
G01 X7.4056 Y17.6360
G01 X7.3947 Y17.6197
G01 X7.3830 Y17.6039
G01 X7.3640 Y17.5814
G01 X7.3505 Y17.5672
G01 X7.3363 Y17.5536
G01 X7.3214 Y17.5408
G01 X7.3059 Y17.5287
G01 X7.2899 Y17.5174
G01 X7.2733 Y17.5069
G01 X7.2562 Y17.4972
G01 X7.2387 Y17.4884
G01 X7.2207 Y17.4804
G01 X7.2024 Y17.4734
G01 X7.1838 Y17.4672
G01 X7.1648 Y17.4620
G01 X7.1360 Y17.4559
G01 X7.1069 Y17.4519
G01 X7.0873 Y17.4505
G01 X7.0676 Y17.4500
G01 X4.3676 Y17.4500
G01 X4.3480 Y17.4505
G01 X4.3284 Y17.4519
G01 X4.2993 Y17.4559
G01 X4.2705 Y17.4620
G01 X4.2422 Y17.4702
G01 X4.2146 Y17.4804
G01 X4.1878 Y17.4927
G01 X4.1705 Y17.5020
G01 X4.1536 Y17.5121
G01 X4.1294 Y17.5287
G01 X4.1064 Y17.5471
G01 X4.0848 Y17.5672
G01 X4.0648 Y17.5887
G01 X4.0523 Y17.6039
G01 X4.0406 Y17.6197
G01 X4.0246 Y17.6444
G01 X4.0104 Y17.6702
G01 X3.9981 Y17.6969
G01 X3.9878 Y17.7245
G01 X3.9821 Y17.7433
G01 X3.9774 Y17.7624
G01 X3.9720 Y17.7913
G01 X3.9687 Y17.8206
G01 X3.9676 Y17.8500
G01 X3.9676 Y19.5500
G01 X3.9687 Y19.5794
G01 X3.9707 Y19.5990
G01 X3.9735 Y19.6184
G01 X3.9796 Y19.6472
G01 X3.9878 Y19.6755
G01 X3.9945 Y19.6940
G01 X4.0020 Y19.7121
G01 X4.0149 Y19.7386
G01 X4.0297 Y19.7640
G01 X4.0406 Y19.7803
G01 X4.0523 Y19.7961
G01 X4.0648 Y19.8113
G01 X4.0780 Y19.8258
G01 X4.0990 Y19.8464
G01 X4.1216 Y19.8653
G01 X4.1373 Y19.8770
G01 X4.1537 Y19.8879
G01 X4.1791 Y19.9028
G01 X4.2056 Y19.9157
G01 X4.2329 Y19.9266
G01 X4.2515 Y19.9328
G01 X4.2705 Y19.9380
G01 X4.2993 Y19.9441
G01 X4.3284 Y19.9481
G01 X4.3480 Y19.9495
G01 X4.3676 Y19.9500
G01 X7.0775 Y19.9499
G01 X7.1069 Y19.9481
G01 X7.1263 Y19.9457
G01 X7.1553 Y19.9403
G01 X7.1743 Y19.9355
G01 X7.1931 Y19.9298
G01 X7.2207 Y19.9196
G01 X7.2475 Y19.9073
G01 X7.2733 Y19.8931
G01 X7.2980 Y19.8770
G01 X7.3137 Y19.8653
G01 X7.3363 Y19.8464
G01 X7.3505 Y19.8328
G01 X7.3705 Y19.8113
G01 X7.3830 Y19.7961
G01 X7.4002 Y19.7722
G01 X7.4107 Y19.7556
G01 X7.4204 Y19.7386
G01 X7.4333 Y19.7121
G01 X7.4408 Y19.6940
G01 X7.4475 Y19.6755
G01 X7.4532 Y19.6567
G01 X7.4579 Y19.6376
G01 X7.4618 Y19.6184
G01 X7.4646 Y19.5990
G01 X7.4666 Y19.5794
G01 X7.4676 Y19.5500
G01 X7.4676 Y19.2851
G01 X13.6051 Y19.2851
G01 X13.6051 Y19.4850
G01 X13.6062 Y19.5144
G01 X13.6082 Y19.5340
G01 X13.6110 Y19.5534
G01 X13.6149 Y19.5726
G01 X13.6196 Y19.5917
G01 X13.6253 Y19.6105
G01 X13.6320 Y19.6290
G01 X13.6395 Y19.6471
G01 X13.6479 Y19.6648
G01 X13.6571 Y19.6822
G01 X13.6672 Y19.6990
G01 X13.6839 Y19.7233
G01 X13.6959 Y19.7388
G01 X13.7088 Y19.7536
G01 X13.7223 Y19.7678
G01 X13.7365 Y19.7814
G01 X13.7514 Y19.7942
G01 X13.7748 Y19.8120
G01 X13.7912 Y19.8229
G01 X13.8080 Y19.8330
G01 X13.8253 Y19.8423
G01 X13.8521 Y19.8546
G01 X13.8797 Y19.8648
G01 X13.8985 Y19.8705
G01 X13.9175 Y19.8753
G01 X13.9465 Y19.8807
G01 X13.9757 Y19.8839
G01 X14.0051 Y19.8850
G01 X17.5051 Y19.8850
G01 X17.5248 Y19.8845
G01 X17.5444 Y19.8831
G01 X17.5735 Y19.8791
G01 X17.6023 Y19.8730
G01 X17.6306 Y19.8648
G01 X17.6491 Y19.8582
G01 X17.6672 Y19.8507
G01 X17.6937 Y19.8378
G01 X17.7191 Y19.8229
G01 X17.7434 Y19.8063
G01 X17.7664 Y19.7879
G01 X17.7810 Y19.7747
G01 X17.7948 Y19.7608
G01 X17.8080 Y19.7463
G01 X17.8205 Y19.7311
G01 X17.8377 Y19.7072
G01 X17.8532 Y19.6822
G01 X17.8667 Y19.6560
G01 X17.8783 Y19.6290
G01 X17.8879 Y19.6011
G01 X17.8954 Y19.5726
G01 X17.9008 Y19.5437
G01 X17.9041 Y19.5144
G01 X17.9051 Y19.4850
G01 X17.9050 Y17.7752
G01 X17.9041 Y17.7556
G01 X17.9021 Y17.7360
G01 X17.8993 Y17.7166
G01 X17.8954 Y17.6974
G01 X17.8907 Y17.6783
G01 X17.8850 Y17.6595
G01 X17.8783 Y17.6410
G01 X17.8708 Y17.6229
G01 X17.8624 Y17.6052
G01 X17.8532 Y17.5878
G01 X17.8431 Y17.5710
G01 X17.8322 Y17.5547
G01 X17.8205 Y17.5389
G01 X17.8080 Y17.5237
G01 X17.7948 Y17.5092
G01 X17.7810 Y17.4953
G01 X17.7664 Y17.4821
G01 X17.7512 Y17.4697
G01 X17.7355 Y17.4580
G01 X17.7191 Y17.4471
G01 X17.7023 Y17.4370
G01 X17.6850 Y17.4277
G01 X17.6582 Y17.4154
G01 X17.6399 Y17.4084
G01 X17.6213 Y17.4022
G01 X17.6023 Y17.3970
G01 X17.5832 Y17.3927
G01 X17.5638 Y17.3893
G01 X17.5444 Y17.3869
G01 X17.5248 Y17.3855
G01 X17.5051 Y17.3850
G00 Z2.0000
G00 X17.5051 Y19.9250
G01 F60.00
G01 Z-0.1100
G01 F100.00
G01 X14.0051 Y19.9250
G01 X13.9757 Y19.9261
G01 X13.9465 Y19.9293
G01 X13.9175 Y19.9347
G01 X13.8985 Y19.9395
G01 X13.8797 Y19.9452
G01 X13.8612 Y19.9518
G01 X13.8431 Y19.9593
G01 X13.8253 Y19.9677
G01 X13.7995 Y19.9819
G01 X13.7829 Y19.9924
G01 X13.7669 Y20.0037
G01 X13.7514 Y20.0158
G01 X13.7293 Y20.0353
G01 X13.7155 Y20.0492
G01 X13.6959 Y20.0712
G01 X13.6839 Y20.0867
G01 X13.6726 Y20.1028
G01 X13.6571 Y20.1278
G01 X13.6479 Y20.1452
G01 X13.6395 Y20.1629
G01 X13.6320 Y20.1810
G01 X13.6253 Y20.1995
G01 X13.6196 Y20.2183
G01 X13.6149 Y20.2374
G01 X13.6110 Y20.2566
G01 X13.6082 Y20.2760
G01 X13.6062 Y20.2956
G01 X13.6051 Y20.3250
G01 X13.6051 Y20.5249
G01 X7.4676 Y20.5249
G01 X7.4675 Y20.3802
G01 X7.4657 Y20.3508
G01 X7.4618 Y20.3216
G01 X7.4579 Y20.3024
G01 X7.4532 Y20.2833
G01 X7.4475 Y20.2645
G01 X7.4408 Y20.2460
G01 X7.4333 Y20.2279
G01 X7.4249 Y20.2102
G01 X7.4157 Y20.1928
G01 X7.4056 Y20.1760
G01 X7.3947 Y20.1597
G01 X7.3830 Y20.1439
G01 X7.3640 Y20.1214
G01 X7.3505 Y20.1072
G01 X7.3363 Y20.0936
G01 X7.3214 Y20.0808
G01 X7.3059 Y20.0687
G01 X7.2899 Y20.0574
G01 X7.2733 Y20.0469
G01 X7.2562 Y20.0372
G01 X7.2387 Y20.0284
G01 X7.2207 Y20.0204
G01 X7.2024 Y20.0134
G01 X7.1838 Y20.0072
G01 X7.1648 Y20.0020
G01 X7.1360 Y19.9959
G01 X7.1069 Y19.9919
G01 X7.0873 Y19.9905
G01 X7.0676 Y19.9900
G01 X4.3676 Y19.9900
G01 X4.3480 Y19.9905
G01 X4.3284 Y19.9919
G01 X4.2993 Y19.9959
G01 X4.2705 Y20.0020
G01 X4.2422 Y20.0102
G01 X4.2146 Y20.0204
G01 X4.1878 Y20.0327
G01 X4.1705 Y20.0420
G01 X4.1536 Y20.0521
G01 X4.1294 Y20.0687
G01 X4.1064 Y20.0871
G01 X4.0848 Y20.1072
G01 X4.0648 Y20.1287
G01 X4.0523 Y20.1439
G01 X4.0406 Y20.1597
G01 X4.0246 Y20.1844
G01 X4.0104 Y20.2102
G01 X3.9981 Y20.2369
G01 X3.9878 Y20.2645
G01 X3.9821 Y20.2833
G01 X3.9774 Y20.3024
G01 X3.9720 Y20.3313
G01 X3.9687 Y20.3606
G01 X3.9676 Y20.3900
G01 X3.9676 Y22.0900
G01 X3.9687 Y22.1194
G01 X3.9707 Y22.1390
G01 X3.9735 Y22.1584
G01 X3.9796 Y22.1872
G01 X3.9849 Y22.2061
G01 X3.9910 Y22.2248
G01 X4.0020 Y22.2521
G01 X4.0149 Y22.2786
G01 X4.0297 Y22.3040
G01 X4.0406 Y22.3203
G01 X4.0523 Y22.3361
G01 X4.0713 Y22.3586
G01 X4.0918 Y22.3797
G01 X4.1064 Y22.3929
G01 X4.1216 Y22.4053
G01 X4.1454 Y22.4226
G01 X4.1705 Y22.4380
G01 X4.1878 Y22.4473
G01 X4.2056 Y22.4557
G01 X4.2329 Y22.4666
G01 X4.2610 Y22.4755
G01 X4.2896 Y22.4823
G01 X4.3090 Y22.4857
G01 X4.3284 Y22.4881
G01 X4.3480 Y22.4895
G01 X4.3676 Y22.4900
G01 X7.0775 Y22.4899
G01 X7.1069 Y22.4881
G01 X7.1263 Y22.4857
G01 X7.1553 Y22.4803
G01 X7.1743 Y22.4755
G01 X7.1931 Y22.4698
G01 X7.2207 Y22.4596
G01 X7.2475 Y22.4473
G01 X7.2648 Y22.4380
G01 X7.2899 Y22.4226
G01 X7.3137 Y22.4053
G01 X7.3289 Y22.3929
G01 X7.3505 Y22.3728
G01 X7.3705 Y22.3513
G01 X7.3830 Y22.3361
G01 X7.4002 Y22.3122
G01 X7.4107 Y22.2956
G01 X7.4204 Y22.2786
G01 X7.4333 Y22.2521
G01 X7.4408 Y22.2340
G01 X7.4475 Y22.2155
G01 X7.4532 Y22.1967
G01 X7.4579 Y22.1776
G01 X7.4618 Y22.1584
G01 X7.4646 Y22.1390
G01 X7.4666 Y22.1194
G01 X7.4676 Y22.0900
G01 X7.4676 Y21.8251
G01 X13.6051 Y21.8251
G01 X13.6051 Y22.0250
G01 X13.6062 Y22.0544
G01 X13.6082 Y22.0740
G01 X13.6110 Y22.0934
G01 X13.6149 Y22.1126
G01 X13.6196 Y22.1317
G01 X13.6253 Y22.1505
G01 X13.6320 Y22.1690
G01 X13.6395 Y22.1871
G01 X13.6479 Y22.2048
G01 X13.6571 Y22.2222
G01 X13.6672 Y22.2390
G01 X13.6839 Y22.2633
G01 X13.6959 Y22.2788
G01 X13.7088 Y22.2936
G01 X13.7293 Y22.3147
G01 X13.7439 Y22.3279
G01 X13.7591 Y22.3403
G01 X13.7748 Y22.3520
G01 X13.7912 Y22.3629
G01 X13.8166 Y22.3778
G01 X13.8431 Y22.3907
G01 X13.8612 Y22.3982
G01 X13.8890 Y22.4078
G01 X13.9080 Y22.4130
G01 X13.9271 Y22.4173
G01 X13.9465 Y22.4207
G01 X13.9757 Y22.4239
G01 X14.0051 Y22.4250
G01 X17.5051 Y22.4250
G01 X17.5248 Y22.4245
G01 X17.5444 Y22.4231
G01 X17.5735 Y22.4191
G01 X17.6023 Y22.4130
G01 X17.6306 Y22.4048
G01 X17.6491 Y22.3982
G01 X17.6672 Y22.3907
G01 X17.6937 Y22.3778
G01 X17.7191 Y22.3629
G01 X17.7434 Y22.3463
G01 X17.7664 Y22.3279
G01 X17.7810 Y22.3147
G01 X17.7948 Y22.3008
G01 X17.8080 Y22.2863
G01 X17.8205 Y22.2711
G01 X17.8377 Y22.2472
G01 X17.8532 Y22.2222
G01 X17.8667 Y22.1960
G01 X17.8783 Y22.1690
G01 X17.8879 Y22.1411
G01 X17.8954 Y22.1126
G01 X17.9008 Y22.0837
G01 X17.9041 Y22.0544
G01 X17.9051 Y22.0250
G01 X17.9050 Y20.3152
G01 X17.9041 Y20.2956
G01 X17.9021 Y20.2760
G01 X17.8993 Y20.2566
G01 X17.8954 Y20.2374
G01 X17.8907 Y20.2183
G01 X17.8850 Y20.1995
G01 X17.8783 Y20.1810
G01 X17.8708 Y20.1629
G01 X17.8624 Y20.1452
G01 X17.8532 Y20.1278
G01 X17.8431 Y20.1110
G01 X17.8322 Y20.0947
G01 X17.8205 Y20.0789
G01 X17.8080 Y20.0637
G01 X17.7948 Y20.0492
G01 X17.7810 Y20.0353
G01 X17.7664 Y20.0221
G01 X17.7512 Y20.0097
G01 X17.7355 Y19.9980
G01 X17.7191 Y19.9871
G01 X17.7023 Y19.9770
G01 X17.6850 Y19.9677
G01 X17.6582 Y19.9554
G01 X17.6399 Y19.9484
G01 X17.6213 Y19.9422
G01 X17.6023 Y19.9370
G01 X17.5832 Y19.9327
G01 X17.5638 Y19.9293
G01 X17.5444 Y19.9269
G01 X17.5248 Y19.9255
G01 X17.5051 Y19.9250
G00 Z2.0000
G00 X17.5051 Y22.4650
G01 F60.00
G01 Z-0.1100
G01 F100.00
G01 X14.0051 Y22.4650
G01 X13.9757 Y22.4661
G01 X13.9465 Y22.4693
G01 X13.9175 Y22.4747
G01 X13.8985 Y22.4795
G01 X13.8797 Y22.4852
G01 X13.8612 Y22.4918
G01 X13.8431 Y22.4993
G01 X13.8253 Y22.5077
G01 X13.7995 Y22.5219
G01 X13.7829 Y22.5324
G01 X13.7669 Y22.5437
G01 X13.7514 Y22.5558
G01 X13.7293 Y22.5753
G01 X13.7155 Y22.5892
G01 X13.6959 Y22.6112
G01 X13.6839 Y22.6267
G01 X13.6726 Y22.6428
G01 X13.6571 Y22.6678
G01 X13.6479 Y22.6852
G01 X13.6395 Y22.7029
G01 X13.6320 Y22.7210
G01 X13.6253 Y22.7395
G01 X13.6196 Y22.7583
G01 X13.6149 Y22.7774
G01 X13.6110 Y22.7966
G01 X13.6082 Y22.8160
G01 X13.6062 Y22.8356
G01 X13.6051 Y22.8650
G01 X13.6051 Y23.0649
G01 X7.4676 Y23.0649
G01 X7.4675 Y22.9202
G01 X7.4657 Y22.8908
G01 X7.4618 Y22.8616
G01 X7.4579 Y22.8424
G01 X7.4532 Y22.8233
G01 X7.4475 Y22.8045
G01 X7.4408 Y22.7860
G01 X7.4333 Y22.7679
G01 X7.4249 Y22.7502
G01 X7.4157 Y22.7328
G01 X7.4056 Y22.7160
G01 X7.3947 Y22.6997
G01 X7.3830 Y22.6839
G01 X7.3640 Y22.6614
G01 X7.3505 Y22.6472
G01 X7.3363 Y22.6336
G01 X7.3214 Y22.6208
G01 X7.3059 Y22.6087
G01 X7.2899 Y22.5974
G01 X7.2733 Y22.5869
G01 X7.2562 Y22.5772
G01 X7.2387 Y22.5684
G01 X7.2207 Y22.5604
G01 X7.2024 Y22.5534
G01 X7.1838 Y22.5472
G01 X7.1648 Y22.5420
G01 X7.1360 Y22.5359
G01 X7.1069 Y22.5319
G01 X7.0873 Y22.5305
G01 X7.0676 Y22.5300
G01 X4.3676 Y22.5300
G01 X4.3480 Y22.5305
G01 X4.3284 Y22.5319
G01 X4.2993 Y22.5359
G01 X4.2705 Y22.5420
G01 X4.2422 Y22.5502
G01 X4.2146 Y22.5604
G01 X4.1878 Y22.5727
G01 X4.1705 Y22.5820
G01 X4.1536 Y22.5921
G01 X4.1294 Y22.6087
G01 X4.1064 Y22.6271
G01 X4.0848 Y22.6472
G01 X4.0648 Y22.6687
G01 X4.0523 Y22.6839
G01 X4.0406 Y22.6997
G01 X4.0246 Y22.7244
G01 X4.0104 Y22.7502
G01 X3.9981 Y22.7769
G01 X3.9878 Y22.8045
G01 X3.9821 Y22.8233
G01 X3.9774 Y22.8424
G01 X3.9720 Y22.8713
G01 X3.9687 Y22.9006
G01 X3.9676 Y22.9300
G01 X3.9676 Y24.6300
G01 X3.9687 Y24.6594
G01 X3.9707 Y24.6790
G01 X3.9735 Y24.6984
G01 X3.9796 Y24.7272
G01 X3.9849 Y24.7461
G01 X3.9910 Y24.7648
G01 X4.0020 Y24.7921
G01 X4.0149 Y24.8186
G01 X4.0297 Y24.8440
G01 X4.0406 Y24.8603
G01 X4.0523 Y24.8761
G01 X4.0713 Y24.8986
G01 X4.0918 Y24.9197
G01 X4.1064 Y24.9329
G01 X4.1216 Y24.9453
G01 X4.1454 Y24.9626
G01 X4.1705 Y24.9780
G01 X4.1878 Y24.9873
G01 X4.2056 Y24.9957
G01 X4.2329 Y25.0066
G01 X4.2610 Y25.0155
G01 X4.2896 Y25.0223
G01 X4.3090 Y25.0257
G01 X4.3284 Y25.0281
G01 X4.3480 Y25.0295
G01 X4.3676 Y25.0300
G01 X7.0775 Y25.0299
G01 X7.1069 Y25.0281
G01 X7.1263 Y25.0257
G01 X7.1553 Y25.0203
G01 X7.1743 Y25.0155
G01 X7.1931 Y25.0098
G01 X7.2207 Y24.9996
G01 X7.2475 Y24.9873
G01 X7.2648 Y24.9780
G01 X7.2899 Y24.9626
G01 X7.3137 Y24.9453
G01 X7.3289 Y24.9329
G01 X7.3505 Y24.9128
G01 X7.3705 Y24.8913
G01 X7.3830 Y24.8761
G01 X7.4002 Y24.8522
G01 X7.4107 Y24.8356
G01 X7.4204 Y24.8186
G01 X7.4333 Y24.7921
G01 X7.4408 Y24.7740
G01 X7.4475 Y24.7555
G01 X7.4532 Y24.7367
G01 X7.4579 Y24.7176
G01 X7.4618 Y24.6984
G01 X7.4646 Y24.6790
G01 X7.4666 Y24.6594
G01 X7.4676 Y24.6300
G01 X7.4676 Y24.3651
G01 X13.6051 Y24.3651
G01 X13.6051 Y24.5650
G01 X13.6062 Y24.5944
G01 X13.6082 Y24.6140
G01 X13.6110 Y24.6334
G01 X13.6149 Y24.6526
G01 X13.6196 Y24.6717
G01 X13.6253 Y24.6905
G01 X13.6320 Y24.7090
G01 X13.6395 Y24.7271
G01 X13.6479 Y24.7448
G01 X13.6571 Y24.7622
G01 X13.6672 Y24.7790
G01 X13.6839 Y24.8033
G01 X13.6959 Y24.8188
G01 X13.7088 Y24.8336
G01 X13.7293 Y24.8547
G01 X13.7439 Y24.8679
G01 X13.7591 Y24.8803
G01 X13.7748 Y24.8920
G01 X13.7912 Y24.9029
G01 X13.8166 Y24.9178
G01 X13.8431 Y24.9307
G01 X13.8612 Y24.9382
G01 X13.8890 Y24.9478
G01 X13.9080 Y24.9530
G01 X13.9271 Y24.9573
G01 X13.9465 Y24.9607
G01 X13.9757 Y24.9639
G01 X14.0051 Y24.9650
G01 X17.5051 Y24.9650
G01 X17.5346 Y24.9639
G01 X17.5541 Y24.9620
G01 X17.5735 Y24.9591
G01 X17.6023 Y24.9530
G01 X17.6306 Y24.9448
G01 X17.6582 Y24.9346
G01 X17.6850 Y24.9223
G01 X17.7108 Y24.9081
G01 X17.7355 Y24.8920
G01 X17.7512 Y24.8803
G01 X17.7664 Y24.8679
G01 X17.7880 Y24.8478
G01 X17.8080 Y24.8263
G01 X17.8205 Y24.8111
G01 X17.8322 Y24.7953
G01 X17.8482 Y24.7706
G01 X17.8624 Y24.7448
G01 X17.8747 Y24.7181
G01 X17.8850 Y24.6905
G01 X17.8907 Y24.6717
G01 X17.8954 Y24.6526
G01 X17.9008 Y24.6237
G01 X17.9041 Y24.5944
G01 X17.9051 Y24.5650
G01 X17.9050 Y22.8552
G01 X17.9041 Y22.8356
G01 X17.9021 Y22.8160
G01 X17.8993 Y22.7966
G01 X17.8954 Y22.7774
G01 X17.8907 Y22.7583
G01 X17.8850 Y22.7395
G01 X17.8783 Y22.7210
G01 X17.8708 Y22.7029
G01 X17.8624 Y22.6852
G01 X17.8532 Y22.6678
G01 X17.8431 Y22.6510
G01 X17.8322 Y22.6347
G01 X17.8144 Y22.6112
G01 X17.8015 Y22.5964
G01 X17.7880 Y22.5822
G01 X17.7738 Y22.5686
G01 X17.7589 Y22.5558
G01 X17.7434 Y22.5437
G01 X17.7274 Y22.5324
G01 X17.7108 Y22.5219
G01 X17.6937 Y22.5122
G01 X17.6762 Y22.5034
G01 X17.6582 Y22.4954
G01 X17.6399 Y22.4884
G01 X17.6213 Y22.4822
G01 X17.6023 Y22.4770
G01 X17.5832 Y22.4727
G01 X17.5638 Y22.4693
G01 X17.5444 Y22.4669
G01 X17.5248 Y22.4655
G01 X17.5051 Y22.4650
G00 Z2.0000
G00 X17.9051 Y27.1050
G01 F60.00
G01 Z-0.1100
G01 F100.00
G01 X17.9051 Y25.4050
G01 X17.9041 Y25.3756
G01 X17.9021 Y25.3560
G01 X17.8993 Y25.3366
G01 X17.8954 Y25.3174
G01 X17.8907 Y25.2983
G01 X17.8818 Y25.2702
G01 X17.8708 Y25.2429
G01 X17.8579 Y25.2164
G01 X17.8431 Y25.1910
G01 X17.8264 Y25.1667
G01 X17.8144 Y25.1512
G01 X17.8015 Y25.1364
G01 X17.7810 Y25.1153
G01 X17.7589 Y25.0958
G01 X17.7434 Y25.0837
G01 X17.7274 Y25.0724
G01 X17.7023 Y25.0570
G01 X17.6762 Y25.0434
G01 X17.6582 Y25.0354
G01 X17.6399 Y25.0284
G01 X17.6118 Y25.0195
G01 X17.5832 Y25.0127
G01 X17.5541 Y25.0080
G01 X17.5346 Y25.0061
G01 X17.5051 Y25.0050
G01 X14.0051 Y25.0050
G01 X13.9757 Y25.0061
G01 X13.9465 Y25.0093
G01 X13.9175 Y25.0147
G01 X13.8985 Y25.0195
G01 X13.8797 Y25.0252
G01 X13.8612 Y25.0318
G01 X13.8431 Y25.0393
G01 X13.8253 Y25.0477
G01 X13.7995 Y25.0619
G01 X13.7829 Y25.0724
G01 X13.7669 Y25.0837
G01 X13.7514 Y25.0958
G01 X13.7293 Y25.1153
G01 X13.7155 Y25.1292
G01 X13.6959 Y25.1512
G01 X13.6839 Y25.1667
G01 X13.6726 Y25.1828
G01 X13.6571 Y25.2078
G01 X13.6479 Y25.2252
G01 X13.6395 Y25.2429
G01 X13.6320 Y25.2610
G01 X13.6253 Y25.2795
G01 X13.6196 Y25.2983
G01 X13.6149 Y25.3174
G01 X13.6110 Y25.3366
G01 X13.6082 Y25.3560
G01 X13.6062 Y25.3756
G01 X13.6051 Y25.4050
G01 X13.6051 Y25.6049
G01 X7.4676 Y25.6049
G01 X7.4675 Y25.4602
G01 X7.4657 Y25.4308
G01 X7.4633 Y25.4113
G01 X7.4600 Y25.3920
G01 X7.4532 Y25.3633
G01 X7.4475 Y25.3445
G01 X7.4408 Y25.3260
G01 X7.4333 Y25.3079
G01 X7.4249 Y25.2902
G01 X7.4157 Y25.2728
G01 X7.4056 Y25.2560
G01 X7.3889 Y25.2317
G01 X7.3769 Y25.2162
G01 X7.3640 Y25.2014
G01 X7.3435 Y25.1803
G01 X7.3289 Y25.1671
G01 X7.3137 Y25.1547
G01 X7.2899 Y25.1374
G01 X7.2733 Y25.1269
G01 X7.2562 Y25.1172
G01 X7.2387 Y25.1084
G01 X7.2116 Y25.0968
G01 X7.1838 Y25.0872
G01 X7.1648 Y25.0820
G01 X7.1457 Y25.0777
G01 X7.1166 Y25.0730
G01 X7.0971 Y25.0711
G01 X7.0775 Y25.0701
G01 X4.3676 Y25.0700
G01 X4.3480 Y25.0705
G01 X4.3187 Y25.0730
G01 X4.2993 Y25.0759
G01 X4.2800 Y25.0797
G01 X4.2515 Y25.0872
G01 X4.2329 Y25.0934
G01 X4.2146 Y25.1004
G01 X4.1878 Y25.1127
G01 X4.1705 Y25.1220
G01 X4.1536 Y25.1321
G01 X4.1294 Y25.1487
G01 X4.1064 Y25.1671
G01 X4.0848 Y25.1872
G01 X4.0648 Y25.2087
G01 X4.0523 Y25.2239
G01 X4.0406 Y25.2397
G01 X4.0246 Y25.2644
G01 X4.0104 Y25.2902
G01 X4.0020 Y25.3079
G01 X3.9945 Y25.3260
G01 X3.9849 Y25.3539
G01 X3.9774 Y25.3824
G01 X3.9735 Y25.4016
G01 X3.9707 Y25.4210
G01 X3.9681 Y25.4504
G01 X3.9676 Y25.4700
G01 X3.9676 Y27.1700
G01 X3.9687 Y27.1994
G01 X3.9707 Y27.2190
G01 X3.9735 Y27.2384
G01 X3.9796 Y27.2672
G01 X3.9849 Y27.2861
G01 X3.9910 Y27.3048
G01 X4.0020 Y27.3321
G01 X4.0149 Y27.3586
G01 X4.0297 Y27.3840
G01 X4.0406 Y27.4003
G01 X4.0523 Y27.4161
G01 X4.0713 Y27.4386
G01 X4.0918 Y27.4597
G01 X4.1064 Y27.4729
G01 X4.1216 Y27.4853
G01 X4.1454 Y27.5026
G01 X4.1705 Y27.5180
G01 X4.1966 Y27.5316
G01 X4.2237 Y27.5432
G01 X4.2422 Y27.5498
G01 X4.2610 Y27.5555
G01 X4.2896 Y27.5623
G01 X4.3187 Y27.5670
G01 X4.3480 Y27.5695
G01 X4.3676 Y27.5700
G01 X7.0676 Y27.5700
G01 X7.0873 Y27.5695
G01 X7.1069 Y27.5681
G01 X7.1263 Y27.5657
G01 X7.1457 Y27.5623
G01 X7.1648 Y27.5580
G01 X7.1931 Y27.5498
G01 X7.2116 Y27.5432
G01 X7.2297 Y27.5357
G01 X7.2562 Y27.5228
G01 X7.2733 Y27.5131
G01 X7.2899 Y27.5026
G01 X7.3137 Y27.4853
G01 X7.3289 Y27.4729
G01 X7.3505 Y27.4528
G01 X7.3640 Y27.4386
G01 X7.3769 Y27.4238
G01 X7.3889 Y27.4083
G01 X7.4056 Y27.3840
G01 X7.4157 Y27.3672
G01 X7.4249 Y27.3498
G01 X7.4333 Y27.3321
G01 X7.4408 Y27.3140
G01 X7.4504 Y27.2861
G01 X7.4557 Y27.2672
G01 X7.4600 Y27.2480
G01 X7.4633 Y27.2287
G01 X7.4657 Y27.2092
G01 X7.4672 Y27.1896
G01 X7.4676 Y27.1700
G01 X7.4676 Y26.9051
G01 X13.6051 Y26.9051
G01 X13.6053 Y27.1148
G01 X13.6062 Y27.1344
G01 X13.6095 Y27.1637
G01 X13.6128 Y27.1830
G01 X13.6196 Y27.2117
G01 X13.6253 Y27.2305
G01 X13.6320 Y27.2490
G01 X13.6395 Y27.2671
G01 X13.6479 Y27.2848
G01 X13.6621 Y27.3106
G01 X13.6726 Y27.3272
G01 X13.6839 Y27.3433
G01 X13.7023 Y27.3663
G01 X13.7155 Y27.3808
G01 X13.7365 Y27.4014
G01 X13.7591 Y27.4203
G01 X13.7748 Y27.4320
G01 X13.7912 Y27.4429
G01 X13.8166 Y27.4578
G01 X13.8341 Y27.4666
G01 X13.8521 Y27.4746
G01 X13.8704 Y27.4816
G01 X13.8985 Y27.4905
G01 X13.9271 Y27.4973
G01 X13.9465 Y27.5007
G01 X13.9757 Y27.5039
G01 X13.9953 Y27.5049
G01 X17.5051 Y27.5050
G01 X17.5248 Y27.5045
G01 X17.5444 Y27.5031
G01 X17.5638 Y27.5007
G01 X17.5832 Y27.4973
G01 X17.6023 Y27.4930
G01 X17.6213 Y27.4878
G01 X17.6491 Y27.4782
G01 X17.6672 Y27.4707
G01 X17.6850 Y27.4623
G01 X17.7023 Y27.4530
G01 X17.7191 Y27.4429
G01 X17.7355 Y27.4320
G01 X17.7512 Y27.4203
G01 X17.7738 Y27.4014
G01 X17.7880 Y27.3878
G01 X17.8015 Y27.3736
G01 X17.8144 Y27.3588
G01 X17.8264 Y27.3433
G01 X17.8377 Y27.3272
G01 X17.8482 Y27.3106
G01 X17.8624 Y27.2848
G01 X17.8708 Y27.2671
G01 X17.8783 Y27.2490
G01 X17.8879 Y27.2211
G01 X17.8932 Y27.2022
G01 X17.8975 Y27.1830
G01 X17.9008 Y27.1637
G01 X17.9032 Y27.1442
G01 X17.9047 Y27.1246
G01 X17.9051 Y27.1050
G00 Z2.0000
G00 X17.5051 Y27.5450
G01 F60.00
G01 Z-0.1100
G01 F100.00
G01 X14.0051 Y27.5450
G01 X13.9757 Y27.5461
G01 X13.9465 Y27.5493
G01 X13.9175 Y27.5547
G01 X13.8985 Y27.5595
G01 X13.8797 Y27.5652
G01 X13.8612 Y27.5718
G01 X13.8431 Y27.5793
G01 X13.8253 Y27.5877
G01 X13.7995 Y27.6019
G01 X13.7829 Y27.6124
G01 X13.7669 Y27.6237
G01 X13.7514 Y27.6358
G01 X13.7293 Y27.6553
G01 X13.7155 Y27.6692
G01 X13.6959 Y27.6912
G01 X13.6839 Y27.7067
G01 X13.6726 Y27.7228
G01 X13.6571 Y27.7478
G01 X13.6479 Y27.7652
G01 X13.6395 Y27.7829
G01 X13.6320 Y27.8010
G01 X13.6253 Y27.8195
G01 X13.6196 Y27.8383
G01 X13.6149 Y27.8574
G01 X13.6110 Y27.8766
G01 X13.6082 Y27.8960
G01 X13.6062 Y27.9156
G01 X13.6051 Y27.9450
G01 X13.6051 Y28.1449
G01 X7.4676 Y28.1449
G01 X7.4675 Y28.0002
G01 X7.4657 Y27.9708
G01 X7.4618 Y27.9416
G01 X7.4579 Y27.9224
G01 X7.4532 Y27.9033
G01 X7.4475 Y27.8845
G01 X7.4408 Y27.8660
G01 X7.4333 Y27.8479
G01 X7.4249 Y27.8302
G01 X7.4157 Y27.8128
G01 X7.4056 Y27.7960
G01 X7.3947 Y27.7797
G01 X7.3830 Y27.7639
G01 X7.3640 Y27.7414
G01 X7.3505 Y27.7272
G01 X7.3363 Y27.7136
G01 X7.3214 Y27.7008
G01 X7.3059 Y27.6887
G01 X7.2899 Y27.6774
G01 X7.2733 Y27.6669
G01 X7.2562 Y27.6572
G01 X7.2387 Y27.6484
G01 X7.2207 Y27.6404
G01 X7.2024 Y27.6334
G01 X7.1838 Y27.6272
G01 X7.1648 Y27.6220
G01 X7.1360 Y27.6159
G01 X7.1069 Y27.6119
G01 X7.0873 Y27.6105
G01 X7.0676 Y27.6100
G01 X4.3676 Y27.6100
G01 X4.3480 Y27.6105
G01 X4.3284 Y27.6119
G01 X4.2993 Y27.6159
G01 X4.2705 Y27.6220
G01 X4.2422 Y27.6302
G01 X4.2146 Y27.6404
G01 X4.1878 Y27.6527
G01 X4.1705 Y27.6620
G01 X4.1536 Y27.6721
G01 X4.1294 Y27.6887
G01 X4.1064 Y27.7071
G01 X4.0848 Y27.7272
G01 X4.0648 Y27.7487
G01 X4.0523 Y27.7639
G01 X4.0406 Y27.7797
G01 X4.0246 Y27.8044
G01 X4.0104 Y27.8302
G01 X3.9981 Y27.8569
G01 X3.9878 Y27.8845
G01 X3.9821 Y27.9033
G01 X3.9774 Y27.9224
G01 X3.9720 Y27.9513
G01 X3.9687 Y27.9806
G01 X3.9676 Y28.0100
G01 X3.9676 Y29.7100
G01 X3.9687 Y29.7394
G01 X3.9707 Y29.7590
G01 X3.9735 Y29.7784
G01 X3.9796 Y29.8072
G01 X3.9849 Y29.8261
G01 X3.9910 Y29.8448
G01 X4.0020 Y29.8721
G01 X4.0149 Y29.8986
G01 X4.0297 Y29.9240
G01 X4.0406 Y29.9403
G01 X4.0523 Y29.9561
G01 X4.0713 Y29.9786
G01 X4.0918 Y29.9997
G01 X4.1064 Y30.0129
G01 X4.1216 Y30.0253
G01 X4.1454 Y30.0426
G01 X4.1705 Y30.0580
G01 X4.1878 Y30.0673
G01 X4.2056 Y30.0757
G01 X4.2329 Y30.0866
G01 X4.2610 Y30.0955
G01 X4.2896 Y30.1023
G01 X4.3090 Y30.1057
G01 X4.3284 Y30.1081
G01 X4.3480 Y30.1095
G01 X4.3676 Y30.1100
G01 X7.0775 Y30.1099
G01 X7.1069 Y30.1081
G01 X7.1263 Y30.1057
G01 X7.1553 Y30.1003
G01 X7.1743 Y30.0955
G01 X7.1931 Y30.0898
G01 X7.2207 Y30.0796
G01 X7.2475 Y30.0673
G01 X7.2648 Y30.0580
G01 X7.2899 Y30.0426
G01 X7.3137 Y30.0253
G01 X7.3289 Y30.0129
G01 X7.3505 Y29.9928
G01 X7.3705 Y29.9713
G01 X7.3830 Y29.9561
G01 X7.4002 Y29.9322
G01 X7.4107 Y29.9156
G01 X7.4204 Y29.8986
G01 X7.4333 Y29.8721
G01 X7.4408 Y29.8540
G01 X7.4475 Y29.8355
G01 X7.4532 Y29.8167
G01 X7.4579 Y29.7976
G01 X7.4618 Y29.7784
G01 X7.4646 Y29.7590
G01 X7.4666 Y29.7394
G01 X7.4676 Y29.7100
G01 X7.4676 Y29.4451
G01 X13.6051 Y29.4451
G01 X13.6051 Y29.6450
G01 X13.6062 Y29.6744
G01 X13.6082 Y29.6940
G01 X13.6110 Y29.7134
G01 X13.6149 Y29.7326
G01 X13.6196 Y29.7517
G01 X13.6253 Y29.7705
G01 X13.6320 Y29.7890
G01 X13.6395 Y29.8071
G01 X13.6479 Y29.8248
G01 X13.6571 Y29.8422
G01 X13.6672 Y29.8590
G01 X13.6839 Y29.8833
G01 X13.6959 Y29.8988
G01 X13.7088 Y29.9136
G01 X13.7293 Y29.9347
G01 X13.7439 Y29.9479
G01 X13.7591 Y29.9603
G01 X13.7748 Y29.9720
G01 X13.7912 Y29.9829
G01 X13.8166 Y29.9978
G01 X13.8431 Y30.0107
G01 X13.8612 Y30.0182
G01 X13.8890 Y30.0278
G01 X13.9080 Y30.0330
G01 X13.9271 Y30.0373
G01 X13.9465 Y30.0407
G01 X13.9757 Y30.0439
G01 X14.0051 Y30.0450
G01 X17.5051 Y30.0450
G01 X17.5248 Y30.0445
G01 X17.5444 Y30.0431
G01 X17.5735 Y30.0391
G01 X17.6023 Y30.0330
G01 X17.6306 Y30.0248
G01 X17.6491 Y30.0182
G01 X17.6672 Y30.0107
G01 X17.6937 Y29.9978
G01 X17.7191 Y29.9829
G01 X17.7434 Y29.9663
G01 X17.7664 Y29.9479
G01 X17.7810 Y29.9347
G01 X17.7948 Y29.9208
G01 X17.8080 Y29.9063
G01 X17.8205 Y29.8911
G01 X17.8377 Y29.8672
G01 X17.8532 Y29.8422
G01 X17.8667 Y29.8160
G01 X17.8783 Y29.7890
G01 X17.8879 Y29.7611
G01 X17.8954 Y29.7326
G01 X17.9008 Y29.7037
G01 X17.9041 Y29.6744
G01 X17.9051 Y29.6450
G01 X17.9050 Y27.9352
G01 X17.9041 Y27.9156
G01 X17.9021 Y27.8960
G01 X17.8993 Y27.8766
G01 X17.8954 Y27.8574
G01 X17.8907 Y27.8383
G01 X17.8850 Y27.8195
G01 X17.8783 Y27.8010
G01 X17.8708 Y27.7829
G01 X17.8624 Y27.7652
G01 X17.8532 Y27.7478
G01 X17.8431 Y27.7310
G01 X17.8322 Y27.7147
G01 X17.8205 Y27.6989
G01 X17.8080 Y27.6837
G01 X17.7948 Y27.6692
G01 X17.7810 Y27.6553
G01 X17.7664 Y27.6421
G01 X17.7512 Y27.6297
G01 X17.7355 Y27.6180
G01 X17.7191 Y27.6071
G01 X17.7023 Y27.5970
G01 X17.6850 Y27.5877
G01 X17.6582 Y27.5754
G01 X17.6399 Y27.5684
G01 X17.6213 Y27.5622
G01 X17.6023 Y27.5570
G01 X17.5832 Y27.5527
G01 X17.5638 Y27.5493
G01 X17.5444 Y27.5469
G01 X17.5248 Y27.5455
G01 X17.5051 Y27.5450
G00 Z2.0000
G00 X17.5051 Y30.0850
G01 F60.00
G01 Z-0.1100
G01 F100.00
G01 X14.0051 Y30.0850
G01 X13.9757 Y30.0861
G01 X13.9465 Y30.0893
G01 X13.9175 Y30.0947
G01 X13.8985 Y30.0995
G01 X13.8797 Y30.1052
G01 X13.8612 Y30.1118
G01 X13.8431 Y30.1193
G01 X13.8253 Y30.1277
G01 X13.7995 Y30.1419
G01 X13.7829 Y30.1524
G01 X13.7669 Y30.1637
G01 X13.7514 Y30.1758
G01 X13.7293 Y30.1953
G01 X13.7155 Y30.2092
G01 X13.6959 Y30.2312
G01 X13.6839 Y30.2467
G01 X13.6726 Y30.2628
G01 X13.6571 Y30.2878
G01 X13.6479 Y30.3052
G01 X13.6395 Y30.3229
G01 X13.6320 Y30.3410
G01 X13.6253 Y30.3595
G01 X13.6196 Y30.3783
G01 X13.6149 Y30.3974
G01 X13.6110 Y30.4166
G01 X13.6082 Y30.4360
G01 X13.6062 Y30.4556
G01 X13.6051 Y30.4850
G01 X13.6051 Y30.6849
G01 X7.4676 Y30.6849
G01 X7.4675 Y30.5402
G01 X7.4657 Y30.5108
G01 X7.4618 Y30.4816
G01 X7.4579 Y30.4624
G01 X7.4532 Y30.4433
G01 X7.4475 Y30.4245
G01 X7.4408 Y30.4060
G01 X7.4333 Y30.3879
G01 X7.4249 Y30.3702
G01 X7.4157 Y30.3528
G01 X7.4056 Y30.3360
G01 X7.3947 Y30.3197
G01 X7.3830 Y30.3039
G01 X7.3640 Y30.2814
G01 X7.3505 Y30.2672
G01 X7.3363 Y30.2536
G01 X7.3214 Y30.2408
G01 X7.3059 Y30.2287
G01 X7.2899 Y30.2174
G01 X7.2733 Y30.2069
G01 X7.2562 Y30.1972
G01 X7.2387 Y30.1884
G01 X7.2207 Y30.1804
G01 X7.2024 Y30.1734
G01 X7.1838 Y30.1672
G01 X7.1648 Y30.1620
G01 X7.1360 Y30.1559
G01 X7.1069 Y30.1519
G01 X7.0873 Y30.1505
G01 X7.0676 Y30.1500
G01 X4.3676 Y30.1500
G01 X4.3480 Y30.1505
G01 X4.3284 Y30.1519
G01 X4.2993 Y30.1559
G01 X4.2705 Y30.1620
G01 X4.2422 Y30.1702
G01 X4.2146 Y30.1804
G01 X4.1878 Y30.1927
G01 X4.1705 Y30.2020
G01 X4.1536 Y30.2121
G01 X4.1294 Y30.2287
G01 X4.1064 Y30.2471
G01 X4.0848 Y30.2672
G01 X4.0648 Y30.2887
G01 X4.0523 Y30.3039
G01 X4.0406 Y30.3197
G01 X4.0246 Y30.3444
G01 X4.0104 Y30.3702
G01 X3.9981 Y30.3969
G01 X3.9878 Y30.4245
G01 X3.9821 Y30.4433
G01 X3.9774 Y30.4624
G01 X3.9720 Y30.4913
G01 X3.9687 Y30.5206
G01 X3.9676 Y30.5500
G01 X3.9676 Y32.2500
G01 X3.9687 Y32.2794
G01 X3.9707 Y32.2990
G01 X3.9735 Y32.3184
G01 X3.9796 Y32.3472
G01 X3.9878 Y32.3755
G01 X3.9945 Y32.3940
G01 X4.0020 Y32.4121
G01 X4.0149 Y32.4386
G01 X4.0246 Y32.4556
G01 X4.0351 Y32.4722
G01 X4.0523 Y32.4961
G01 X4.0713 Y32.5186
G01 X4.0918 Y32.5397
G01 X4.1139 Y32.5592
G01 X4.1373 Y32.5770
G01 X4.1620 Y32.5931
G01 X4.1791 Y32.6028
G01 X4.1966 Y32.6116
G01 X4.2146 Y32.6196
G01 X4.2329 Y32.6266
G01 X4.2610 Y32.6355
G01 X4.2800 Y32.6403
G01 X4.2993 Y32.6441
G01 X4.3284 Y32.6481
G01 X4.3480 Y32.6495
G01 X4.3676 Y32.6500
G01 X7.0775 Y32.6499
G01 X7.0971 Y32.6489
G01 X7.1263 Y32.6457
G01 X7.1457 Y32.6423
G01 X7.1743 Y32.6355
G01 X7.1931 Y32.6298
G01 X7.2207 Y32.6196
G01 X7.2475 Y32.6073
G01 X7.2648 Y32.5980
G01 X7.2816 Y32.5879
G01 X7.3059 Y32.5713
G01 X7.3289 Y32.5529
G01 X7.3505 Y32.5328
G01 X7.3705 Y32.5113
G01 X7.3830 Y32.4961
G01 X7.3947 Y32.4803
G01 X7.4107 Y32.4556
G01 X7.4204 Y32.4386
G01 X7.4292 Y32.4210
G01 X7.4372 Y32.4031
G01 X7.4443 Y32.3848
G01 X7.4504 Y32.3661
G01 X7.4557 Y32.3472
G01 X7.4600 Y32.3280
G01 X7.4646 Y32.2990
G01 X7.4666 Y32.2794
G01 X7.4676 Y32.2500
G01 X7.4676 Y31.9851
G01 X13.6051 Y31.9851
G01 X13.6051 Y32.1850
G01 X13.6062 Y32.2144
G01 X13.6082 Y32.2340
G01 X13.6110 Y32.2534
G01 X13.6149 Y32.2726
G01 X13.6196 Y32.2917
G01 X13.6253 Y32.3105
G01 X13.6320 Y32.3290
G01 X13.6395 Y32.3471
G01 X13.6479 Y32.3648
G01 X13.6571 Y32.3822
G01 X13.6726 Y32.4072
G01 X13.6839 Y32.4233
G01 X13.6959 Y32.4388
G01 X13.7088 Y32.4536
G01 X13.7293 Y32.4747
G01 X13.7439 Y32.4879
G01 X13.7591 Y32.5003
G01 X13.7748 Y32.5120
G01 X13.7912 Y32.5229
G01 X13.8166 Y32.5378
G01 X13.8341 Y32.5466
G01 X13.8612 Y32.5582
G01 X13.8890 Y32.5678
G01 X13.9080 Y32.5730
G01 X13.9271 Y32.5773
G01 X13.9465 Y32.5807
G01 X13.9757 Y32.5839
G01 X14.0051 Y32.5850
G01 X17.5051 Y32.5850
G01 X17.5346 Y32.5839
G01 X17.5541 Y32.5820
G01 X17.5735 Y32.5791
G01 X17.5928 Y32.5753
G01 X17.6118 Y32.5705
G01 X17.6399 Y32.5616
G01 X17.6672 Y32.5507
G01 X17.6937 Y32.5378
G01 X17.7191 Y32.5229
G01 X17.7434 Y32.5063
G01 X17.7664 Y32.4879
G01 X17.7810 Y32.4747
G01 X17.7948 Y32.4608
G01 X17.8144 Y32.4388
G01 X17.8322 Y32.4153
G01 X17.8482 Y32.3906
G01 X17.8579 Y32.3736
G01 X17.8667 Y32.3560
G01 X17.8783 Y32.3290
G01 X17.8879 Y32.3011
G01 X17.8954 Y32.2726
G01 X17.9008 Y32.2437
G01 X17.9041 Y32.2144
G01 X17.9051 Y32.1850
G01 X17.9050 Y30.4752
G01 X17.9041 Y30.4556
G01 X17.9021 Y30.4360
G01 X17.8993 Y30.4166
G01 X17.8954 Y30.3974
G01 X17.8907 Y30.3783
G01 X17.8850 Y30.3595
G01 X17.8783 Y30.3410
G01 X17.8708 Y30.3229
G01 X17.8624 Y30.3052
G01 X17.8532 Y30.2878
G01 X17.8431 Y30.2710
G01 X17.8322 Y30.2547
G01 X17.8205 Y30.2389
G01 X17.8080 Y30.2237
G01 X17.7948 Y30.2092
G01 X17.7810 Y30.1953
G01 X17.7664 Y30.1821
G01 X17.7512 Y30.1697
G01 X17.7355 Y30.1580
G01 X17.7191 Y30.1471
G01 X17.7023 Y30.1370
G01 X17.6850 Y30.1277
G01 X17.6582 Y30.1154
G01 X17.6399 Y30.1084
G01 X17.6213 Y30.1022
G01 X17.6023 Y30.0970
G01 X17.5832 Y30.0927
G01 X17.5638 Y30.0893
G01 X17.5444 Y30.0869
G01 X17.5248 Y30.0855
G01 X17.5051 Y30.0850
G00 Z2.0000
G00 X17.5051 Y32.6250
G01 F60.00
G01 Z-0.1100
G01 F100.00
G01 X14.0051 Y32.6250
G01 X13.9757 Y32.6261
G01 X13.9465 Y32.6293
G01 X13.9175 Y32.6347
G01 X13.8985 Y32.6395
G01 X13.8797 Y32.6452
G01 X13.8612 Y32.6518
G01 X13.8431 Y32.6593
G01 X13.8166 Y32.6722
G01 X13.7995 Y32.6819
G01 X13.7829 Y32.6924
G01 X13.7591 Y32.7097
G01 X13.7439 Y32.7221
G01 X13.7223 Y32.7422
G01 X13.7088 Y32.7564
G01 X13.6959 Y32.7712
G01 X13.6839 Y32.7867
G01 X13.6726 Y32.8028
G01 X13.6571 Y32.8278
G01 X13.6479 Y32.8452
G01 X13.6395 Y32.8629
G01 X13.6320 Y32.8810
G01 X13.6253 Y32.8995
G01 X13.6196 Y32.9183
G01 X13.6149 Y32.9374
G01 X13.6110 Y32.9566
G01 X13.6082 Y32.9760
G01 X13.6062 Y32.9956
G01 X13.6051 Y33.0250
G01 X13.6051 Y33.2249
G01 X7.4676 Y33.2249
G01 X7.4675 Y33.0802
G01 X7.4657 Y33.0508
G01 X7.4618 Y33.0216
G01 X7.4579 Y33.0024
G01 X7.4532 Y32.9833
G01 X7.4475 Y32.9645
G01 X7.4408 Y32.9460
G01 X7.4333 Y32.9279
G01 X7.4249 Y32.9102
G01 X7.4157 Y32.8928
G01 X7.4056 Y32.8760
G01 X7.3947 Y32.8597
G01 X7.3830 Y32.8439
G01 X7.3705 Y32.8287
G01 X7.3573 Y32.8142
G01 X7.3435 Y32.8003
G01 X7.3289 Y32.7871
G01 X7.3059 Y32.7687
G01 X7.2899 Y32.7574
G01 X7.2733 Y32.7469
G01 X7.2562 Y32.7372
G01 X7.2387 Y32.7284
G01 X7.2207 Y32.7204
G01 X7.1931 Y32.7102
G01 X7.1743 Y32.7045
G01 X7.1553 Y32.6997
G01 X7.1360 Y32.6959
G01 X7.1069 Y32.6919
G01 X7.0873 Y32.6905
G01 X7.0676 Y32.6900
G01 X4.3676 Y32.6900
G01 X4.3480 Y32.6905
G01 X4.3284 Y32.6919
G01 X4.2993 Y32.6959
G01 X4.2705 Y32.7020
G01 X4.2422 Y32.7102
G01 X4.2146 Y32.7204
G01 X4.1966 Y32.7284
G01 X4.1791 Y32.7372
G01 X4.1620 Y32.7469
G01 X4.1454 Y32.7574
G01 X4.1216 Y32.7747
G01 X4.0990 Y32.7936
G01 X4.0780 Y32.8142
G01 X4.0584 Y32.8362
G01 X4.0406 Y32.8597
G01 X4.0246 Y32.8844
G01 X4.0104 Y32.9102
G01 X3.9981 Y32.9369
G01 X3.9878 Y32.9645
G01 X3.9821 Y32.9833
G01 X3.9774 Y33.0024
G01 X3.9720 Y33.0313
G01 X3.9687 Y33.0606
G01 X3.9676 Y33.0900
G01 X3.9676 Y34.7900
G01 X3.9687 Y34.8194
G01 X3.9707 Y34.8390
G01 X3.9735 Y34.8584
G01 X3.9796 Y34.8872
G01 X3.9878 Y34.9155
G01 X3.9945 Y34.9340
G01 X4.0020 Y34.9521
G01 X4.0149 Y34.9786
G01 X4.0246 Y34.9956
G01 X4.0351 Y35.0122
G01 X4.0523 Y35.0361
G01 X4.0713 Y35.0586
G01 X4.0918 Y35.0797
G01 X4.1139 Y35.0992
G01 X4.1373 Y35.1170
G01 X4.1620 Y35.1331
G01 X4.1791 Y35.1428
G01 X4.1966 Y35.1516
G01 X4.2146 Y35.1596
G01 X4.2329 Y35.1666
G01 X4.2610 Y35.1755
G01 X4.2800 Y35.1803
G01 X4.2993 Y35.1841
G01 X4.3284 Y35.1881
G01 X4.3480 Y35.1895
G01 X4.3676 Y35.1900
G01 X7.0775 Y35.1899
G01 X7.0971 Y35.1889
G01 X7.1263 Y35.1857
G01 X7.1457 Y35.1823
G01 X7.1743 Y35.1755
G01 X7.1931 Y35.1698
G01 X7.2207 Y35.1596
G01 X7.2475 Y35.1473
G01 X7.2648 Y35.1380
G01 X7.2816 Y35.1279
G01 X7.3059 Y35.1113
G01 X7.3289 Y35.0929
G01 X7.3505 Y35.0728
G01 X7.3705 Y35.0513
G01 X7.3830 Y35.0361
G01 X7.3947 Y35.0203
G01 X7.4107 Y34.9956
G01 X7.4204 Y34.9786
G01 X7.4292 Y34.9610
G01 X7.4372 Y34.9431
G01 X7.4443 Y34.9248
G01 X7.4504 Y34.9061
G01 X7.4557 Y34.8872
G01 X7.4600 Y34.8680
G01 X7.4646 Y34.8390
G01 X7.4666 Y34.8194
G01 X7.4676 Y34.7900
G01 X7.4676 Y34.5251
G01 X13.6051 Y34.5251
G01 X13.6051 Y34.7250
G01 X13.6062 Y34.7544
G01 X13.6082 Y34.7740
G01 X13.6110 Y34.7934
G01 X13.6149 Y34.8126
G01 X13.6196 Y34.8317
G01 X13.6253 Y34.8505
G01 X13.6320 Y34.8690
G01 X13.6395 Y34.8871
G01 X13.6479 Y34.9048
G01 X13.6571 Y34.9222
G01 X13.6672 Y34.9390
G01 X13.6839 Y34.9633
G01 X13.6959 Y34.9788
G01 X13.7088 Y34.9936
G01 X13.7293 Y35.0147
G01 X13.7439 Y35.0279
G01 X13.7591 Y35.0403
G01 X13.7748 Y35.0520
G01 X13.7912 Y35.0629
G01 X13.8080 Y35.0730
G01 X13.8253 Y35.0823
G01 X13.8521 Y35.0946
G01 X13.8797 Y35.1048
G01 X13.8985 Y35.1105
G01 X13.9271 Y35.1173
G01 X13.9465 Y35.1207
G01 X13.9757 Y35.1239
G01 X14.0051 Y35.1250
G01 X17.5051 Y35.1250
G01 X17.5346 Y35.1239
G01 X17.5541 Y35.1220
G01 X17.5735 Y35.1191
G01 X17.5928 Y35.1153
G01 X17.6118 Y35.1105
G01 X17.6399 Y35.1016
G01 X17.6672 Y35.0907
G01 X17.6937 Y35.0778
G01 X17.7191 Y35.0629
G01 X17.7434 Y35.0463
G01 X17.7664 Y35.0279
G01 X17.7810 Y35.0147
G01 X17.7948 Y35.0008
G01 X17.8144 Y34.9788
G01 X17.8322 Y34.9553
G01 X17.8482 Y34.9306
G01 X17.8579 Y34.9136
G01 X17.8667 Y34.8960
G01 X17.8783 Y34.8690
G01 X17.8879 Y34.8411
G01 X17.8954 Y34.8126
G01 X17.9008 Y34.7837
G01 X17.9041 Y34.7544
G01 X17.9051 Y34.7250
G01 X17.9050 Y33.0152
G01 X17.9041 Y32.9956
G01 X17.9021 Y32.9760
G01 X17.8975 Y32.9470
G01 X17.8932 Y32.9278
G01 X17.8879 Y32.9089
G01 X17.8818 Y32.8902
G01 X17.8747 Y32.8719
G01 X17.8667 Y32.8540
G01 X17.8579 Y32.8364
G01 X17.8482 Y32.8194
G01 X17.8377 Y32.8028
G01 X17.8264 Y32.7867
G01 X17.8144 Y32.7712
G01 X17.8015 Y32.7564
G01 X17.7880 Y32.7422
G01 X17.7738 Y32.7286
G01 X17.7589 Y32.7158
G01 X17.7434 Y32.7037
G01 X17.7274 Y32.6924
G01 X17.7108 Y32.6819
G01 X17.6937 Y32.6722
G01 X17.6762 Y32.6634
G01 X17.6582 Y32.6554
G01 X17.6399 Y32.6484
G01 X17.6213 Y32.6422
G01 X17.6023 Y32.6370
G01 X17.5832 Y32.6327
G01 X17.5638 Y32.6293
G01 X17.5444 Y32.6269
G01 X17.5248 Y32.6255
G01 X17.5051 Y32.6250
G00 Z2.0000
G00 X17.5051 Y35.1650
G01 F60.00
G01 Z-0.1100
G01 F100.00
G01 X14.0051 Y35.1650
G01 X13.9757 Y35.1661
G01 X13.9465 Y35.1693
G01 X13.9175 Y35.1747
G01 X13.8985 Y35.1795
G01 X13.8797 Y35.1852
G01 X13.8612 Y35.1918
G01 X13.8431 Y35.1993
G01 X13.8166 Y35.2122
G01 X13.7995 Y35.2219
G01 X13.7829 Y35.2324
G01 X13.7591 Y35.2497
G01 X13.7439 Y35.2621
G01 X13.7223 Y35.2822
G01 X13.7088 Y35.2964
G01 X13.6959 Y35.3112
G01 X13.6839 Y35.3267
G01 X13.6726 Y35.3428
G01 X13.6571 Y35.3678
G01 X13.6479 Y35.3852
G01 X13.6395 Y35.4029
G01 X13.6320 Y35.4210
G01 X13.6253 Y35.4395
G01 X13.6196 Y35.4583
G01 X13.6149 Y35.4774
G01 X13.6110 Y35.4966
G01 X13.6082 Y35.5160
G01 X13.6062 Y35.5356
G01 X13.6051 Y35.5650
G01 X13.6051 Y35.7649
G01 X7.4676 Y35.7649
G01 X7.4675 Y35.6202
G01 X7.4657 Y35.5908
G01 X7.4618 Y35.5616
G01 X7.4579 Y35.5424
G01 X7.4532 Y35.5233
G01 X7.4475 Y35.5045
G01 X7.4408 Y35.4860
G01 X7.4333 Y35.4679
G01 X7.4249 Y35.4502
G01 X7.4157 Y35.4328
G01 X7.4056 Y35.4160
G01 X7.3947 Y35.3997
G01 X7.3830 Y35.3839
G01 X7.3705 Y35.3687
G01 X7.3573 Y35.3542
G01 X7.3435 Y35.3403
G01 X7.3289 Y35.3271
G01 X7.3059 Y35.3087
G01 X7.2899 Y35.2974
G01 X7.2733 Y35.2869
G01 X7.2562 Y35.2772
G01 X7.2387 Y35.2684
G01 X7.2207 Y35.2604
G01 X7.1931 Y35.2502
G01 X7.1743 Y35.2445
G01 X7.1553 Y35.2397
G01 X7.1360 Y35.2359
G01 X7.1069 Y35.2319
G01 X7.0873 Y35.2305
G01 X7.0676 Y35.2300
G01 X4.3676 Y35.2300
G01 X4.3480 Y35.2305
G01 X4.3284 Y35.2319
G01 X4.2993 Y35.2359
G01 X4.2705 Y35.2420
G01 X4.2422 Y35.2502
G01 X4.2146 Y35.2604
G01 X4.1966 Y35.2684
G01 X4.1791 Y35.2772
G01 X4.1620 Y35.2869
G01 X4.1454 Y35.2974
G01 X4.1216 Y35.3147
G01 X4.0990 Y35.3336
G01 X4.0780 Y35.3542
G01 X4.0584 Y35.3762
G01 X4.0406 Y35.3997
G01 X4.0246 Y35.4244
G01 X4.0104 Y35.4502
G01 X3.9981 Y35.4769
G01 X3.9878 Y35.5045
G01 X3.9821 Y35.5233
G01 X3.9774 Y35.5424
G01 X3.9720 Y35.5713
G01 X3.9687 Y35.6006
G01 X3.9676 Y35.6300
G01 X3.9676 Y37.3300
G01 X3.9687 Y37.3594
G01 X3.9707 Y37.3790
G01 X3.9735 Y37.3984
G01 X3.9796 Y37.4272
G01 X3.9878 Y37.4555
G01 X3.9945 Y37.4740
G01 X4.0020 Y37.4921
G01 X4.0149 Y37.5186
G01 X4.0297 Y37.5440
G01 X4.0464 Y37.5683
G01 X4.0648 Y37.5913
G01 X4.0780 Y37.6058
G01 X4.0918 Y37.6197
G01 X4.1139 Y37.6392
G01 X4.1294 Y37.6513
G01 X4.1454 Y37.6626
G01 X4.1620 Y37.6731
G01 X4.1791 Y37.6828
G01 X4.2056 Y37.6957
G01 X4.2329 Y37.7066
G01 X4.2515 Y37.7128
G01 X4.2705 Y37.7180
G01 X4.2993 Y37.7241
G01 X4.3284 Y37.7281
G01 X4.3480 Y37.7295
G01 X4.3676 Y37.7300
G01 X7.0775 Y37.7299
G01 X7.1069 Y37.7281
G01 X7.1360 Y37.7241
G01 X7.1648 Y37.7180
G01 X7.1838 Y37.7128
G01 X7.2116 Y37.7032
G01 X7.2297 Y37.6957
G01 X7.2562 Y37.6828
G01 X7.2733 Y37.6731
G01 X7.2899 Y37.6626
G01 X7.3137 Y37.6453
G01 X7.3363 Y37.6264
G01 X7.3505 Y37.6128
G01 X7.3640 Y37.5986
G01 X7.3830 Y37.5761
G01 X7.3947 Y37.5603
G01 X7.4107 Y37.5356
G01 X7.4204 Y37.5186
G01 X7.4292 Y37.5010
G01 X7.4372 Y37.4831
G01 X7.4443 Y37.4648
G01 X7.4504 Y37.4461
G01 X7.4557 Y37.4272
G01 X7.4600 Y37.4080
G01 X7.4646 Y37.3790
G01 X7.4666 Y37.3594
G01 X7.4676 Y37.3300
G01 X7.4676 Y37.0651
G01 X13.6051 Y37.0651
G01 X13.6051 Y37.2650
G01 X13.6062 Y37.2944
G01 X13.6082 Y37.3140
G01 X13.6110 Y37.3334
G01 X13.6149 Y37.3526
G01 X13.6196 Y37.3717
G01 X13.6253 Y37.3905
G01 X13.6320 Y37.4090
G01 X13.6395 Y37.4271
G01 X13.6479 Y37.4448
G01 X13.6571 Y37.4622
G01 X13.6726 Y37.4872
G01 X13.6839 Y37.5033
G01 X13.6959 Y37.5188
G01 X13.7088 Y37.5336
G01 X13.7293 Y37.5547
G01 X13.7439 Y37.5679
G01 X13.7591 Y37.5803
G01 X13.7748 Y37.5920
G01 X13.7912 Y37.6029
G01 X13.8166 Y37.6178
G01 X13.8341 Y37.6266
G01 X13.8612 Y37.6382
G01 X13.8890 Y37.6478
G01 X13.9080 Y37.6530
G01 X13.9271 Y37.6573
G01 X13.9465 Y37.6607
G01 X13.9757 Y37.6639
G01 X14.0051 Y37.6650
G01 X17.5051 Y37.6650
G01 X17.5346 Y37.6639
G01 X17.5541 Y37.6620
G01 X17.5735 Y37.6591
G01 X17.6023 Y37.6530
G01 X17.6306 Y37.6448
G01 X17.6582 Y37.6346
G01 X17.6762 Y37.6266
G01 X17.6937 Y37.6178
G01 X17.7191 Y37.6029
G01 X17.7434 Y37.5863
G01 X17.7589 Y37.5742
G01 X17.7738 Y37.5614
G01 X17.7948 Y37.5408
G01 X17.8144 Y37.5188
G01 X17.8322 Y37.4953
G01 X17.8482 Y37.4706
G01 X17.8624 Y37.4448
G01 X17.8747 Y37.4181
G01 X17.8850 Y37.3905
G01 X17.8907 Y37.3717
G01 X17.8954 Y37.3526
G01 X17.9008 Y37.3237
G01 X17.9041 Y37.2944
G01 X17.9051 Y37.2650
G01 X17.9050 Y35.5552
G01 X17.9041 Y35.5356
G01 X17.9021 Y35.5160
G01 X17.8993 Y35.4966
G01 X17.8954 Y35.4774
G01 X17.8907 Y35.4583
G01 X17.8850 Y35.4395
G01 X17.8783 Y35.4210
G01 X17.8708 Y35.4029
G01 X17.8624 Y35.3852
G01 X17.8532 Y35.3678
G01 X17.8431 Y35.3510
G01 X17.8322 Y35.3347
G01 X17.8205 Y35.3189
G01 X17.8080 Y35.3037
G01 X17.7948 Y35.2892
G01 X17.7810 Y35.2753
G01 X17.7664 Y35.2621
G01 X17.7512 Y35.2497
G01 X17.7355 Y35.2380
G01 X17.7191 Y35.2271
G01 X17.7023 Y35.2170
G01 X17.6850 Y35.2077
G01 X17.6672 Y35.1993
G01 X17.6491 Y35.1918
G01 X17.6306 Y35.1852
G01 X17.6118 Y35.1795
G01 X17.5928 Y35.1747
G01 X17.5735 Y35.1709
G01 X17.5541 Y35.1680
G01 X17.5346 Y35.1661
G01 X17.5051 Y35.1650
G00 Z2.0000
G00 X17.5051 Y37.7050
G01 F60.00
G01 Z-0.1100
G01 F100.00
G01 X14.0051 Y37.7050
G01 X13.9757 Y37.7061
G01 X13.9465 Y37.7093
G01 X13.9175 Y37.7147
G01 X13.8985 Y37.7195
G01 X13.8797 Y37.7252
G01 X13.8612 Y37.7318
G01 X13.8431 Y37.7393
G01 X13.8166 Y37.7522
G01 X13.7995 Y37.7619
G01 X13.7829 Y37.7724
G01 X13.7591 Y37.7897
G01 X13.7439 Y37.8021
G01 X13.7223 Y37.8222
G01 X13.7088 Y37.8364
G01 X13.6959 Y37.8512
G01 X13.6839 Y37.8667
G01 X13.6726 Y37.8828
G01 X13.6571 Y37.9078
G01 X13.6479 Y37.9252
G01 X13.6395 Y37.9429
G01 X13.6320 Y37.9610
G01 X13.6253 Y37.9795
G01 X13.6196 Y37.9983
G01 X13.6149 Y38.0174
G01 X13.6110 Y38.0366
G01 X13.6082 Y38.0560
G01 X13.6062 Y38.0756
G01 X13.6051 Y38.1050
G01 X13.6051 Y38.3049
G01 X7.4676 Y38.3049
G01 X7.4675 Y38.1602
G01 X7.4657 Y38.1308
G01 X7.4618 Y38.1016
G01 X7.4579 Y38.0824
G01 X7.4532 Y38.0633
G01 X7.4475 Y38.0445
G01 X7.4408 Y38.0260
G01 X7.4333 Y38.0079
G01 X7.4249 Y37.9902
G01 X7.4157 Y37.9728
G01 X7.4056 Y37.9560
G01 X7.3947 Y37.9397
G01 X7.3830 Y37.9239
G01 X7.3705 Y37.9087
G01 X7.3573 Y37.8942
G01 X7.3435 Y37.8803
G01 X7.3289 Y37.8671
G01 X7.3059 Y37.8487
G01 X7.2899 Y37.8374
G01 X7.2733 Y37.8269
G01 X7.2562 Y37.8172
G01 X7.2387 Y37.8084
G01 X7.2207 Y37.8004
G01 X7.1931 Y37.7902
G01 X7.1743 Y37.7845
G01 X7.1553 Y37.7797
G01 X7.1360 Y37.7759
G01 X7.1069 Y37.7719
G01 X7.0873 Y37.7705
G01 X7.0676 Y37.7700
G01 X4.3676 Y37.7700
G01 X4.3480 Y37.7705
G01 X4.3284 Y37.7719
G01 X4.2993 Y37.7759
G01 X4.2705 Y37.7820
G01 X4.2422 Y37.7902
G01 X4.2146 Y37.8004
G01 X4.1966 Y37.8084
G01 X4.1791 Y37.8172
G01 X4.1620 Y37.8269
G01 X4.1454 Y37.8374
G01 X4.1216 Y37.8547
G01 X4.0990 Y37.8736
G01 X4.0780 Y37.8942
G01 X4.0584 Y37.9162
G01 X4.0406 Y37.9397
G01 X4.0246 Y37.9644
G01 X4.0104 Y37.9902
G01 X3.9981 Y38.0169
G01 X3.9878 Y38.0445
G01 X3.9821 Y38.0633
G01 X3.9774 Y38.0824
G01 X3.9720 Y38.1113
G01 X3.9687 Y38.1406
G01 X3.9676 Y38.1700
G01 X3.9676 Y39.8700
G01 X3.9687 Y39.8994
G01 X3.9707 Y39.9190
G01 X3.9735 Y39.9384
G01 X3.9796 Y39.9672
G01 X3.9878 Y39.9955
G01 X3.9945 Y40.0140
G01 X4.0020 Y40.0321
G01 X4.0149 Y40.0586
G01 X4.0246 Y40.0756
G01 X4.0351 Y40.0922
G01 X4.0523 Y40.1161
G01 X4.0713 Y40.1386
G01 X4.0918 Y40.1597
G01 X4.1139 Y40.1792
G01 X4.1373 Y40.1970
G01 X4.1620 Y40.2131
G01 X4.1791 Y40.2228
G01 X4.1966 Y40.2316
G01 X4.2146 Y40.2396
G01 X4.2329 Y40.2466
G01 X4.2610 Y40.2555
G01 X4.2800 Y40.2603
G01 X4.2993 Y40.2641
G01 X4.3284 Y40.2681
G01 X4.3480 Y40.2695
G01 X4.3676 Y40.2700
G01 X7.0775 Y40.2699
G01 X7.0971 Y40.2689
G01 X7.1263 Y40.2657
G01 X7.1457 Y40.2623
G01 X7.1743 Y40.2555
G01 X7.1931 Y40.2498
G01 X7.2207 Y40.2396
G01 X7.2475 Y40.2273
G01 X7.2648 Y40.2180
G01 X7.2816 Y40.2079
G01 X7.3059 Y40.1913
G01 X7.3289 Y40.1729
G01 X7.3505 Y40.1528
G01 X7.3705 Y40.1313
G01 X7.3830 Y40.1161
G01 X7.3947 Y40.1003
G01 X7.4107 Y40.0756
G01 X7.4204 Y40.0586
G01 X7.4292 Y40.0410
G01 X7.4372 Y40.0231
G01 X7.4443 Y40.0048
G01 X7.4504 Y39.9861
G01 X7.4557 Y39.9672
G01 X7.4600 Y39.9480
G01 X7.4646 Y39.9190
G01 X7.4666 Y39.8994
G01 X7.4676 Y39.8700
G01 X7.4676 Y39.6051
G01 X13.6051 Y39.6051
G01 X13.6051 Y39.8050
G01 X13.6062 Y39.8344
G01 X13.6082 Y39.8540
G01 X13.6110 Y39.8734
G01 X13.6149 Y39.8926
G01 X13.6196 Y39.9117
G01 X13.6253 Y39.9305
G01 X13.6320 Y39.9490
G01 X13.6395 Y39.9671
G01 X13.6479 Y39.9848
G01 X13.6571 Y40.0022
G01 X13.6672 Y40.0190
G01 X13.6839 Y40.0433
G01 X13.6959 Y40.0588
G01 X13.7088 Y40.0736
G01 X13.7293 Y40.0947
G01 X13.7439 Y40.1079
G01 X13.7591 Y40.1203
G01 X13.7748 Y40.1320
G01 X13.7912 Y40.1429
G01 X13.8080 Y40.1530
G01 X13.8253 Y40.1623
G01 X13.8521 Y40.1746
G01 X13.8797 Y40.1848
G01 X13.8985 Y40.1905
G01 X13.9271 Y40.1973
G01 X13.9465 Y40.2007
G01 X13.9757 Y40.2039
G01 X14.0051 Y40.2050
G01 X17.5051 Y40.2050
G01 X17.5346 Y40.2039
G01 X17.5541 Y40.2020
G01 X17.5735 Y40.1991
G01 X17.5928 Y40.1953
G01 X17.6118 Y40.1905
G01 X17.6399 Y40.1816
G01 X17.6672 Y40.1707
G01 X17.6937 Y40.1578
G01 X17.7191 Y40.1429
G01 X17.7434 Y40.1263
G01 X17.7664 Y40.1079
G01 X17.7810 Y40.0947
G01 X17.7948 Y40.0808
G01 X17.8144 Y40.0588
G01 X17.8322 Y40.0353
G01 X17.8482 Y40.0106
G01 X17.8579 Y39.9936
G01 X17.8667 Y39.9760
G01 X17.8783 Y39.9490
G01 X17.8879 Y39.9211
G01 X17.8954 Y39.8926
G01 X17.9008 Y39.8637
G01 X17.9041 Y39.8344
G01 X17.9051 Y39.8050
G01 X17.9050 Y38.0952
G01 X17.9041 Y38.0756
G01 X17.9021 Y38.0560
G01 X17.8975 Y38.0270
G01 X17.8932 Y38.0078
G01 X17.8879 Y37.9889
G01 X17.8818 Y37.9702
G01 X17.8747 Y37.9519
G01 X17.8667 Y37.9340
G01 X17.8579 Y37.9164
G01 X17.8482 Y37.8994
G01 X17.8377 Y37.8828
G01 X17.8264 Y37.8667
G01 X17.8144 Y37.8512
G01 X17.8015 Y37.8364
G01 X17.7880 Y37.8222
G01 X17.7738 Y37.8086
G01 X17.7589 Y37.7958
G01 X17.7434 Y37.7837
G01 X17.7274 Y37.7724
G01 X17.7108 Y37.7619
G01 X17.6937 Y37.7522
G01 X17.6762 Y37.7434
G01 X17.6582 Y37.7354
G01 X17.6399 Y37.7284
G01 X17.6213 Y37.7222
G01 X17.6023 Y37.7170
G01 X17.5832 Y37.7127
G01 X17.5638 Y37.7093
G01 X17.5444 Y37.7069
G01 X17.5248 Y37.7055
G01 X17.5051 Y37.7050
G00 Z2.0000
G00 X17.5051 Y40.2450
G01 F60.00
G01 Z-0.1100
G01 F100.00
G01 X14.0051 Y40.2450
G01 X13.9757 Y40.2461
G01 X13.9465 Y40.2493
G01 X13.9175 Y40.2547
G01 X13.8985 Y40.2595
G01 X13.8797 Y40.2652
G01 X13.8612 Y40.2718
G01 X13.8431 Y40.2793
G01 X13.8166 Y40.2922
G01 X13.7995 Y40.3019
G01 X13.7829 Y40.3124
G01 X13.7591 Y40.3297
G01 X13.7439 Y40.3421
G01 X13.7223 Y40.3622
G01 X13.7088 Y40.3764
G01 X13.6959 Y40.3912
G01 X13.6839 Y40.4067
G01 X13.6726 Y40.4228
G01 X13.6571 Y40.4478
G01 X13.6479 Y40.4652
G01 X13.6395 Y40.4829
G01 X13.6320 Y40.5010
G01 X13.6253 Y40.5195
G01 X13.6196 Y40.5383
G01 X13.6149 Y40.5574
G01 X13.6110 Y40.5766
G01 X13.6082 Y40.5960
G01 X13.6062 Y40.6156
G01 X13.6051 Y40.6450
G01 X13.6051 Y40.8449
G01 X7.4676 Y40.8449
G01 X7.4675 Y40.7002
G01 X7.4657 Y40.6708
G01 X7.4618 Y40.6416
G01 X7.4579 Y40.6224
G01 X7.4532 Y40.6033
G01 X7.4475 Y40.5845
G01 X7.4408 Y40.5660
G01 X7.4333 Y40.5479
G01 X7.4249 Y40.5302
G01 X7.4157 Y40.5128
G01 X7.4056 Y40.4960
G01 X7.3947 Y40.4797
G01 X7.3830 Y40.4639
G01 X7.3705 Y40.4487
G01 X7.3573 Y40.4342
G01 X7.3435 Y40.4203
G01 X7.3289 Y40.4071
G01 X7.3059 Y40.3887
G01 X7.2899 Y40.3774
G01 X7.2733 Y40.3669
G01 X7.2562 Y40.3572
G01 X7.2387 Y40.3484
G01 X7.2207 Y40.3404
G01 X7.1931 Y40.3302
G01 X7.1743 Y40.3245
G01 X7.1553 Y40.3197
G01 X7.1360 Y40.3159
G01 X7.1069 Y40.3119
G01 X7.0873 Y40.3105
G01 X7.0676 Y40.3100
G01 X4.3676 Y40.3100
G01 X4.3480 Y40.3105
G01 X4.3284 Y40.3119
G01 X4.2993 Y40.3159
G01 X4.2705 Y40.3220
G01 X4.2422 Y40.3302
G01 X4.2146 Y40.3404
G01 X4.1966 Y40.3484
G01 X4.1791 Y40.3572
G01 X4.1620 Y40.3669
G01 X4.1454 Y40.3774
G01 X4.1216 Y40.3947
G01 X4.0990 Y40.4136
G01 X4.0780 Y40.4342
G01 X4.0584 Y40.4562
G01 X4.0406 Y40.4797
G01 X4.0246 Y40.5044
G01 X4.0104 Y40.5302
G01 X3.9981 Y40.5569
G01 X3.9878 Y40.5845
G01 X3.9821 Y40.6033
G01 X3.9774 Y40.6224
G01 X3.9720 Y40.6513
G01 X3.9687 Y40.6806
G01 X3.9676 Y40.7100
G01 X3.9676 Y42.4100
G01 X3.9687 Y42.4394
G01 X3.9707 Y42.4590
G01 X3.9735 Y42.4784
G01 X3.9796 Y42.5072
G01 X3.9878 Y42.5355
G01 X3.9945 Y42.5540
G01 X4.0020 Y42.5721
G01 X4.0149 Y42.5986
G01 X4.0297 Y42.6240
G01 X4.0464 Y42.6483
G01 X4.0648 Y42.6713
G01 X4.0780 Y42.6858
G01 X4.0918 Y42.6997
G01 X4.1139 Y42.7192
G01 X4.1294 Y42.7313
G01 X4.1454 Y42.7426
G01 X4.1620 Y42.7531
G01 X4.1791 Y42.7628
G01 X4.2056 Y42.7757
G01 X4.2329 Y42.7866
G01 X4.2515 Y42.7928
G01 X4.2705 Y42.7980
G01 X4.2993 Y42.8041
G01 X4.3284 Y42.8081
G01 X4.3480 Y42.8095
G01 X4.3676 Y42.8100
G01 X7.0775 Y42.8099
G01 X7.1069 Y42.8081
G01 X7.1360 Y42.8041
G01 X7.1648 Y42.7980
G01 X7.1838 Y42.7928
G01 X7.2116 Y42.7832
G01 X7.2297 Y42.7757
G01 X7.2562 Y42.7628
G01 X7.2733 Y42.7531
G01 X7.2899 Y42.7426
G01 X7.3137 Y42.7253
G01 X7.3363 Y42.7064
G01 X7.3505 Y42.6928
G01 X7.3640 Y42.6786
G01 X7.3830 Y42.6561
G01 X7.3947 Y42.6403
G01 X7.4107 Y42.6156
G01 X7.4204 Y42.5986
G01 X7.4292 Y42.5810
G01 X7.4372 Y42.5631
G01 X7.4443 Y42.5448
G01 X7.4504 Y42.5261
G01 X7.4557 Y42.5072
G01 X7.4600 Y42.4880
G01 X7.4646 Y42.4590
G01 X7.4666 Y42.4394
G01 X7.4676 Y42.4100
G01 X7.4676 Y42.1451
G01 X13.6051 Y42.1451
G01 X13.6051 Y42.3450
G01 X13.6062 Y42.3744
G01 X13.6082 Y42.3940
G01 X13.6110 Y42.4134
G01 X13.6149 Y42.4326
G01 X13.6196 Y42.4517
G01 X13.6253 Y42.4705
G01 X13.6320 Y42.4890
G01 X13.6395 Y42.5071
G01 X13.6479 Y42.5248
G01 X13.6571 Y42.5422
G01 X13.6672 Y42.5590
G01 X13.6839 Y42.5833
G01 X13.6959 Y42.5988
G01 X13.7088 Y42.6136
G01 X13.7293 Y42.6347
G01 X13.7439 Y42.6479
G01 X13.7591 Y42.6603
G01 X13.7748 Y42.6720
G01 X13.7912 Y42.6829
G01 X13.8080 Y42.6930
G01 X13.8253 Y42.7023
G01 X13.8521 Y42.7146
G01 X13.8797 Y42.7248
G01 X13.8985 Y42.7305
G01 X13.9271 Y42.7373
G01 X13.9465 Y42.7407
G01 X13.9757 Y42.7439
G01 X14.0051 Y42.7450
G01 X17.5051 Y42.7450
G01 X17.5346 Y42.7439
G01 X17.5541 Y42.7420
G01 X17.5735 Y42.7391
G01 X17.5928 Y42.7353
G01 X17.6118 Y42.7305
G01 X17.6399 Y42.7216
G01 X17.6672 Y42.7107
G01 X17.6937 Y42.6978
G01 X17.7191 Y42.6829
G01 X17.7434 Y42.6663
G01 X17.7664 Y42.6479
G01 X17.7810 Y42.6347
G01 X17.7948 Y42.6208
G01 X17.8144 Y42.5988
G01 X17.8322 Y42.5753
G01 X17.8482 Y42.5506
G01 X17.8579 Y42.5336
G01 X17.8667 Y42.5160
G01 X17.8783 Y42.4890
G01 X17.8879 Y42.4611
G01 X17.8954 Y42.4326
G01 X17.9008 Y42.4037
G01 X17.9041 Y42.3744
G01 X17.9051 Y42.3450
G01 X17.9050 Y40.6352
G01 X17.9041 Y40.6156
G01 X17.9021 Y40.5960
G01 X17.8975 Y40.5670
G01 X17.8932 Y40.5478
G01 X17.8879 Y40.5289
G01 X17.8818 Y40.5102
G01 X17.8747 Y40.4919
G01 X17.8667 Y40.4740
G01 X17.8579 Y40.4564
G01 X17.8482 Y40.4394
G01 X17.8377 Y40.4228
G01 X17.8264 Y40.4067
G01 X17.8144 Y40.3912
G01 X17.8015 Y40.3764
G01 X17.7880 Y40.3622
G01 X17.7738 Y40.3486
G01 X17.7589 Y40.3358
G01 X17.7434 Y40.3237
G01 X17.7274 Y40.3124
G01 X17.7108 Y40.3019
G01 X17.6937 Y40.2922
G01 X17.6762 Y40.2834
G01 X17.6582 Y40.2754
G01 X17.6399 Y40.2684
G01 X17.6213 Y40.2622
G01 X17.6023 Y40.2570
G01 X17.5832 Y40.2527
G01 X17.5638 Y40.2493
G01 X17.5444 Y40.2469
G01 X17.5248 Y40.2455
G01 X17.5051 Y40.2450
G00 Z2.0000
G00 X17.5051 Y42.7850
G01 F60.00
G01 Z-0.1100
G01 F100.00
G01 X14.0051 Y42.7850
G01 X13.9757 Y42.7861
G01 X13.9465 Y42.7893
G01 X13.9175 Y42.7947
G01 X13.8985 Y42.7995
G01 X13.8797 Y42.8052
G01 X13.8612 Y42.8118
G01 X13.8431 Y42.8193
G01 X13.8166 Y42.8322
G01 X13.7995 Y42.8419
G01 X13.7829 Y42.8524
G01 X13.7591 Y42.8697
G01 X13.7439 Y42.8821
G01 X13.7223 Y42.9022
G01 X13.7088 Y42.9164
G01 X13.6959 Y42.9312
G01 X13.6839 Y42.9467
G01 X13.6726 Y42.9628
G01 X13.6571 Y42.9878
G01 X13.6479 Y43.0052
G01 X13.6395 Y43.0229
G01 X13.6320 Y43.0410
G01 X13.6253 Y43.0595
G01 X13.6196 Y43.0783
G01 X13.6149 Y43.0974
G01 X13.6110 Y43.1166
G01 X13.6082 Y43.1360
G01 X13.6062 Y43.1556
G01 X13.6051 Y43.1850
G01 X13.6051 Y43.3849
G01 X7.4676 Y43.3849
G01 X7.4675 Y43.2402
G01 X7.4657 Y43.2108
G01 X7.4618 Y43.1816
G01 X7.4579 Y43.1624
G01 X7.4532 Y43.1433
G01 X7.4475 Y43.1245
G01 X7.4408 Y43.1060
G01 X7.4333 Y43.0879
G01 X7.4249 Y43.0702
G01 X7.4157 Y43.0528
G01 X7.4056 Y43.0360
G01 X7.3947 Y43.0197
G01 X7.3830 Y43.0039
G01 X7.3705 Y42.9887
G01 X7.3573 Y42.9742
G01 X7.3435 Y42.9603
G01 X7.3289 Y42.9471
G01 X7.3059 Y42.9287
G01 X7.2899 Y42.9174
G01 X7.2733 Y42.9069
G01 X7.2562 Y42.8972
G01 X7.2387 Y42.8884
G01 X7.2207 Y42.8804
G01 X7.1931 Y42.8702
G01 X7.1743 Y42.8645
G01 X7.1553 Y42.8597
G01 X7.1360 Y42.8559
G01 X7.1069 Y42.8519
G01 X7.0873 Y42.8505
G01 X7.0676 Y42.8500
G01 X4.3676 Y42.8500
G01 X4.3480 Y42.8505
G01 X4.3284 Y42.8519
G01 X4.2993 Y42.8559
G01 X4.2705 Y42.8620
G01 X4.2422 Y42.8702
G01 X4.2146 Y42.8804
G01 X4.1966 Y42.8884
G01 X4.1791 Y42.8972
G01 X4.1620 Y42.9069
G01 X4.1454 Y42.9174
G01 X4.1216 Y42.9347
G01 X4.0990 Y42.9536
G01 X4.0780 Y42.9742
G01 X4.0584 Y42.9962
G01 X4.0406 Y43.0197
G01 X4.0246 Y43.0444
G01 X4.0104 Y43.0702
G01 X3.9981 Y43.0969
G01 X3.9878 Y43.1245
G01 X3.9821 Y43.1433
G01 X3.9774 Y43.1624
G01 X3.9720 Y43.1913
G01 X3.9687 Y43.2206
G01 X3.9676 Y43.2500
G01 X3.9676 Y44.9500
G01 X3.9687 Y44.9794
G01 X3.9707 Y44.9990
G01 X3.9735 Y45.0184
G01 X3.9796 Y45.0472
G01 X3.9878 Y45.0755
G01 X3.9945 Y45.0940
G01 X4.0020 Y45.1121
G01 X4.0149 Y45.1386
G01 X4.0246 Y45.1556
G01 X4.0351 Y45.1722
G01 X4.0523 Y45.1961
G01 X4.0713 Y45.2186
G01 X4.0918 Y45.2397
G01 X4.1139 Y45.2592
G01 X4.1373 Y45.2770
G01 X4.1620 Y45.2931
G01 X4.1791 Y45.3028
G01 X4.1966 Y45.3116
G01 X4.2146 Y45.3196
G01 X4.2329 Y45.3266
G01 X4.2610 Y45.3355
G01 X4.2800 Y45.3403
G01 X4.2993 Y45.3441
G01 X4.3284 Y45.3481
G01 X4.3480 Y45.3495
G01 X4.3676 Y45.3500
G01 X7.0775 Y45.3499
G01 X7.0971 Y45.3489
G01 X7.1263 Y45.3457
G01 X7.1457 Y45.3423
G01 X7.1743 Y45.3355
G01 X7.1931 Y45.3298
G01 X7.2207 Y45.3196
G01 X7.2475 Y45.3073
G01 X7.2648 Y45.2980
G01 X7.2816 Y45.2879
G01 X7.3059 Y45.2713
G01 X7.3289 Y45.2529
G01 X7.3505 Y45.2328
G01 X7.3705 Y45.2113
G01 X7.3830 Y45.1961
G01 X7.3947 Y45.1803
G01 X7.4107 Y45.1556
G01 X7.4204 Y45.1386
G01 X7.4292 Y45.1210
G01 X7.4372 Y45.1031
G01 X7.4443 Y45.0848
G01 X7.4504 Y45.0661
G01 X7.4557 Y45.0472
G01 X7.4600 Y45.0280
G01 X7.4646 Y44.9990
G01 X7.4666 Y44.9794
G01 X7.4676 Y44.9500
G01 X7.4676 Y44.6851
G01 X13.6051 Y44.6851
G01 X13.6051 Y44.8850
G01 X13.6062 Y44.9144
G01 X13.6082 Y44.9340
G01 X13.6110 Y44.9534
G01 X13.6149 Y44.9726
G01 X13.6196 Y44.9917
G01 X13.6253 Y45.0105
G01 X13.6320 Y45.0290
G01 X13.6395 Y45.0471
G01 X13.6479 Y45.0648
G01 X13.6571 Y45.0822
G01 X13.6672 Y45.0990
G01 X13.6839 Y45.1233
G01 X13.6959 Y45.1388
G01 X13.7088 Y45.1536
G01 X13.7293 Y45.1747
G01 X13.7439 Y45.1879
G01 X13.7591 Y45.2003
G01 X13.7748 Y45.2120
G01 X13.7912 Y45.2229
G01 X13.8080 Y45.2330
G01 X13.8253 Y45.2423
G01 X13.8521 Y45.2546
G01 X13.8797 Y45.2648
G01 X13.8985 Y45.2705
G01 X13.9271 Y45.2773
G01 X13.9465 Y45.2807
G01 X13.9757 Y45.2839
G01 X14.0051 Y45.2850
G01 X17.5051 Y45.2850
G01 X17.5346 Y45.2839
G01 X17.5541 Y45.2820
G01 X17.5735 Y45.2791
G01 X17.5928 Y45.2753
G01 X17.6118 Y45.2705
G01 X17.6399 Y45.2616
G01 X17.6672 Y45.2507
G01 X17.6937 Y45.2378
G01 X17.7191 Y45.2229
G01 X17.7434 Y45.2063
G01 X17.7664 Y45.1879
G01 X17.7810 Y45.1747
G01 X17.7948 Y45.1608
G01 X17.8144 Y45.1388
G01 X17.8322 Y45.1153
G01 X17.8482 Y45.0906
G01 X17.8579 Y45.0736
G01 X17.8667 Y45.0560
G01 X17.8783 Y45.0290
G01 X17.8879 Y45.0011
G01 X17.8954 Y44.9726
G01 X17.9008 Y44.9437
G01 X17.9041 Y44.9144
G01 X17.9051 Y44.8850
G01 X17.9050 Y43.1752
G01 X17.9041 Y43.1556
G01 X17.9021 Y43.1360
G01 X17.8975 Y43.1070
G01 X17.8932 Y43.0878
G01 X17.8879 Y43.0689
G01 X17.8818 Y43.0502
G01 X17.8747 Y43.0319
G01 X17.8667 Y43.0140
G01 X17.8579 Y42.9964
G01 X17.8482 Y42.9794
G01 X17.8377 Y42.9628
G01 X17.8264 Y42.9467
G01 X17.8144 Y42.9312
G01 X17.8015 Y42.9164
G01 X17.7880 Y42.9022
G01 X17.7738 Y42.8886
G01 X17.7589 Y42.8758
G01 X17.7434 Y42.8637
G01 X17.7274 Y42.8524
G01 X17.7108 Y42.8419
G01 X17.6937 Y42.8322
G01 X17.6762 Y42.8234
G01 X17.6582 Y42.8154
G01 X17.6399 Y42.8084
G01 X17.6213 Y42.8022
G01 X17.6023 Y42.7970
G01 X17.5832 Y42.7927
G01 X17.5638 Y42.7893
G01 X17.5444 Y42.7869
G01 X17.5248 Y42.7855
G01 X17.5051 Y42.7850
G00 Z2.0000
G00 X17.5051 Y45.3250
G01 F60.00
G01 Z-0.1100
G01 F100.00
G01 X14.0051 Y45.3250
G01 X13.9757 Y45.3261
G01 X13.9465 Y45.3293
G01 X13.9175 Y45.3347
G01 X13.8985 Y45.3395
G01 X13.8797 Y45.3452
G01 X13.8612 Y45.3518
G01 X13.8431 Y45.3593
G01 X13.8166 Y45.3722
G01 X13.7995 Y45.3819
G01 X13.7829 Y45.3924
G01 X13.7591 Y45.4097
G01 X13.7439 Y45.4221
G01 X13.7223 Y45.4422
G01 X13.7088 Y45.4564
G01 X13.6959 Y45.4712
G01 X13.6839 Y45.4867
G01 X13.6726 Y45.5028
G01 X13.6571 Y45.5278
G01 X13.6479 Y45.5452
G01 X13.6395 Y45.5629
G01 X13.6320 Y45.5810
G01 X13.6253 Y45.5995
G01 X13.6196 Y45.6183
G01 X13.6149 Y45.6374
G01 X13.6110 Y45.6566
G01 X13.6082 Y45.6760
G01 X13.6062 Y45.6956
G01 X13.6051 Y45.7250
G01 X13.6051 Y45.9249
G01 X7.4676 Y45.9249
G01 X7.4675 Y45.7802
G01 X7.4657 Y45.7508
G01 X7.4618 Y45.7216
G01 X7.4579 Y45.7024
G01 X7.4532 Y45.6833
G01 X7.4475 Y45.6645
G01 X7.4408 Y45.6460
G01 X7.4333 Y45.6279
G01 X7.4249 Y45.6102
G01 X7.4157 Y45.5928
G01 X7.4056 Y45.5760
G01 X7.3947 Y45.5597
G01 X7.3830 Y45.5439
G01 X7.3705 Y45.5287
G01 X7.3573 Y45.5142
G01 X7.3435 Y45.5003
G01 X7.3289 Y45.4871
G01 X7.3059 Y45.4687
G01 X7.2899 Y45.4574
G01 X7.2733 Y45.4469
G01 X7.2562 Y45.4372
G01 X7.2387 Y45.4284
G01 X7.2207 Y45.4204
G01 X7.1931 Y45.4102
G01 X7.1743 Y45.4045
G01 X7.1553 Y45.3997
G01 X7.1360 Y45.3959
G01 X7.1069 Y45.3919
G01 X7.0873 Y45.3905
G01 X7.0676 Y45.3900
G01 X4.3676 Y45.3900
G01 X4.3480 Y45.3905
G01 X4.3284 Y45.3919
G01 X4.2993 Y45.3959
G01 X4.2705 Y45.4020
G01 X4.2422 Y45.4102
G01 X4.2146 Y45.4204
G01 X4.1966 Y45.4284
G01 X4.1791 Y45.4372
G01 X4.1620 Y45.4469
G01 X4.1454 Y45.4574
G01 X4.1216 Y45.4747
G01 X4.0990 Y45.4936
G01 X4.0780 Y45.5142
G01 X4.0584 Y45.5362
G01 X4.0406 Y45.5597
G01 X4.0246 Y45.5844
G01 X4.0104 Y45.6102
G01 X3.9981 Y45.6369
G01 X3.9878 Y45.6645
G01 X3.9821 Y45.6833
G01 X3.9774 Y45.7024
G01 X3.9720 Y45.7313
G01 X3.9687 Y45.7606
G01 X3.9676 Y45.7900
G01 X3.9676 Y47.4900
G01 X3.9687 Y47.5194
G01 X3.9707 Y47.5390
G01 X3.9735 Y47.5584
G01 X3.9796 Y47.5872
G01 X3.9878 Y47.6155
G01 X3.9945 Y47.6340
G01 X4.0020 Y47.6521
G01 X4.0149 Y47.6786
G01 X4.0246 Y47.6956
G01 X4.0351 Y47.7122
G01 X4.0523 Y47.7361
G01 X4.0713 Y47.7586
G01 X4.0918 Y47.7797
G01 X4.1139 Y47.7992
G01 X4.1373 Y47.8170
G01 X4.1620 Y47.8331
G01 X4.1791 Y47.8428
G01 X4.1966 Y47.8516
G01 X4.2146 Y47.8596
G01 X4.2329 Y47.8666
G01 X4.2610 Y47.8755
G01 X4.2800 Y47.8803
G01 X4.2993 Y47.8841
G01 X4.3284 Y47.8881
G01 X4.3480 Y47.8895
G01 X4.3676 Y47.8900
G01 X7.0775 Y47.8899
G01 X7.0971 Y47.8889
G01 X7.1263 Y47.8857
G01 X7.1457 Y47.8823
G01 X7.1743 Y47.8755
G01 X7.1931 Y47.8698
G01 X7.2207 Y47.8596
G01 X7.2475 Y47.8473
G01 X7.2648 Y47.8380
G01 X7.2816 Y47.8279
G01 X7.3059 Y47.8113
G01 X7.3289 Y47.7929
G01 X7.3505 Y47.7728
G01 X7.3705 Y47.7513
G01 X7.3830 Y47.7361
G01 X7.3947 Y47.7203
G01 X7.4107 Y47.6956
G01 X7.4204 Y47.6786
G01 X7.4292 Y47.6610
G01 X7.4372 Y47.6431
G01 X7.4443 Y47.6248
G01 X7.4504 Y47.6061
G01 X7.4557 Y47.5872
G01 X7.4600 Y47.5680
G01 X7.4646 Y47.5390
G01 X7.4666 Y47.5194
G01 X7.4676 Y47.4900
G01 X7.4676 Y47.2251
G01 X13.6051 Y47.2251
G01 X13.6051 Y47.4250
G01 X13.6062 Y47.4544
G01 X13.6082 Y47.4740
G01 X13.6110 Y47.4934
G01 X13.6149 Y47.5126
G01 X13.6196 Y47.5317
G01 X13.6253 Y47.5505
G01 X13.6320 Y47.5690
G01 X13.6395 Y47.5871
G01 X13.6479 Y47.6048
G01 X13.6571 Y47.6222
G01 X13.6672 Y47.6390
G01 X13.6839 Y47.6633
G01 X13.6959 Y47.6788
G01 X13.7088 Y47.6936
G01 X13.7293 Y47.7147
G01 X13.7439 Y47.7279
G01 X13.7591 Y47.7403
G01 X13.7748 Y47.7520
G01 X13.7912 Y47.7629
G01 X13.8080 Y47.7730
G01 X13.8253 Y47.7823
G01 X13.8521 Y47.7946
G01 X13.8797 Y47.8048
G01 X13.8985 Y47.8105
G01 X13.9271 Y47.8173
G01 X13.9465 Y47.8207
G01 X13.9757 Y47.8239
G01 X14.0051 Y47.8250
G01 X17.5051 Y47.8250
G01 X17.5346 Y47.8239
G01 X17.5541 Y47.8220
G01 X17.5735 Y47.8191
G01 X17.5928 Y47.8153
G01 X17.6118 Y47.8105
G01 X17.6399 Y47.8016
G01 X17.6672 Y47.7907
G01 X17.6937 Y47.7778
G01 X17.7191 Y47.7629
G01 X17.7434 Y47.7463
G01 X17.7664 Y47.7279
G01 X17.7810 Y47.7147
G01 X17.7948 Y47.7008
G01 X17.8144 Y47.6788
G01 X17.8322 Y47.6553
G01 X17.8482 Y47.6306
G01 X17.8579 Y47.6136
G01 X17.8667 Y47.5960
G01 X17.8783 Y47.5690
G01 X17.8879 Y47.5411
G01 X17.8954 Y47.5126
G01 X17.9008 Y47.4837
G01 X17.9041 Y47.4544
G01 X17.9051 Y47.4250
G01 X17.9050 Y45.7152
G01 X17.9041 Y45.6956
G01 X17.9021 Y45.6760
G01 X17.8975 Y45.6470
G01 X17.8932 Y45.6278
G01 X17.8879 Y45.6089
G01 X17.8818 Y45.5902
G01 X17.8747 Y45.5719
G01 X17.8667 Y45.5540
G01 X17.8579 Y45.5364
G01 X17.8482 Y45.5194
G01 X17.8377 Y45.5028
G01 X17.8264 Y45.4867
G01 X17.8144 Y45.4712
G01 X17.8015 Y45.4564
G01 X17.7880 Y45.4422
G01 X17.7738 Y45.4286
G01 X17.7589 Y45.4158
G01 X17.7434 Y45.4037
G01 X17.7274 Y45.3924
G01 X17.7108 Y45.3819
G01 X17.6937 Y45.3722
G01 X17.6762 Y45.3634
G01 X17.6582 Y45.3554
G01 X17.6399 Y45.3484
G01 X17.6213 Y45.3422
G01 X17.6023 Y45.3370
G01 X17.5832 Y45.3327
G01 X17.5638 Y45.3293
G01 X17.5444 Y45.3269
G01 X17.5248 Y45.3255
G01 X17.5051 Y45.3250
G00 Z2.0000
G00 X17.5051 Y47.8650
G01 F60.00
G01 Z-0.1100
G01 F100.00
G01 X14.0051 Y47.8650
G01 X13.9757 Y47.8661
G01 X13.9465 Y47.8693
G01 X13.9175 Y47.8747
G01 X13.8985 Y47.8795
G01 X13.8797 Y47.8852
G01 X13.8612 Y47.8918
G01 X13.8431 Y47.8993
G01 X13.8166 Y47.9122
G01 X13.7995 Y47.9219
G01 X13.7829 Y47.9324
G01 X13.7591 Y47.9497
G01 X13.7439 Y47.9621
G01 X13.7223 Y47.9822
G01 X13.7088 Y47.9964
G01 X13.6959 Y48.0112
G01 X13.6839 Y48.0267
G01 X13.6726 Y48.0428
G01 X13.6571 Y48.0678
G01 X13.6479 Y48.0852
G01 X13.6395 Y48.1029
G01 X13.6320 Y48.1210
G01 X13.6253 Y48.1395
G01 X13.6196 Y48.1583
G01 X13.6149 Y48.1774
G01 X13.6110 Y48.1966
G01 X13.6082 Y48.2160
G01 X13.6062 Y48.2356
G01 X13.6051 Y48.2650
G01 X13.6051 Y48.4649
G01 X7.4676 Y48.4649
G01 X7.4675 Y48.3202
G01 X7.4657 Y48.2908
G01 X7.4618 Y48.2616
G01 X7.4579 Y48.2424
G01 X7.4532 Y48.2233
G01 X7.4475 Y48.2045
G01 X7.4408 Y48.1860
G01 X7.4333 Y48.1679
G01 X7.4249 Y48.1502
G01 X7.4157 Y48.1328
G01 X7.4056 Y48.1160
G01 X7.3947 Y48.0997
G01 X7.3830 Y48.0839
G01 X7.3705 Y48.0687
G01 X7.3573 Y48.0542
G01 X7.3435 Y48.0403
G01 X7.3289 Y48.0271
G01 X7.3059 Y48.0087
G01 X7.2899 Y47.9974
G01 X7.2733 Y47.9869
G01 X7.2562 Y47.9772
G01 X7.2387 Y47.9684
G01 X7.2207 Y47.9604
G01 X7.1931 Y47.9502
G01 X7.1743 Y47.9445
G01 X7.1553 Y47.9397
G01 X7.1360 Y47.9359
G01 X7.1069 Y47.9319
G01 X7.0873 Y47.9305
G01 X7.0676 Y47.9300
G01 X4.3676 Y47.9300
G01 X4.3480 Y47.9305
G01 X4.3284 Y47.9319
G01 X4.2993 Y47.9359
G01 X4.2705 Y47.9420
G01 X4.2422 Y47.9502
G01 X4.2146 Y47.9604
G01 X4.1966 Y47.9684
G01 X4.1791 Y47.9772
G01 X4.1620 Y47.9869
G01 X4.1454 Y47.9974
G01 X4.1216 Y48.0147
G01 X4.0990 Y48.0336
G01 X4.0780 Y48.0542
G01 X4.0584 Y48.0762
G01 X4.0406 Y48.0997
G01 X4.0246 Y48.1244
G01 X4.0104 Y48.1502
G01 X3.9981 Y48.1769
G01 X3.9878 Y48.2045
G01 X3.9821 Y48.2233
G01 X3.9774 Y48.2424
G01 X3.9720 Y48.2713
G01 X3.9687 Y48.3006
G01 X3.9676 Y48.3300
G01 X3.9676 Y50.0300
G01 X3.9687 Y50.0594
G01 X3.9707 Y50.0790
G01 X3.9735 Y50.0984
G01 X3.9796 Y50.1272
G01 X3.9878 Y50.1555
G01 X3.9945 Y50.1740
G01 X4.0020 Y50.1921
G01 X4.0149 Y50.2186
G01 X4.0246 Y50.2356
G01 X4.0351 Y50.2522
G01 X4.0523 Y50.2761
G01 X4.0713 Y50.2986
G01 X4.0918 Y50.3197
G01 X4.1139 Y50.3392
G01 X4.1373 Y50.3570
G01 X4.1620 Y50.3731
G01 X4.1791 Y50.3828
G01 X4.1966 Y50.3916
G01 X4.2146 Y50.3996
G01 X4.2329 Y50.4066
G01 X4.2610 Y50.4155
G01 X4.2800 Y50.4203
G01 X4.2993 Y50.4241
G01 X4.3284 Y50.4281
G01 X4.3480 Y50.4295
G01 X4.3676 Y50.4300
G01 X7.0775 Y50.4299
G01 X7.0971 Y50.4289
G01 X7.1263 Y50.4257
G01 X7.1457 Y50.4223
G01 X7.1743 Y50.4155
G01 X7.1931 Y50.4098
G01 X7.2207 Y50.3996
G01 X7.2475 Y50.3873
G01 X7.2648 Y50.3780
G01 X7.2816 Y50.3679
G01 X7.3059 Y50.3513
G01 X7.3289 Y50.3329
G01 X7.3505 Y50.3128
G01 X7.3705 Y50.2913
G01 X7.3830 Y50.2761
G01 X7.3947 Y50.2603
G01 X7.4107 Y50.2356
G01 X7.4204 Y50.2186
G01 X7.4292 Y50.2010
G01 X7.4372 Y50.1831
G01 X7.4443 Y50.1648
G01 X7.4504 Y50.1461
G01 X7.4557 Y50.1272
G01 X7.4600 Y50.1080
G01 X7.4646 Y50.0790
G01 X7.4666 Y50.0594
G01 X7.4676 Y50.0300
G01 X7.4676 Y49.7651
G01 X13.6051 Y49.7651
G01 X13.6051 Y49.9650
G01 X13.6062 Y49.9944
G01 X13.6082 Y50.0140
G01 X13.6110 Y50.0334
G01 X13.6149 Y50.0526
G01 X13.6196 Y50.0717
G01 X13.6253 Y50.0905
G01 X13.6320 Y50.1090
G01 X13.6395 Y50.1271
G01 X13.6479 Y50.1448
G01 X13.6571 Y50.1622
G01 X13.6672 Y50.1790
G01 X13.6839 Y50.2033
G01 X13.6959 Y50.2188
G01 X13.7088 Y50.2336
G01 X13.7293 Y50.2547
G01 X13.7439 Y50.2679
G01 X13.7591 Y50.2803
G01 X13.7748 Y50.2920
G01 X13.7912 Y50.3029
G01 X13.8080 Y50.3130
G01 X13.8253 Y50.3223
G01 X13.8521 Y50.3346
G01 X13.8797 Y50.3448
G01 X13.8985 Y50.3505
G01 X13.9271 Y50.3573
G01 X13.9465 Y50.3607
G01 X13.9757 Y50.3639
G01 X14.0051 Y50.3650
G01 X17.5051 Y50.3650
G01 X17.5346 Y50.3639
G01 X17.5541 Y50.3620
G01 X17.5735 Y50.3591
G01 X17.6023 Y50.3530
G01 X17.6306 Y50.3448
G01 X17.6582 Y50.3346
G01 X17.6762 Y50.3266
G01 X17.6937 Y50.3178
G01 X17.7191 Y50.3029
G01 X17.7434 Y50.2863
G01 X17.7589 Y50.2742
G01 X17.7738 Y50.2614
G01 X17.7948 Y50.2408
G01 X17.8144 Y50.2188
G01 X17.8322 Y50.1953
G01 X17.8482 Y50.1706
G01 X17.8624 Y50.1448
G01 X17.8747 Y50.1181
G01 X17.8850 Y50.0905
G01 X17.8907 Y50.0717
G01 X17.8954 Y50.0526
G01 X17.9008 Y50.0237
G01 X17.9041 Y49.9944
G01 X17.9051 Y49.9650
G01 X17.9050 Y48.2552
G01 X17.9041 Y48.2356
G01 X17.9021 Y48.2160
G01 X17.8993 Y48.1966
G01 X17.8954 Y48.1774
G01 X17.8907 Y48.1583
G01 X17.8850 Y48.1395
G01 X17.8783 Y48.1210
G01 X17.8708 Y48.1029
G01 X17.8624 Y48.0852
G01 X17.8532 Y48.0678
G01 X17.8431 Y48.0510
G01 X17.8322 Y48.0347
G01 X17.8205 Y48.0189
G01 X17.8080 Y48.0037
G01 X17.7948 Y47.9892
G01 X17.7810 Y47.9753
G01 X17.7664 Y47.9621
G01 X17.7512 Y47.9497
G01 X17.7355 Y47.9380
G01 X17.7191 Y47.9271
G01 X17.7023 Y47.9170
G01 X17.6850 Y47.9077
G01 X17.6672 Y47.8993
G01 X17.6491 Y47.8918
G01 X17.6306 Y47.8852
G01 X17.6118 Y47.8795
G01 X17.5928 Y47.8747
G01 X17.5735 Y47.8709
G01 X17.5541 Y47.8680
G01 X17.5346 Y47.8661
G01 X17.5051 Y47.8650
G00 Z2.0000
G00 X17.5051 Y50.4050
G01 F60.00
G01 Z-0.1100
G01 F100.00
G01 X14.0051 Y50.4050
G01 X13.9757 Y50.4061
G01 X13.9465 Y50.4093
G01 X13.9175 Y50.4147
G01 X13.8985 Y50.4195
G01 X13.8797 Y50.4252
G01 X13.8612 Y50.4318
G01 X13.8431 Y50.4393
G01 X13.8166 Y50.4522
G01 X13.7995 Y50.4619
G01 X13.7829 Y50.4724
G01 X13.7591 Y50.4897
G01 X13.7439 Y50.5021
G01 X13.7223 Y50.5222
G01 X13.7088 Y50.5364
G01 X13.6959 Y50.5512
G01 X13.6839 Y50.5667
G01 X13.6726 Y50.5828
G01 X13.6571 Y50.6078
G01 X13.6479 Y50.6252
G01 X13.6395 Y50.6429
G01 X13.6320 Y50.6610
G01 X13.6253 Y50.6795
G01 X13.6196 Y50.6983
G01 X13.6149 Y50.7174
G01 X13.6110 Y50.7366
G01 X13.6082 Y50.7560
G01 X13.6062 Y50.7756
G01 X13.6051 Y50.8050
G01 X13.6051 Y51.0049
G01 X7.4676 Y51.0049
G01 X7.4675 Y50.8602
G01 X7.4657 Y50.8308
G01 X7.4618 Y50.8016
G01 X7.4579 Y50.7824
G01 X7.4532 Y50.7633
G01 X7.4475 Y50.7445
G01 X7.4408 Y50.7260
G01 X7.4333 Y50.7079
G01 X7.4249 Y50.6902
G01 X7.4157 Y50.6728
G01 X7.4056 Y50.6560
G01 X7.3947 Y50.6397
G01 X7.3830 Y50.6239
G01 X7.3705 Y50.6087
G01 X7.3573 Y50.5942
G01 X7.3435 Y50.5803
G01 X7.3289 Y50.5671
G01 X7.3059 Y50.5487
G01 X7.2899 Y50.5374
G01 X7.2733 Y50.5269
G01 X7.2562 Y50.5172
G01 X7.2387 Y50.5084
G01 X7.2207 Y50.5004
G01 X7.1931 Y50.4902
G01 X7.1743 Y50.4845
G01 X7.1553 Y50.4797
G01 X7.1360 Y50.4759
G01 X7.1069 Y50.4719
G01 X7.0873 Y50.4705
G01 X7.0676 Y50.4700
G01 X4.3676 Y50.4700
G01 X4.3480 Y50.4705
G01 X4.3284 Y50.4719
G01 X4.2993 Y50.4759
G01 X4.2705 Y50.4820
G01 X4.2422 Y50.4902
G01 X4.2146 Y50.5004
G01 X4.1966 Y50.5084
G01 X4.1791 Y50.5172
G01 X4.1620 Y50.5269
G01 X4.1454 Y50.5374
G01 X4.1216 Y50.5547
G01 X4.0990 Y50.5736
G01 X4.0780 Y50.5942
G01 X4.0584 Y50.6162
G01 X4.0406 Y50.6397
G01 X4.0246 Y50.6644
G01 X4.0104 Y50.6902
G01 X3.9981 Y50.7169
G01 X3.9878 Y50.7445
G01 X3.9821 Y50.7633
G01 X3.9774 Y50.7824
G01 X3.9720 Y50.8113
G01 X3.9687 Y50.8406
G01 X3.9676 Y50.8700
G01 X3.9676 Y52.5700
G01 X3.9687 Y52.5994
G01 X3.9707 Y52.6190
G01 X3.9735 Y52.6384
G01 X3.9796 Y52.6672
G01 X3.9878 Y52.6955
G01 X3.9945 Y52.7140
G01 X4.0020 Y52.7321
G01 X4.0149 Y52.7586
G01 X4.0246 Y52.7756
G01 X4.0351 Y52.7922
G01 X4.0523 Y52.8161
G01 X4.0713 Y52.8386
G01 X4.0918 Y52.8597
G01 X4.1139 Y52.8792
G01 X4.1373 Y52.8970
G01 X4.1620 Y52.9131
G01 X4.1791 Y52.9228
G01 X4.1966 Y52.9316
G01 X4.2146 Y52.9396
G01 X4.2329 Y52.9466
G01 X4.2610 Y52.9555
G01 X4.2800 Y52.9603
G01 X4.2993 Y52.9641
G01 X4.3284 Y52.9681
G01 X4.3480 Y52.9695
G01 X4.3676 Y52.9700
G01 X7.0775 Y52.9699
G01 X7.0971 Y52.9689
G01 X7.1263 Y52.9657
G01 X7.1457 Y52.9623
G01 X7.1743 Y52.9555
G01 X7.1931 Y52.9498
G01 X7.2207 Y52.9396
G01 X7.2475 Y52.9273
G01 X7.2648 Y52.9180
G01 X7.2816 Y52.9079
G01 X7.3059 Y52.8913
G01 X7.3289 Y52.8729
G01 X7.3505 Y52.8528
G01 X7.3705 Y52.8313
G01 X7.3830 Y52.8161
G01 X7.3947 Y52.8003
G01 X7.4107 Y52.7756
G01 X7.4204 Y52.7586
G01 X7.4292 Y52.7410
G01 X7.4372 Y52.7231
G01 X7.4443 Y52.7048
G01 X7.4504 Y52.6861
G01 X7.4557 Y52.6672
G01 X7.4600 Y52.6480
G01 X7.4646 Y52.6190
G01 X7.4666 Y52.5994
G01 X7.4676 Y52.5700
G01 X7.4676 Y52.3051
G01 X13.6051 Y52.3051
G01 X13.6051 Y52.5050
G01 X13.6062 Y52.5344
G01 X13.6082 Y52.5540
G01 X13.6110 Y52.5734
G01 X13.6149 Y52.5926
G01 X13.6196 Y52.6117
G01 X13.6253 Y52.6305
G01 X13.6320 Y52.6490
G01 X13.6395 Y52.6671
G01 X13.6479 Y52.6848
G01 X13.6571 Y52.7022
G01 X13.6672 Y52.7190
G01 X13.6839 Y52.7433
G01 X13.6959 Y52.7588
G01 X13.7088 Y52.7736
G01 X13.7293 Y52.7947
G01 X13.7439 Y52.8079
G01 X13.7591 Y52.8203
G01 X13.7748 Y52.8320
G01 X13.7912 Y52.8429
G01 X13.8080 Y52.8530
G01 X13.8253 Y52.8623
G01 X13.8521 Y52.8746
G01 X13.8797 Y52.8848
G01 X13.8985 Y52.8905
G01 X13.9271 Y52.8973
G01 X13.9465 Y52.9007
G01 X13.9757 Y52.9039
G01 X14.0051 Y52.9050
G01 X17.5051 Y52.9050
G01 X17.5346 Y52.9039
G01 X17.5541 Y52.9020
G01 X17.5735 Y52.8991
G01 X17.5928 Y52.8953
G01 X17.6118 Y52.8905
G01 X17.6399 Y52.8816
G01 X17.6672 Y52.8707
G01 X17.6937 Y52.8578
G01 X17.7191 Y52.8429
G01 X17.7434 Y52.8263
G01 X17.7664 Y52.8079
G01 X17.7810 Y52.7947
G01 X17.7948 Y52.7808
G01 X17.8144 Y52.7588
G01 X17.8322 Y52.7353
G01 X17.8482 Y52.7106
G01 X17.8579 Y52.6936
G01 X17.8667 Y52.6760
G01 X17.8783 Y52.6490
G01 X17.8879 Y52.6211
G01 X17.8954 Y52.5926
G01 X17.9008 Y52.5637
G01 X17.9041 Y52.5344
G01 X17.9051 Y52.5050
G01 X17.9050 Y50.7952
G01 X17.9041 Y50.7756
G01 X17.9021 Y50.7560
G01 X17.8975 Y50.7270
G01 X17.8932 Y50.7078
G01 X17.8879 Y50.6889
G01 X17.8818 Y50.6702
G01 X17.8747 Y50.6519
G01 X17.8667 Y50.6340
G01 X17.8579 Y50.6164
G01 X17.8482 Y50.5994
G01 X17.8377 Y50.5828
G01 X17.8264 Y50.5667
G01 X17.8144 Y50.5512
G01 X17.8015 Y50.5364
G01 X17.7880 Y50.5222
G01 X17.7738 Y50.5086
G01 X17.7589 Y50.4958
G01 X17.7434 Y50.4837
G01 X17.7274 Y50.4724
G01 X17.7108 Y50.4619
G01 X17.6937 Y50.4522
G01 X17.6762 Y50.4434
G01 X17.6582 Y50.4354
G01 X17.6399 Y50.4284
G01 X17.6213 Y50.4222
G01 X17.6023 Y50.4170
G01 X17.5832 Y50.4127
G01 X17.5638 Y50.4093
G01 X17.5444 Y50.4069
G01 X17.5248 Y50.4055
G01 X17.5051 Y50.4050
G00 Z2.0000
G00 X17.9051 Y55.0450
G01 F60.00
G01 Z-0.1100
G01 F100.00
G01 X17.9051 Y53.3450
G01 X17.9047 Y53.3254
G01 X17.9032 Y53.3058
G01 X17.8993 Y53.2766
G01 X17.8954 Y53.2574
G01 X17.8907 Y53.2383
G01 X17.8818 Y53.2102
G01 X17.8708 Y53.1829
G01 X17.8579 Y53.1564
G01 X17.8431 Y53.1310
G01 X17.8264 Y53.1067
G01 X17.8080 Y53.0837
G01 X17.7948 Y53.0692
G01 X17.7810 Y53.0553
G01 X17.7589 Y53.0358
G01 X17.7434 Y53.0237
G01 X17.7274 Y53.0124
G01 X17.7023 Y52.9970
G01 X17.6762 Y52.9834
G01 X17.6491 Y52.9718
G01 X17.6213 Y52.9622
G01 X17.5928 Y52.9547
G01 X17.5735 Y52.9509
G01 X17.5541 Y52.9480
G01 X17.5346 Y52.9461
G01 X17.5051 Y52.9450
G01 X14.0051 Y52.9450
G01 X13.9757 Y52.9461
G01 X13.9465 Y52.9493
G01 X13.9175 Y52.9547
G01 X13.8985 Y52.9595
G01 X13.8797 Y52.9652
G01 X13.8612 Y52.9718
G01 X13.8431 Y52.9793
G01 X13.8166 Y52.9922
G01 X13.7995 Y53.0019
G01 X13.7829 Y53.0124
G01 X13.7591 Y53.0297
G01 X13.7439 Y53.0421
G01 X13.7223 Y53.0622
G01 X13.7088 Y53.0764
G01 X13.6959 Y53.0912
G01 X13.6839 Y53.1067
G01 X13.6726 Y53.1228
G01 X13.6571 Y53.1478
G01 X13.6479 Y53.1652
G01 X13.6395 Y53.1829
G01 X13.6320 Y53.2010
G01 X13.6253 Y53.2195
G01 X13.6196 Y53.2383
G01 X13.6149 Y53.2574
G01 X13.6110 Y53.2766
G01 X13.6082 Y53.2960
G01 X13.6062 Y53.3156
G01 X13.6051 Y53.3450
G01 X13.6051 Y53.5449
G01 X7.4676 Y53.5449
G01 X7.4675 Y53.4002
G01 X7.4657 Y53.3708
G01 X7.4633 Y53.3513
G01 X7.4600 Y53.3320
G01 X7.4532 Y53.3033
G01 X7.4475 Y53.2845
G01 X7.4408 Y53.2660
G01 X7.4333 Y53.2479
G01 X7.4249 Y53.2302
G01 X7.4157 Y53.2128
G01 X7.4056 Y53.1960
G01 X7.3889 Y53.1717
G01 X7.3769 Y53.1562
G01 X7.3640 Y53.1414
G01 X7.3435 Y53.1203
G01 X7.3289 Y53.1071
G01 X7.3059 Y53.0887
G01 X7.2899 Y53.0774
G01 X7.2648 Y53.0620
G01 X7.2475 Y53.0527
G01 X7.2207 Y53.0404
G01 X7.2024 Y53.0334
G01 X7.1838 Y53.0272
G01 X7.1648 Y53.0220
G01 X7.1457 Y53.0177
G01 X7.1263 Y53.0143
G01 X7.1069 Y53.0119
G01 X7.0775 Y53.0101
G01 X4.3676 Y53.0100
G01 X4.3382 Y53.0111
G01 X4.3187 Y53.0130
G01 X4.2993 Y53.0159
G01 X4.2800 Y53.0197
G01 X4.2515 Y53.0272
G01 X4.2329 Y53.0334
G01 X4.2146 Y53.0404
G01 X4.1878 Y53.0527
G01 X4.1620 Y53.0669
G01 X4.1373 Y53.0830
G01 X4.1139 Y53.1008
G01 X4.0990 Y53.1136
G01 X4.0848 Y53.1272
G01 X4.0713 Y53.1414
G01 X4.0584 Y53.1562
G01 X4.0406 Y53.1797
G01 X4.0246 Y53.2044
G01 X4.0104 Y53.2302
G01 X3.9981 Y53.2569
G01 X3.9910 Y53.2752
G01 X3.9849 Y53.2939
G01 X3.9774 Y53.3224
G01 X3.9735 Y53.3416
G01 X3.9707 Y53.3610
G01 X3.9681 Y53.3904
G01 X3.9676 Y53.4100
G01 X3.9676 Y55.1100
G01 X3.9687 Y55.1394
G01 X3.9707 Y55.1590
G01 X3.9735 Y55.1784
G01 X3.9796 Y55.2072
G01 X3.9878 Y55.2355
G01 X3.9945 Y55.2540
G01 X4.0020 Y55.2721
G01 X4.0149 Y55.2986
G01 X4.0246 Y55.3156
G01 X4.0351 Y55.3322
G01 X4.0523 Y55.3561
G01 X4.0713 Y55.3786
G01 X4.0918 Y55.3997
G01 X4.1139 Y55.4192
G01 X4.1373 Y55.4370
G01 X4.1620 Y55.4531
G01 X4.1791 Y55.4628
G01 X4.1966 Y55.4716
G01 X4.2146 Y55.4796
G01 X4.2329 Y55.4866
G01 X4.2610 Y55.4955
G01 X4.2896 Y55.5023
G01 X4.3187 Y55.5070
G01 X4.3382 Y55.5089
G01 X4.3676 Y55.5100
G01 X7.0676 Y55.5100
G01 X7.0873 Y55.5095
G01 X7.1069 Y55.5081
G01 X7.1263 Y55.5057
G01 X7.1457 Y55.5023
G01 X7.1743 Y55.4955
G01 X7.1931 Y55.4898
G01 X7.2116 Y55.4832
G01 X7.2297 Y55.4757
G01 X7.2475 Y55.4673
G01 X7.2648 Y55.4580
G01 X7.2816 Y55.4479
G01 X7.3059 Y55.4313
G01 X7.3214 Y55.4192
G01 X7.3363 Y55.4064
G01 X7.3505 Y55.3928
G01 X7.3705 Y55.3713
G01 X7.3889 Y55.3483
G01 X7.4002 Y55.3322
G01 X7.4157 Y55.3072
G01 X7.4249 Y55.2898
G01 X7.4372 Y55.2631
G01 X7.4443 Y55.2448
G01 X7.4504 Y55.2261
G01 X7.4557 Y55.2072
G01 X7.4600 Y55.1880
G01 X7.4633 Y55.1687
G01 X7.4657 Y55.1492
G01 X7.4672 Y55.1296
G01 X7.4676 Y55.1100
G01 X7.4676 Y54.8451
G01 X13.6051 Y54.8451
G01 X13.6053 Y55.0548
G01 X13.6071 Y55.0842
G01 X13.6095 Y55.1037
G01 X13.6128 Y55.1230
G01 X13.6171 Y55.1422
G01 X13.6224 Y55.1611
G01 X13.6320 Y55.1890
G01 X13.6395 Y55.2071
G01 X13.6479 Y55.2248
G01 X13.6621 Y55.2506
G01 X13.6726 Y55.2672
G01 X13.6898 Y55.2911
G01 X13.7023 Y55.3063
G01 X13.7155 Y55.3208
G01 X13.7293 Y55.3347
G01 X13.7439 Y55.3479
G01 X13.7669 Y55.3663
G01 X13.7912 Y55.3829
G01 X13.8080 Y55.3930
G01 X13.8253 Y55.4023
G01 X13.8521 Y55.4146
G01 X13.8704 Y55.4216
G01 X13.8985 Y55.4305
G01 X13.9175 Y55.4353
G01 X13.9465 Y55.4407
G01 X13.9659 Y55.4431
G01 X13.9953 Y55.4449
G01 X17.5051 Y55.4450
G01 X17.5248 Y55.4445
G01 X17.5444 Y55.4431
G01 X17.5735 Y55.4391
G01 X17.5928 Y55.4353
G01 X17.6118 Y55.4305
G01 X17.6306 Y55.4248
G01 X17.6491 Y55.4182
G01 X17.6672 Y55.4107
G01 X17.6850 Y55.4023
G01 X17.7108 Y55.3881
G01 X17.7274 Y55.3776
G01 X17.7434 Y55.3663
G01 X17.7589 Y55.3542
G01 X17.7738 Y55.3414
G01 X17.7880 Y55.3278
G01 X17.8015 Y55.3136
G01 X17.8144 Y55.2988
G01 X17.8264 Y55.2833
G01 X17.8431 Y55.2590
G01 X17.8532 Y55.2422
G01 X17.8624 Y55.2248
G01 X17.8708 Y55.2071
G01 X17.8783 Y55.1890
G01 X17.8879 Y55.1611
G01 X17.8932 Y55.1422
G01 X17.8975 Y55.1230
G01 X17.9008 Y55.1037
G01 X17.9032 Y55.0842
G01 X17.9047 Y55.0646
G01 X17.9051 Y55.0450
G00 Z2.0000
G00 X17.5051 Y55.4850
G01 F60.00
G01 Z-0.1100
G01 F100.00
G01 X14.0051 Y55.4850
G01 X13.9757 Y55.4861
G01 X13.9465 Y55.4893
G01 X13.9175 Y55.4947
G01 X13.8985 Y55.4995
G01 X13.8797 Y55.5052
G01 X13.8612 Y55.5118
G01 X13.8431 Y55.5193
G01 X13.8166 Y55.5322
G01 X13.7995 Y55.5419
G01 X13.7829 Y55.5524
G01 X13.7591 Y55.5697
G01 X13.7439 Y55.5821
G01 X13.7223 Y55.6022
G01 X13.7088 Y55.6164
G01 X13.6959 Y55.6312
G01 X13.6839 Y55.6467
G01 X13.6726 Y55.6628
G01 X13.6571 Y55.6878
G01 X13.6479 Y55.7052
G01 X13.6395 Y55.7229
G01 X13.6320 Y55.7410
G01 X13.6253 Y55.7595
G01 X13.6196 Y55.7783
G01 X13.6149 Y55.7974
G01 X13.6110 Y55.8166
G01 X13.6082 Y55.8360
G01 X13.6062 Y55.8556
G01 X13.6051 Y55.8850
G01 X13.6051 Y56.0849
G01 X7.4676 Y56.0849
G01 X7.4675 Y55.9402
G01 X7.4657 Y55.9108
G01 X7.4618 Y55.8816
G01 X7.4579 Y55.8624
G01 X7.4532 Y55.8433
G01 X7.4475 Y55.8245
G01 X7.4408 Y55.8060
G01 X7.4333 Y55.7879
G01 X7.4249 Y55.7702
G01 X7.4157 Y55.7528
G01 X7.4056 Y55.7360
G01 X7.3947 Y55.7197
G01 X7.3830 Y55.7039
G01 X7.3705 Y55.6887
G01 X7.3573 Y55.6742
G01 X7.3435 Y55.6603
G01 X7.3289 Y55.6471
G01 X7.3059 Y55.6287
G01 X7.2899 Y55.6174
G01 X7.2733 Y55.6069
G01 X7.2562 Y55.5972
G01 X7.2387 Y55.5884
G01 X7.2207 Y55.5804
G01 X7.1931 Y55.5702
G01 X7.1743 Y55.5645
G01 X7.1553 Y55.5597
G01 X7.1360 Y55.5559
G01 X7.1069 Y55.5519
G01 X7.0873 Y55.5505
G01 X7.0676 Y55.5500
G01 X4.3676 Y55.5500
G01 X4.3480 Y55.5505
G01 X4.3284 Y55.5519
G01 X4.2993 Y55.5559
G01 X4.2705 Y55.5620
G01 X4.2422 Y55.5702
G01 X4.2146 Y55.5804
G01 X4.1966 Y55.5884
G01 X4.1791 Y55.5972
G01 X4.1620 Y55.6069
G01 X4.1454 Y55.6174
G01 X4.1216 Y55.6347
G01 X4.0990 Y55.6536
G01 X4.0780 Y55.6742
G01 X4.0584 Y55.6962
G01 X4.0406 Y55.7197
G01 X4.0246 Y55.7444
G01 X4.0104 Y55.7702
G01 X3.9981 Y55.7969
G01 X3.9878 Y55.8245
G01 X3.9821 Y55.8433
G01 X3.9774 Y55.8624
G01 X3.9720 Y55.8913
G01 X3.9687 Y55.9206
G01 X3.9676 Y55.9500
G01 X3.9676 Y57.6500
G01 X3.9687 Y57.6794
G01 X3.9707 Y57.6990
G01 X3.9735 Y57.7184
G01 X3.9796 Y57.7472
G01 X3.9878 Y57.7755
G01 X3.9945 Y57.7940
G01 X4.0020 Y57.8121
G01 X4.0149 Y57.8386
G01 X4.0246 Y57.8556
G01 X4.0351 Y57.8722
G01 X4.0523 Y57.8961
G01 X4.0713 Y57.9186
G01 X4.0918 Y57.9397
G01 X4.1139 Y57.9592
G01 X4.1373 Y57.9770
G01 X4.1620 Y57.9931
G01 X4.1791 Y58.0028
G01 X4.1966 Y58.0116
G01 X4.2146 Y58.0196
G01 X4.2329 Y58.0266
G01 X4.2610 Y58.0355
G01 X4.2800 Y58.0403
G01 X4.2993 Y58.0441
G01 X4.3284 Y58.0481
G01 X4.3480 Y58.0495
G01 X4.3676 Y58.0500
G01 X7.0775 Y58.0499
G01 X7.0971 Y58.0489
G01 X7.1263 Y58.0457
G01 X7.1457 Y58.0423
G01 X7.1743 Y58.0355
G01 X7.1931 Y58.0298
G01 X7.2207 Y58.0196
G01 X7.2475 Y58.0073
G01 X7.2648 Y57.9980
G01 X7.2816 Y57.9879
G01 X7.3059 Y57.9713
G01 X7.3289 Y57.9529
G01 X7.3505 Y57.9328
G01 X7.3705 Y57.9113
G01 X7.3830 Y57.8961
G01 X7.3947 Y57.8803
G01 X7.4107 Y57.8556
G01 X7.4204 Y57.8386
G01 X7.4292 Y57.8210
G01 X7.4372 Y57.8031
G01 X7.4443 Y57.7848
G01 X7.4504 Y57.7661
G01 X7.4557 Y57.7472
G01 X7.4600 Y57.7280
G01 X7.4646 Y57.6990
G01 X7.4666 Y57.6794
G01 X7.4676 Y57.6500
G01 X7.4676 Y57.3851
G01 X13.6051 Y57.3851
G01 X13.6051 Y57.5850
G01 X13.6062 Y57.6144
G01 X13.6082 Y57.6340
G01 X13.6110 Y57.6534
G01 X13.6149 Y57.6726
G01 X13.6196 Y57.6917
G01 X13.6253 Y57.7105
G01 X13.6320 Y57.7290
G01 X13.6395 Y57.7471
G01 X13.6479 Y57.7648
G01 X13.6571 Y57.7822
G01 X13.6672 Y57.7990
G01 X13.6839 Y57.8233
G01 X13.6959 Y57.8388
G01 X13.7088 Y57.8536
G01 X13.7293 Y57.8747
G01 X13.7439 Y57.8879
G01 X13.7591 Y57.9003
G01 X13.7748 Y57.9120
G01 X13.7912 Y57.9229
G01 X13.8080 Y57.9330
G01 X13.8253 Y57.9423
G01 X13.8521 Y57.9546
G01 X13.8797 Y57.9648
G01 X13.8985 Y57.9705
G01 X13.9271 Y57.9773
G01 X13.9465 Y57.9807
G01 X13.9757 Y57.9839
G01 X14.0051 Y57.9850
G01 X17.5051 Y57.9850
G01 X17.5346 Y57.9839
G01 X17.5541 Y57.9820
G01 X17.5735 Y57.9791
G01 X17.5928 Y57.9753
G01 X17.6118 Y57.9705
G01 X17.6399 Y57.9616
G01 X17.6672 Y57.9507
G01 X17.6937 Y57.9378
G01 X17.7191 Y57.9229
G01 X17.7434 Y57.9063
G01 X17.7664 Y57.8879
G01 X17.7810 Y57.8747
G01 X17.7948 Y57.8608
G01 X17.8144 Y57.8388
G01 X17.8322 Y57.8153
G01 X17.8482 Y57.7906
G01 X17.8579 Y57.7736
G01 X17.8667 Y57.7560
G01 X17.8783 Y57.7290
G01 X17.8879 Y57.7011
G01 X17.8954 Y57.6726
G01 X17.9008 Y57.6437
G01 X17.9041 Y57.6144
G01 X17.9051 Y57.5850
G01 X17.9050 Y55.8752
G01 X17.9041 Y55.8556
G01 X17.9021 Y55.8360
G01 X17.8975 Y55.8070
G01 X17.8932 Y55.7878
G01 X17.8879 Y55.7689
G01 X17.8818 Y55.7502
G01 X17.8747 Y55.7319
G01 X17.8667 Y55.7140
G01 X17.8579 Y55.6964
G01 X17.8482 Y55.6794
G01 X17.8377 Y55.6628
G01 X17.8264 Y55.6467
G01 X17.8144 Y55.6312
G01 X17.8015 Y55.6164
G01 X17.7880 Y55.6022
G01 X17.7738 Y55.5886
G01 X17.7589 Y55.5758
G01 X17.7434 Y55.5637
G01 X17.7274 Y55.5524
G01 X17.7108 Y55.5419
G01 X17.6937 Y55.5322
G01 X17.6762 Y55.5234
G01 X17.6582 Y55.5154
G01 X17.6399 Y55.5084
G01 X17.6213 Y55.5022
G01 X17.6023 Y55.4970
G01 X17.5832 Y55.4927
G01 X17.5638 Y55.4893
G01 X17.5444 Y55.4869
G01 X17.5248 Y55.4855
G01 X17.5051 Y55.4850
G00 Z2.0000
G00 X17.9051 Y60.1250
G01 F60.00
G01 Z-0.1100
G01 F100.00
G01 X17.9051 Y58.4250
G01 X17.9047 Y58.4054
G01 X17.9032 Y58.3858
G01 X17.8993 Y58.3566
G01 X17.8954 Y58.3374
G01 X17.8907 Y58.3183
G01 X17.8818 Y58.2902
G01 X17.8708 Y58.2629
G01 X17.8579 Y58.2364
G01 X17.8431 Y58.2110
G01 X17.8264 Y58.1867
G01 X17.8080 Y58.1637
G01 X17.7948 Y58.1492
G01 X17.7810 Y58.1353
G01 X17.7589 Y58.1158
G01 X17.7434 Y58.1037
G01 X17.7274 Y58.0924
G01 X17.7023 Y58.0770
G01 X17.6762 Y58.0634
G01 X17.6491 Y58.0518
G01 X17.6213 Y58.0422
G01 X17.5928 Y58.0347
G01 X17.5735 Y58.0309
G01 X17.5541 Y58.0280
G01 X17.5346 Y58.0261
G01 X17.5051 Y58.0250
G01 X14.0051 Y58.0250
G01 X13.9757 Y58.0261
G01 X13.9465 Y58.0293
G01 X13.9175 Y58.0347
G01 X13.8985 Y58.0395
G01 X13.8797 Y58.0452
G01 X13.8612 Y58.0518
G01 X13.8431 Y58.0593
G01 X13.8166 Y58.0722
G01 X13.7995 Y58.0819
G01 X13.7829 Y58.0924
G01 X13.7591 Y58.1097
G01 X13.7439 Y58.1221
G01 X13.7223 Y58.1422
G01 X13.7088 Y58.1564
G01 X13.6959 Y58.1712
G01 X13.6839 Y58.1867
G01 X13.6726 Y58.2028
G01 X13.6571 Y58.2278
G01 X13.6479 Y58.2452
G01 X13.6395 Y58.2629
G01 X13.6320 Y58.2810
G01 X13.6253 Y58.2995
G01 X13.6196 Y58.3183
G01 X13.6149 Y58.3374
G01 X13.6110 Y58.3566
G01 X13.6082 Y58.3760
G01 X13.6062 Y58.3956
G01 X13.6051 Y58.4250
G01 X13.6051 Y58.6249
G01 X7.4676 Y58.6249
G01 X7.4675 Y58.4802
G01 X7.4657 Y58.4508
G01 X7.4633 Y58.4313
G01 X7.4600 Y58.4120
G01 X7.4532 Y58.3833
G01 X7.4475 Y58.3645
G01 X7.4408 Y58.3460
G01 X7.4333 Y58.3279
G01 X7.4249 Y58.3102
G01 X7.4157 Y58.2928
G01 X7.4056 Y58.2760
G01 X7.3889 Y58.2517
G01 X7.3769 Y58.2362
G01 X7.3640 Y58.2214
G01 X7.3435 Y58.2003
G01 X7.3289 Y58.1871
G01 X7.3059 Y58.1687
G01 X7.2899 Y58.1574
G01 X7.2648 Y58.1420
G01 X7.2475 Y58.1327
G01 X7.2207 Y58.1204
G01 X7.2024 Y58.1134
G01 X7.1838 Y58.1072
G01 X7.1648 Y58.1020
G01 X7.1457 Y58.0977
G01 X7.1263 Y58.0943
G01 X7.1069 Y58.0919
G01 X7.0775 Y58.0901
G01 X4.3676 Y58.0900
G01 X4.3382 Y58.0911
G01 X4.3187 Y58.0930
G01 X4.2993 Y58.0959
G01 X4.2800 Y58.0997
G01 X4.2515 Y58.1072
G01 X4.2329 Y58.1134
G01 X4.2146 Y58.1204
G01 X4.1878 Y58.1327
G01 X4.1620 Y58.1469
G01 X4.1373 Y58.1630
G01 X4.1139 Y58.1808
G01 X4.0990 Y58.1936
G01 X4.0848 Y58.2072
G01 X4.0713 Y58.2214
G01 X4.0584 Y58.2362
G01 X4.0406 Y58.2597
G01 X4.0246 Y58.2844
G01 X4.0104 Y58.3102
G01 X3.9981 Y58.3369
G01 X3.9910 Y58.3552
G01 X3.9849 Y58.3739
G01 X3.9774 Y58.4024
G01 X3.9735 Y58.4216
G01 X3.9707 Y58.4410
G01 X3.9681 Y58.4704
G01 X3.9676 Y58.4900
G01 X3.9676 Y60.1900
G01 X3.9687 Y60.2194
G01 X3.9707 Y60.2390
G01 X3.9735 Y60.2584
G01 X3.9796 Y60.2872
G01 X3.9878 Y60.3155
G01 X3.9945 Y60.3340
G01 X4.0020 Y60.3521
G01 X4.0149 Y60.3786
G01 X4.0297 Y60.4040
G01 X4.0464 Y60.4283
G01 X4.0648 Y60.4513
G01 X4.0780 Y60.4658
G01 X4.0918 Y60.4797
G01 X4.1139 Y60.4992
G01 X4.1373 Y60.5170
G01 X4.1620 Y60.5331
G01 X4.1791 Y60.5428
G01 X4.1966 Y60.5516
G01 X4.2146 Y60.5596
G01 X4.2329 Y60.5666
G01 X4.2610 Y60.5755
G01 X4.2896 Y60.5823
G01 X4.3187 Y60.5870
G01 X4.3480 Y60.5895
G01 X4.3676 Y60.5900
G01 X7.0676 Y60.5900
G01 X7.0873 Y60.5895
G01 X7.1069 Y60.5881
G01 X7.1263 Y60.5857
G01 X7.1457 Y60.5823
G01 X7.1648 Y60.5780
G01 X7.1931 Y60.5698
G01 X7.2116 Y60.5632
G01 X7.2297 Y60.5557
G01 X7.2562 Y60.5428
G01 X7.2733 Y60.5331
G01 X7.2899 Y60.5226
G01 X7.3059 Y60.5113
G01 X7.3214 Y60.4992
G01 X7.3435 Y60.4797
G01 X7.3640 Y60.4586
G01 X7.3769 Y60.4438
G01 X7.3889 Y60.4283
G01 X7.4002 Y60.4122
G01 X7.4107 Y60.3956
G01 X7.4249 Y60.3698
G01 X7.4372 Y60.3431
G01 X7.4443 Y60.3248
G01 X7.4504 Y60.3061
G01 X7.4557 Y60.2872
G01 X7.4600 Y60.2680
G01 X7.4633 Y60.2487
G01 X7.4657 Y60.2292
G01 X7.4672 Y60.2096
G01 X7.4676 Y60.1900
G01 X7.4676 Y59.9251
G01 X13.6051 Y59.9251
G01 X13.6053 Y60.1348
G01 X13.6071 Y60.1642
G01 X13.6095 Y60.1837
G01 X13.6128 Y60.2030
G01 X13.6171 Y60.2222
G01 X13.6224 Y60.2411
G01 X13.6320 Y60.2690
G01 X13.6395 Y60.2871
G01 X13.6479 Y60.3048
G01 X13.6621 Y60.3306
G01 X13.6726 Y60.3472
G01 X13.6898 Y60.3711
G01 X13.7023 Y60.3863
G01 X13.7155 Y60.4008
G01 X13.7293 Y60.4147
G01 X13.7439 Y60.4279
G01 X13.7669 Y60.4463
G01 X13.7912 Y60.4629
G01 X13.8080 Y60.4730
G01 X13.8253 Y60.4823
G01 X13.8521 Y60.4946
G01 X13.8704 Y60.5016
G01 X13.8985 Y60.5105
G01 X13.9175 Y60.5153
G01 X13.9465 Y60.5207
G01 X13.9659 Y60.5231
G01 X13.9953 Y60.5249
G01 X17.5051 Y60.5250
G01 X17.5248 Y60.5245
G01 X17.5444 Y60.5231
G01 X17.5735 Y60.5191
G01 X17.5928 Y60.5153
G01 X17.6118 Y60.5105
G01 X17.6306 Y60.5048
G01 X17.6491 Y60.4982
G01 X17.6672 Y60.4907
G01 X17.6850 Y60.4823
G01 X17.7108 Y60.4681
G01 X17.7274 Y60.4576
G01 X17.7434 Y60.4463
G01 X17.7589 Y60.4342
G01 X17.7738 Y60.4214
G01 X17.7880 Y60.4078
G01 X17.8015 Y60.3936
G01 X17.8144 Y60.3788
G01 X17.8264 Y60.3633
G01 X17.8431 Y60.3390
G01 X17.8532 Y60.3222
G01 X17.8624 Y60.3048
G01 X17.8708 Y60.2871
G01 X17.8783 Y60.2690
G01 X17.8879 Y60.2411
G01 X17.8932 Y60.2222
G01 X17.8975 Y60.2030
G01 X17.9008 Y60.1837
G01 X17.9032 Y60.1642
G01 X17.9047 Y60.1446
G01 X17.9051 Y60.1250
G00 Z2.0000
G00 X17.5051 Y65.6450
G01 F60.00
G01 Z-0.1100
G01 F100.00
G01 X14.0051 Y65.6450
G01 X13.9855 Y65.6455
G01 X13.9562 Y65.6480
G01 X13.9271 Y65.6527
G01 X13.9080 Y65.6570
G01 X13.8890 Y65.6622
G01 X13.8704 Y65.6684
G01 X13.8521 Y65.6754
G01 X13.8253 Y65.6877
G01 X13.8080 Y65.6970
G01 X13.7829 Y65.7124
G01 X13.7591 Y65.7297
G01 X13.7439 Y65.7421
G01 X13.7293 Y65.7553
G01 X13.7155 Y65.7692
G01 X13.6959 Y65.7912
G01 X13.6839 Y65.8067
G01 X13.6726 Y65.8228
G01 X13.6621 Y65.8394
G01 X13.6524 Y65.8564
G01 X13.6436 Y65.8740
G01 X13.6356 Y65.8919
G01 X13.6285 Y65.9102
G01 X13.6224 Y65.9289
G01 X13.6171 Y65.9478
G01 X13.6128 Y65.9670
G01 X13.6095 Y65.9863
G01 X13.6062 Y66.0156
G01 X13.6053 Y66.0352
G01 X13.6051 Y66.2449
G01 X11.8753 Y66.2450
G01 X11.8312 Y66.2472
G01 X11.8117 Y66.2491
G01 X11.7680 Y66.2556
G01 X11.7392 Y66.2617
G01 X11.7059 Y66.2701
G01 X11.6778 Y66.2790
G01 X11.6547 Y66.2873
G01 X11.6364 Y66.2944
G01 X11.6024 Y66.3099
G01 X7.4676 Y66.3099
G01 X7.4676 Y66.1100
G01 X7.4666 Y66.0806
G01 X7.4646 Y66.0610
G01 X7.4600 Y66.0320
G01 X7.4557 Y66.0128
G01 X7.4504 Y65.9939
G01 X7.4443 Y65.9752
G01 X7.4372 Y65.9569
G01 X7.4292 Y65.9390
G01 X7.4204 Y65.9214
G01 X7.4107 Y65.9044
G01 X7.3947 Y65.8797
G01 X7.3830 Y65.8639
G01 X7.3705 Y65.8487
G01 X7.3573 Y65.8342
G01 X7.3435 Y65.8203
G01 X7.3214 Y65.8008
G01 X7.3059 Y65.7887
G01 X7.2899 Y65.7774
G01 X7.2733 Y65.7669
G01 X7.2562 Y65.7572
G01 X7.2297 Y65.7443
G01 X7.2116 Y65.7368
G01 X7.1931 Y65.7302
G01 X7.1648 Y65.7220
G01 X7.1457 Y65.7177
G01 X7.1263 Y65.7143
G01 X7.1069 Y65.7119
G01 X7.0873 Y65.7105
G01 X7.0676 Y65.7100
G01 X4.3676 Y65.7100
G01 X4.3382 Y65.7111
G01 X4.3187 Y65.7130
G01 X4.2993 Y65.7159
G01 X4.2705 Y65.7220
G01 X4.2422 Y65.7302
G01 X4.2237 Y65.7368
G01 X4.2056 Y65.7443
G01 X4.1791 Y65.7572
G01 X4.1536 Y65.7721
G01 X4.1294 Y65.7887
G01 X4.1139 Y65.8008
G01 X4.0990 Y65.8136
G01 X4.0780 Y65.8342
G01 X4.0584 Y65.8562
G01 X4.0406 Y65.8797
G01 X4.0246 Y65.9044
G01 X4.0104 Y65.9302
G01 X3.9981 Y65.9569
G01 X3.9878 Y65.9845
G01 X3.9821 Y66.0033
G01 X3.9774 Y66.0224
G01 X3.9720 Y66.0513
G01 X3.9687 Y66.0806
G01 X3.9676 Y66.1100
G01 X3.9676 Y67.8100
G01 X3.9687 Y67.8394
G01 X3.9707 Y67.8590
G01 X3.9735 Y67.8784
G01 X3.9796 Y67.9072
G01 X3.9849 Y67.9261
G01 X3.9910 Y67.9448
G01 X3.9981 Y67.9631
G01 X4.0061 Y67.9810
G01 X4.0196 Y68.0072
G01 X4.0351 Y68.0322
G01 X4.0523 Y68.0561
G01 X4.0713 Y68.0786
G01 X4.0848 Y68.0928
G01 X4.0990 Y68.1064
G01 X4.1216 Y68.1253
G01 X4.1454 Y68.1426
G01 X4.1620 Y68.1531
G01 X4.1791 Y68.1628
G01 X4.2056 Y68.1757
G01 X4.2237 Y68.1832
G01 X4.2422 Y68.1898
G01 X4.2705 Y68.1980
G01 X4.2993 Y68.2041
G01 X4.3284 Y68.2081
G01 X4.3480 Y68.2095
G01 X4.3676 Y68.2100
G01 X7.0775 Y68.2099
G01 X7.0971 Y68.2089
G01 X7.1263 Y68.2057
G01 X7.1457 Y68.2023
G01 X7.1743 Y68.1955
G01 X7.1931 Y68.1898
G01 X7.2207 Y68.1796
G01 X7.2387 Y68.1716
G01 X7.2562 Y68.1628
G01 X7.2816 Y68.1479
G01 X7.2980 Y68.1370
G01 X7.3214 Y68.1192
G01 X7.3363 Y68.1064
G01 X7.3505 Y68.0928
G01 X7.3705 Y68.0713
G01 X7.3889 Y68.0483
G01 X7.4002 Y68.0322
G01 X7.4107 Y68.0156
G01 X7.4249 Y67.9898
G01 X7.4333 Y67.9721
G01 X7.4408 Y67.9540
G01 X7.4475 Y67.9355
G01 X7.4532 Y67.9167
G01 X7.4579 Y67.8976
G01 X7.4633 Y67.8687
G01 X7.4657 Y67.8492
G01 X7.4675 Y67.8198
G01 X7.4676 Y67.6101
G01 X11.8201 Y67.6101
G01 X11.8398 Y67.6096
G01 X11.8643 Y67.6084
G01 X11.8839 Y67.6070
G01 X11.9034 Y67.6046
G01 X11.9276 Y67.6010
G01 X11.9566 Y67.5956
G01 X11.9994 Y67.5849
G01 X12.0275 Y67.5760
G01 X12.0506 Y67.5677
G01 X12.0689 Y67.5606
G01 X12.1029 Y67.5451
G01 X13.6051 Y67.5451
G01 X13.6051 Y67.7450
G01 X13.6062 Y67.7744
G01 X13.6082 Y67.7940
G01 X13.6110 Y67.8134
G01 X13.6149 Y67.8326
G01 X13.6196 Y67.8517
G01 X13.6253 Y67.8705
G01 X13.6320 Y67.8890
G01 X13.6395 Y67.9071
G01 X13.6479 Y67.9248
G01 X13.6571 Y67.9422
G01 X13.6726 Y67.9672
G01 X13.6839 Y67.9833
G01 X13.6959 Y67.9988
G01 X13.7088 Y68.0136
G01 X13.7293 Y68.0347
G01 X13.7439 Y68.0479
G01 X13.7591 Y68.0603
G01 X13.7829 Y68.0776
G01 X13.7995 Y68.0881
G01 X13.8253 Y68.1023
G01 X13.8431 Y68.1107
G01 X13.8612 Y68.1182
G01 X13.8797 Y68.1248
G01 X13.8985 Y68.1305
G01 X13.9175 Y68.1353
G01 X13.9465 Y68.1407
G01 X13.9757 Y68.1439
G01 X14.0051 Y68.1450
G01 X17.5051 Y68.1450
G01 X17.5248 Y68.1445
G01 X17.5444 Y68.1431
G01 X17.5735 Y68.1391
G01 X17.6023 Y68.1330
G01 X17.6306 Y68.1248
G01 X17.6491 Y68.1182
G01 X17.6672 Y68.1107
G01 X17.6937 Y68.0978
G01 X17.7191 Y68.0829
G01 X17.7434 Y68.0663
G01 X17.7664 Y68.0479
G01 X17.7880 Y68.0278
G01 X17.8080 Y68.0063
G01 X17.8264 Y67.9833
G01 X17.8377 Y67.9672
G01 X17.8482 Y67.9506
G01 X17.8624 Y67.9248
G01 X17.8708 Y67.9071
G01 X17.8783 Y67.8890
G01 X17.8879 Y67.8611
G01 X17.8954 Y67.8326
G01 X17.9008 Y67.8037
G01 X17.9041 Y67.7744
G01 X17.9051 Y67.7450
G01 X17.9050 Y66.0352
G01 X17.9041 Y66.0156
G01 X17.9021 Y65.9960
G01 X17.8993 Y65.9766
G01 X17.8954 Y65.9574
G01 X17.8907 Y65.9383
G01 X17.8850 Y65.9195
G01 X17.8783 Y65.9010
G01 X17.8708 Y65.8829
G01 X17.8624 Y65.8652
G01 X17.8532 Y65.8478
G01 X17.8431 Y65.8310
G01 X17.8322 Y65.8147
G01 X17.8205 Y65.7989
G01 X17.8080 Y65.7837
G01 X17.7948 Y65.7692
G01 X17.7810 Y65.7553
G01 X17.7664 Y65.7421
G01 X17.7512 Y65.7297
G01 X17.7355 Y65.7180
G01 X17.7191 Y65.7071
G01 X17.7023 Y65.6970
G01 X17.6850 Y65.6877
G01 X17.6672 Y65.6793
G01 X17.6491 Y65.6718
G01 X17.6306 Y65.6652
G01 X17.6118 Y65.6595
G01 X17.5928 Y65.6547
G01 X17.5735 Y65.6509
G01 X17.5444 Y65.6469
G01 X17.5248 Y65.6455
G01 X17.5051 Y65.6450
G00 Z2.0000
G00 X47.6926 Y65.6500
G01 F60.00
G01 Z-0.1100
G01 F100.00
G01 X44.9926 Y65.6500
G01 X44.9730 Y65.6505
G01 X44.9534 Y65.6519
G01 X44.9340 Y65.6543
G01 X44.9146 Y65.6577
G01 X44.8955 Y65.6620
G01 X44.8765 Y65.6672
G01 X44.8487 Y65.6768
G01 X44.8306 Y65.6843
G01 X44.8128 Y65.6927
G01 X44.7870 Y65.7069
G01 X44.7704 Y65.7174
G01 X44.7544 Y65.7287
G01 X44.7314 Y65.7471
G01 X44.7168 Y65.7603
G01 X44.7030 Y65.7742
G01 X44.6898 Y65.7887
G01 X44.6773 Y65.8039
G01 X44.6601 Y65.8278
G01 X44.6496 Y65.8444
G01 X44.6399 Y65.8614
G01 X44.6311 Y65.8790
G01 X44.6231 Y65.8969
G01 X44.6160 Y65.9152
G01 X44.6099 Y65.9339
G01 X44.6024 Y65.9624
G01 X44.5985 Y65.9816
G01 X44.5957 Y66.0010
G01 X44.5937 Y66.0206
G01 X44.5928 Y66.0402
G01 X44.5926 Y66.2449
G01 X37.4851 Y66.2449
G01 X37.4851 Y66.0450
G01 X37.4847 Y66.0254
G01 X37.4821 Y65.9960
G01 X37.4793 Y65.9766
G01 X37.4754 Y65.9574
G01 X37.4707 Y65.9383
G01 X37.4650 Y65.9195
G01 X37.4583 Y65.9010
G01 X37.4508 Y65.8829
G01 X37.4424 Y65.8652
G01 X37.4332 Y65.8478
G01 X37.4177 Y65.8228
G01 X37.4064 Y65.8067
G01 X37.3944 Y65.7912
G01 X37.3815 Y65.7764
G01 X37.3610 Y65.7553
G01 X37.3464 Y65.7421
G01 X37.3312 Y65.7297
G01 X37.3074 Y65.7124
G01 X37.2908 Y65.7019
G01 X37.2650 Y65.6877
G01 X37.2472 Y65.6793
G01 X37.2291 Y65.6718
G01 X37.2106 Y65.6652
G01 X37.1918 Y65.6595
G01 X37.1728 Y65.6547
G01 X37.1438 Y65.6493
G01 X37.1146 Y65.6461
G01 X37.0851 Y65.6450
G01 X33.5851 Y65.6450
G01 X33.5655 Y65.6455
G01 X33.5459 Y65.6469
G01 X33.5168 Y65.6509
G01 X33.4975 Y65.6547
G01 X33.4785 Y65.6595
G01 X33.4597 Y65.6652
G01 X33.4321 Y65.6754
G01 X33.4053 Y65.6877
G01 X33.3880 Y65.6970
G01 X33.3629 Y65.7124
G01 X33.3469 Y65.7237
G01 X33.3239 Y65.7421
G01 X33.3093 Y65.7553
G01 X33.2888 Y65.7764
G01 X33.2759 Y65.7912
G01 X33.2581 Y65.8147
G01 X33.2472 Y65.8310
G01 X33.2324 Y65.8564
G01 X33.2236 Y65.8740
G01 X33.2156 Y65.8919
G01 X33.2085 Y65.9102
G01 X33.2024 Y65.9289
G01 X33.1971 Y65.9478
G01 X33.1928 Y65.9670
G01 X33.1895 Y65.9863
G01 X33.1871 Y66.0058
G01 X33.1853 Y66.0352
G01 X33.1851 Y66.2449
G01 X31.3803 Y66.2450
G01 X31.3460 Y66.2466
G01 X31.3264 Y66.2480
G01 X31.3069 Y66.2504
G01 X31.2827 Y66.2540
G01 X31.2633 Y66.2574
G01 X31.2442 Y66.2617
G01 X31.2203 Y66.2676
G01 X31.2014 Y66.2729
G01 X31.1828 Y66.2790
G01 X31.1597 Y66.2873
G01 X31.1414 Y66.2944
G01 X31.1234 Y66.3023
G01 X31.0924 Y66.3171
G01 X31.0751 Y66.3264
G01 X31.0455 Y66.3439
G01 X31.0209 Y66.3600
G01 X30.9932 Y66.3804
G01 X30.9777 Y66.3924
G01 X30.9628 Y66.4053
G01 X30.9375 Y66.4284
G01 X30.8254 Y66.5403
G01 X30.8119 Y66.5545
G01 X30.7954 Y66.5727
G01 X30.7765 Y66.5952
G01 X30.7559 Y66.6228
G01 X30.7446 Y66.6388
G01 X30.7341 Y66.6554
G01 X30.7165 Y66.6849
G01 X30.7073 Y66.7022
G01 X30.6925 Y66.7333
G01 X30.6809 Y66.7603
G01 X30.6692 Y66.7926
G01 X30.6630 Y66.8113
G01 X30.6578 Y66.8302
G01 X30.6495 Y66.8636
G01 X30.6442 Y66.8925
G01 X30.6392 Y66.9265
G01 X30.6373 Y66.9461
G01 X30.6355 Y66.9804
G01 X30.6350 Y67.0000
G01 X30.6350 Y72.2217
G01 X30.6355 Y72.2414
G01 X30.6367 Y72.2659
G01 X30.6382 Y72.2855
G01 X30.6406 Y72.3049
G01 X30.6442 Y72.3292
G01 X30.6475 Y72.3486
G01 X30.6518 Y72.3677
G01 X30.6578 Y72.3915
G01 X30.6630 Y72.4104
G01 X30.6692 Y72.4291
G01 X30.6774 Y72.4522
G01 X30.6845 Y72.4705
G01 X30.6925 Y72.4885
G01 X30.7030 Y72.5107
G01 X30.7118 Y72.5282
G01 X30.7215 Y72.5453
G01 X30.7341 Y72.5663
G01 X30.7446 Y72.5829
G01 X30.7559 Y72.5990
G01 X30.7705 Y72.6187
G01 X30.7826 Y72.6342
G01 X30.7954 Y72.6490
G01 X30.8119 Y72.6672
G01 X30.8254 Y72.6814
G01 X37.7657 Y79.6216
G01 X37.7911 Y79.6447
G01 X37.8060 Y79.6576
G01 X37.8215 Y79.6696
G01 X37.8412 Y79.6843
G01 X37.8655 Y79.7009
G01 X37.8949 Y79.7187
G01 X37.9120 Y79.7284
G01 X37.9295 Y79.7372
G01 X37.9606 Y79.7518
G01 X37.9879 Y79.7627
G01 X38.0111 Y79.7710
G01 X38.0297 Y79.7771
G01 X38.0486 Y79.7824
G01 X38.0820 Y79.7906
G01 X38.1012 Y79.7944
G01 X38.1449 Y79.8009
G01 X38.1645 Y79.8028
G01 X38.2086 Y79.8050
G01 X38.5776 Y79.8051
G01 X38.5776 Y80.0050
G01 X38.5787 Y80.0344
G01 X38.5820 Y80.0637
G01 X38.5853 Y80.0830
G01 X38.5921 Y80.1117
G01 X38.5978 Y80.1305
G01 X38.6081 Y80.1581
G01 X38.6204 Y80.1848
G01 X38.6296 Y80.2022
G01 X38.6397 Y80.2190
G01 X38.6564 Y80.2433
G01 X38.6748 Y80.2663
G01 X38.6880 Y80.2808
G01 X38.7018 Y80.2947
G01 X38.7239 Y80.3142
G01 X38.7473 Y80.3320
G01 X38.7720 Y80.3481
G01 X38.7978 Y80.3623
G01 X38.8246 Y80.3746
G01 X38.8522 Y80.3848
G01 X38.8805 Y80.3930
G01 X38.9093 Y80.3991
G01 X38.9384 Y80.4031
G01 X38.9678 Y80.4049
G01 X41.6776 Y80.4050
G01 X41.6973 Y80.4045
G01 X41.7169 Y80.4031
G01 X41.7363 Y80.4007
G01 X41.7557 Y80.3973
G01 X41.7748 Y80.3930
G01 X41.7938 Y80.3878
G01 X41.8124 Y80.3816
G01 X41.8307 Y80.3746
G01 X41.8575 Y80.3623
G01 X41.8748 Y80.3530
G01 X41.8999 Y80.3376
G01 X41.9237 Y80.3203
G01 X41.9463 Y80.3014
G01 X41.9673 Y80.2808
G01 X41.9869 Y80.2588
G01 X42.0047 Y80.2353
G01 X42.0207 Y80.2106
G01 X42.0349 Y80.1848
G01 X42.0472 Y80.1581
G01 X42.0575 Y80.1305
G01 X42.0657 Y80.1022
G01 X42.0718 Y80.0734
G01 X42.0746 Y80.0540
G01 X42.0772 Y80.0246
G01 X42.0776 Y80.0050
G01 X42.0776 Y78.3050
G01 X42.0766 Y78.2756
G01 X42.0746 Y78.2560
G01 X42.0718 Y78.2366
G01 X42.0679 Y78.2174
G01 X42.0632 Y78.1983
G01 X42.0575 Y78.1795
G01 X42.0508 Y78.1610
G01 X42.0433 Y78.1429
G01 X42.0349 Y78.1252
G01 X42.0257 Y78.1078
G01 X42.0156 Y78.0910
G01 X42.0047 Y78.0747
G01 X41.9930 Y78.0589
G01 X41.9805 Y78.0437
G01 X41.9673 Y78.0292
G01 X41.9535 Y78.0153
G01 X41.9389 Y78.0021
G01 X41.9237 Y77.9897
G01 X41.9080 Y77.9780
G01 X41.8833 Y77.9619
G01 X41.8575 Y77.9477
G01 X41.8397 Y77.9393
G01 X41.8216 Y77.9318
G01 X41.7938 Y77.9222
G01 X41.7748 Y77.9170
G01 X41.7557 Y77.9127
G01 X41.7266 Y77.9080
G01 X41.7071 Y77.9061
G01 X41.6875 Y77.9051
G01 X38.9776 Y77.9050
G01 X38.9482 Y77.9061
G01 X38.9190 Y77.9093
G01 X38.8996 Y77.9127
G01 X38.8805 Y77.9170
G01 X38.8615 Y77.9222
G01 X38.8429 Y77.9284
G01 X38.8246 Y77.9354
G01 X38.8066 Y77.9434
G01 X38.7891 Y77.9522
G01 X38.7720 Y77.9619
G01 X38.7554 Y77.9724
G01 X38.7394 Y77.9837
G01 X38.7239 Y77.9958
G01 X38.7090 Y78.0086
G01 X38.6948 Y78.0222
G01 X38.6813 Y78.0364
G01 X38.6684 Y78.0512
G01 X38.6564 Y78.0667
G01 X38.6451 Y78.0828
G01 X38.6346 Y78.0994
G01 X38.6204 Y78.1252
G01 X38.6120 Y78.1429
G01 X38.6045 Y78.1610
G01 X38.5949 Y78.1889
G01 X38.5874 Y78.2174
G01 X38.5835 Y78.2366
G01 X38.5796 Y78.2658
G01 X38.5778 Y78.2952
G01 X38.5776 Y78.5049
G01 X38.4877 Y78.5049
G01 X31.9353 Y71.9524
G01 X31.9353 Y67.5451
G01 X33.1851 Y67.5451
G01 X33.1853 Y67.7548
G01 X33.1871 Y67.7842
G01 X33.1895 Y67.8037
G01 X33.1928 Y67.8230
G01 X33.1971 Y67.8422
G01 X33.2024 Y67.8611
G01 X33.2085 Y67.8798
G01 X33.2195 Y67.9071
G01 X33.2279 Y67.9248
G01 X33.2371 Y67.9422
G01 X33.2472 Y67.9590
G01 X33.2639 Y67.9833
G01 X33.2759 Y67.9988
G01 X33.2888 Y68.0136
G01 X33.3093 Y68.0347
G01 X33.3239 Y68.0479
G01 X33.3391 Y68.0603
G01 X33.3629 Y68.0776
G01 X33.3795 Y68.0881
G01 X33.4053 Y68.1023
G01 X33.4231 Y68.1107
G01 X33.4504 Y68.1216
G01 X33.4690 Y68.1278
G01 X33.4975 Y68.1353
G01 X33.5168 Y68.1391
G01 X33.5362 Y68.1420
G01 X33.5655 Y68.1445
G01 X33.5851 Y68.1450
G01 X37.0851 Y68.1450
G01 X37.1146 Y68.1439
G01 X37.1438 Y68.1407
G01 X37.1632 Y68.1373
G01 X37.1918 Y68.1305
G01 X37.2106 Y68.1248
G01 X37.2382 Y68.1146
G01 X37.2650 Y68.1023
G01 X37.2823 Y68.0930
G01 X37.2991 Y68.0829
G01 X37.3155 Y68.0720
G01 X37.3312 Y68.0603
G01 X37.3464 Y68.0479
G01 X37.3680 Y68.0278
G01 X37.3815 Y68.0136
G01 X37.3944 Y67.9988
G01 X37.4064 Y67.9833
G01 X37.4177 Y67.9672
G01 X37.4332 Y67.9422
G01 X37.4424 Y67.9248
G01 X37.4508 Y67.9071
G01 X37.4583 Y67.8890
G01 X37.4650 Y67.8705
G01 X37.4707 Y67.8517
G01 X37.4754 Y67.8326
G01 X37.4793 Y67.8134
G01 X37.4821 Y67.7940
G01 X37.4847 Y67.7646
G01 X37.4851 Y67.7450
G01 X37.4851 Y67.5451
G01 X44.5926 Y67.5451
G01 X44.5926 Y67.7500
G01 X44.5937 Y67.7794
G01 X44.5957 Y67.7990
G01 X44.6003 Y67.8280
G01 X44.6046 Y67.8472
G01 X44.6099 Y67.8661
G01 X44.6160 Y67.8848
G01 X44.6231 Y67.9031
G01 X44.6311 Y67.9210
G01 X44.6399 Y67.9386
G01 X44.6496 Y67.9556
G01 X44.6656 Y67.9803
G01 X44.6773 Y67.9961
G01 X44.6898 Y68.0113
G01 X44.7098 Y68.0328
G01 X44.7240 Y68.0464
G01 X44.7389 Y68.0592
G01 X44.7544 Y68.0713
G01 X44.7704 Y68.0826
G01 X44.7955 Y68.0980
G01 X44.8128 Y68.1073
G01 X44.8306 Y68.1157
G01 X44.8487 Y68.1232
G01 X44.8672 Y68.1298
G01 X44.8955 Y68.1380
G01 X44.9146 Y68.1423
G01 X44.9340 Y68.1457
G01 X44.9534 Y68.1481
G01 X44.9730 Y68.1495
G01 X44.9926 Y68.1500
G01 X47.6926 Y68.1500
G01 X47.7123 Y68.1495
G01 X47.7416 Y68.1470
G01 X47.7707 Y68.1423
G01 X47.7898 Y68.1380
G01 X47.8088 Y68.1328
G01 X47.8366 Y68.1232
G01 X47.8637 Y68.1116
G01 X47.8812 Y68.1028
G01 X47.8983 Y68.0931
G01 X47.9230 Y68.0770
G01 X47.9464 Y68.0592
G01 X47.9685 Y68.0397
G01 X47.9890 Y68.0186
G01 X48.0080 Y67.9961
G01 X48.0197 Y67.9803
G01 X48.0306 Y67.9640
G01 X48.0454 Y67.9386
G01 X48.0583 Y67.9121
G01 X48.0658 Y67.8940
G01 X48.0725 Y67.8755
G01 X48.0807 Y67.8472
G01 X48.0868 Y67.8184
G01 X48.0896 Y67.7990
G01 X48.0916 Y67.7794
G01 X48.0926 Y67.7500
G01 X48.0925 Y66.0402
G01 X48.0916 Y66.0206
G01 X48.0896 Y66.0010
G01 X48.0868 Y65.9816
G01 X48.0829 Y65.9624
