(G-CODE GENERATED BY FLATCAM v8.994 - www.flatcam.org - Version Date: 2020/11/7)

(Name: picoprobeTarget.drl_cnc)
(Type: G-code from Geometry)
(Units: MM)

(Created on Friday, 22 July 2022 at 19:14)

(This preprocessor is the default preprocessor used by FlatCAM.)
(It is made to work with MACH3 compatible motion controllers.)


(TOOLS DIAMETER: )
(Tool: 1 -> Dia: 1.0)
(Tool: 2 -> Dia: 1.02)
(Tool: 3 -> Dia: 1.5)
(Tool: 4 -> Dia: 1.8)

(FEEDRATE Z: )
(Tool: 1 -> Feedrate: 200.0)
(Tool: 2 -> Feedrate: 200.0)
(Tool: 3 -> Feedrate: 200.0)
(Tool: 4 -> Feedrate: 200.0)

(FEEDRATE RAPIDS: )
(Tool: 1 -> Feedrate Rapids: 1500)
(Tool: 2 -> Feedrate Rapids: 1500)
(Tool: 3 -> Feedrate Rapids: 1500)
(Tool: 4 -> Feedrate Rapids: 1500)

(Z_CUT: )
(Tool: 1 -> Z_Cut: -1.8)
(Tool: 2 -> Z_Cut: -1.8)
(Tool: 3 -> Z_Cut: -1.8)
(Tool: 4 -> Z_Cut: -1.8)

(Tools Offset: )
(Tool: 1 -> Offset Z: 0.0)
(Tool: 2 -> Offset Z: 0.0)
(Tool: 3 -> Offset Z: 0.0)
(Tool: 4 -> Offset Z: 0.0)

(Z_MOVE: )
(Tool: 1 -> Z_Move: 2)
(Tool: 2 -> Z_Move: 2)
(Tool: 3 -> Z_Move: 2)
(Tool: 4 -> Z_Move: 2)

(Z Toolchange: 5.0 mm)
(X,Y Toolchange: 0.0000, 0.0000 mm)
(Z Start: None mm)
(Z End: 10.0 mm)
(X,Y End: 0.0000, 0.0000 mm)
(Steps per circle: 64)
(Preprocessor Excellon: Default_no_M6)

(X range:    5.7181 ...   46.3431  mm)
(Y range:    4.7250 ...   84.7350  mm)

(Spindle Speed: 1000 RPM)
G21
G90
G94

G01 F200.00

M5
G00 Z5.0000
T1
G00 X0.0000 Y0.0000                
(MSG, Change to Tool Dia = 1.0000 ||| Total drills for tool T1 = 96)
M0
G00 Z5.0000
        
G01 F200.00
M03 S1000
G4 P1
G00 X45.8431 Y66.9000
G01 Z-1.8000
G01 Z0
G00 Z2.0000
G00 X45.8431 Y64.3600
G01 Z-1.8000
G01 Z0
G00 Z2.0000
G00 X45.8431 Y61.8200
G01 Z-1.8000
G01 Z0
G00 Z2.0000
G00 X45.8431 Y59.2800
G01 Z-1.8000
G01 Z0
G00 Z2.0000
G00 X45.8431 Y56.7400
G01 Z-1.8000
G01 Z0
G00 Z2.0000
G00 X45.8431 Y54.2000
G01 Z-1.8000
G01 Z0
G00 Z2.0000
G00 X45.8431 Y51.6600
G01 Z-1.8000
G01 Z0
G00 Z2.0000
G00 X45.8431 Y49.1200
G01 Z-1.8000
G01 Z0
G00 Z2.0000
G00 X45.8431 Y46.5800
G01 Z-1.8000
G01 Z0
G00 Z2.0000
G00 X45.8431 Y44.0400
G01 Z-1.8000
G01 Z0
G00 Z2.0000
G00 X45.8431 Y41.5000
G01 Z-1.8000
G01 Z0
G00 Z2.0000
G00 X45.8431 Y38.9600
G01 Z-1.8000
G01 Z0
G00 Z2.0000
G00 X45.8431 Y36.4200
G01 Z-1.8000
G01 Z0
G00 Z2.0000
G00 X45.8431 Y33.8800
G01 Z-1.8000
G01 Z0
G00 Z2.0000
G00 X45.8431 Y31.3400
G01 Z-1.8000
G01 Z0
G00 Z2.0000
G00 X45.8431 Y28.8000
G01 Z-1.8000
G01 Z0
G00 Z2.0000
G00 X45.8431 Y26.2600
G01 Z-1.8000
G01 Z0
G00 Z2.0000
G00 X45.8431 Y23.7200
G01 Z-1.8000
G01 Z0
G00 Z2.0000
G00 X45.8431 Y21.1800
G01 Z-1.8000
G01 Z0
G00 Z2.0000
G00 X45.8431 Y18.6400
G01 Z-1.8000
G01 Z0
G00 Z2.0000
G00 X34.4351 Y18.6350
G01 Z-1.8000
G01 Z0
G00 Z2.0000
G00 X34.4351 Y21.1750
G01 Z-1.8000
G01 Z0
G00 Z2.0000
G00 X34.4351 Y23.7150
G01 Z-1.8000
G01 Z0
G00 Z2.0000
G00 X34.4351 Y26.2550
G01 Z-1.8000
G01 Z0
G00 Z2.0000
G00 X34.4351 Y28.7950
G01 Z-1.8000
G01 Z0
G00 Z2.0000
G00 X34.4351 Y31.3350
G01 Z-1.8000
G01 Z0
G00 Z2.0000
G00 X34.4351 Y33.8750
G01 Z-1.8000
G01 Z0
G00 Z2.0000
G00 X34.4351 Y36.4150
G01 Z-1.8000
G01 Z0
G00 Z2.0000
G00 X34.4351 Y38.9550
G01 Z-1.8000
G01 Z0
G00 Z2.0000
G00 X34.4351 Y41.4950
G01 Z-1.8000
G01 Z0
G00 Z2.0000
G00 X34.4351 Y44.0350
G01 Z-1.8000
G01 Z0
G00 Z2.0000
G00 X34.4351 Y46.5750
G01 Z-1.8000
G01 Z0
G00 Z2.0000
G00 X34.4351 Y49.1150
G01 Z-1.8000
G01 Z0
G00 Z2.0000
G00 X34.4351 Y51.6550
G01 Z-1.8000
G01 Z0
G00 Z2.0000
G00 X34.4351 Y54.1950
G01 Z-1.8000
G01 Z0
G00 Z2.0000
G00 X34.4351 Y56.7350
G01 Z-1.8000
G01 Z0
G00 Z2.0000
G00 X34.4351 Y59.2750
G01 Z-1.8000
G01 Z0
G00 Z2.0000
G00 X34.4351 Y61.8150
G01 Z-1.8000
G01 Z0
G00 Z2.0000
G00 X34.4351 Y64.3550
G01 Z-1.8000
G01 Z0
G00 Z2.0000
G00 X27.9701 Y63.7350
G01 Z-1.8000
G01 Z0
G00 Z2.0000
G00 X23.1201 Y63.7350
G01 Z-1.8000
G01 Z0
G00 Z2.0000
G00 X16.6551 Y61.8150
G01 Z-1.8000
G01 Z0
G00 Z2.0000
G00 X16.6551 Y59.2750
G01 Z-1.8000
G01 Z0
G00 Z2.0000
G00 X16.6551 Y56.7350
G01 Z-1.8000
G01 Z0
G00 Z2.0000
G00 X16.6551 Y54.1950
G01 Z-1.8000
G01 Z0
G00 Z2.0000
G00 X16.6551 Y51.6550
G01 Z-1.8000
G01 Z0
G00 Z2.0000
G00 X16.6551 Y49.1150
G01 Z-1.8000
G01 Z0
G00 Z2.0000
G00 X16.6551 Y46.5750
G01 Z-1.8000
G01 Z0
G00 Z2.0000
G00 X16.6551 Y44.0350
G01 Z-1.8000
G01 Z0
G00 Z2.0000
G00 X16.6551 Y41.4950
G01 Z-1.8000
G01 Z0
G00 Z2.0000
G00 X16.6551 Y38.9550
G01 Z-1.8000
G01 Z0
G00 Z2.0000
G00 X16.6551 Y36.4150
G01 Z-1.8000
G01 Z0
G00 Z2.0000
G00 X16.6551 Y33.8750
G01 Z-1.8000
G01 Z0
G00 Z2.0000
G00 X16.6551 Y31.3350
G01 Z-1.8000
G01 Z0
G00 Z2.0000
G00 X16.6551 Y28.7950
G01 Z-1.8000
G01 Z0
G00 Z2.0000
G00 X16.6551 Y26.2550
G01 Z-1.8000
G01 Z0
G00 Z2.0000
G00 X16.6551 Y23.7150
G01 Z-1.8000
G01 Z0
G00 Z2.0000
G00 X16.6551 Y21.1750
G01 Z-1.8000
G01 Z0
G00 Z2.0000
G00 X16.6551 Y18.6350
G01 Z-1.8000
G01 Z0
G00 Z2.0000
G00 X23.0051 Y18.8650
G01 Z-1.8000
G01 Z0
G00 Z2.0000
G00 X25.5451 Y18.8650
G01 Z-1.8000
G01 Z0
G00 Z2.0000
G00 X28.0851 Y18.8650
G01 Z-1.8000
G01 Z0
G00 Z2.0000
G00 X28.3851 Y5.2250
G01 Z-1.8000
G01 Z0
G00 Z2.0000
G00 X25.8451 Y5.2250
G01 Z-1.8000
G01 Z0
G00 Z2.0000
G00 X23.3051 Y5.2250
G01 Z-1.8000
G01 Z0
G00 Z2.0000
G00 X6.2181 Y18.7000
G01 Z-1.8000
G01 Z0
G00 Z2.0000
G00 X6.2181 Y21.2400
G01 Z-1.8000
G01 Z0
G00 Z2.0000
G00 X6.2181 Y23.7800
G01 Z-1.8000
G01 Z0
G00 Z2.0000
G00 X6.2181 Y26.3200
G01 Z-1.8000
G01 Z0
G00 Z2.0000
G00 X6.2181 Y28.8600
G01 Z-1.8000
G01 Z0
G00 Z2.0000
G00 X6.2181 Y31.4000
G01 Z-1.8000
G01 Z0
G00 Z2.0000
G00 X6.2181 Y33.9400
G01 Z-1.8000
G01 Z0
G00 Z2.0000
G00 X6.2181 Y36.4800
G01 Z-1.8000
G01 Z0
G00 Z2.0000
G00 X6.2181 Y39.0200
G01 Z-1.8000
G01 Z0
G00 Z2.0000
G00 X6.2181 Y41.5600
G01 Z-1.8000
G01 Z0
G00 Z2.0000
G00 X6.2181 Y44.1000
G01 Z-1.8000
G01 Z0
G00 Z2.0000
G00 X6.2181 Y46.6400
G01 Z-1.8000
G01 Z0
G00 Z2.0000
G00 X6.2181 Y49.1800
G01 Z-1.8000
G01 Z0
G00 Z2.0000
G00 X6.2181 Y51.7200
G01 Z-1.8000
G01 Z0
G00 Z2.0000
G00 X6.2181 Y54.2600
G01 Z-1.8000
G01 Z0
G00 Z2.0000
G00 X6.2181 Y56.8000
G01 Z-1.8000
G01 Z0
G00 Z2.0000
G00 X6.2181 Y59.3400
G01 Z-1.8000
G01 Z0
G00 Z2.0000
G00 X6.2181 Y61.8800
G01 Z-1.8000
G01 Z0
G00 Z2.0000
G00 X6.2181 Y64.4200
G01 Z-1.8000
G01 Z0
G00 Z2.0000
G00 X6.2181 Y66.9600
G01 Z-1.8000
G01 Z0
G00 Z2.0000
G00 X16.6551 Y66.8950
G01 Z-1.8000
G01 Z0
G00 Z2.0000
G00 X16.6551 Y64.3550
G01 Z-1.8000
G01 Z0
G00 Z2.0000
G00 X22.8201 Y66.7650
G01 Z-1.8000
G01 Z0
G00 Z2.0000
G00 X28.2701 Y66.7650
G01 Z-1.8000
G01 Z0
G00 Z2.0000
G00 X34.4351 Y66.8950
G01 Z-1.8000
G01 Z0
G00 Z2.0000
G00 X40.8281 Y79.1550
G01 Z-1.8000
G01 Z0
G00 Z2.0000
G00 X40.8281 Y81.6950
G01 Z-1.8000
G01 Z0
G00 Z2.0000
G00 X40.8281 Y84.2350
G01 Z-1.8000
G01 Z0
G00 Z2.0000
G00 X43.3681 Y84.2350
G01 Z-1.8000
G01 Z0
G00 Z2.0000
G00 X43.3681 Y81.6950
G01 Z-1.8000
G01 Z0
G00 Z2.0000
G00 X43.3681 Y79.1550
G01 Z-1.8000
G01 Z0
G00 Z2.0000
M05
G00 Z10.00
G00 X0.0 Y0.0


