(G-CODE GENERATED BY FLATCAM v8.994 - www.flatcam.org - Version Date: 2020/11/7)

(Name: picoprobeTarget-F_Cu.gbr_cutout_cnc)
(Type: G-code from Geometry)
(Units: MM)

(Created on Friday, 22 July 2022 at 19:14)

(This preprocessor is the default preprocessor used by FlatCAM.)
(It is made to work with MACH3 compatible motion controllers.)

(TOOL DIAMETER: 1.2 mm)
(Feedrate_XY: 100.0 mm/min)
(Feedrate_Z: 60.0 mm/min)
(Feedrate rapids 1500.0 mm/min)

(Z_Cut: -1.5 mm)
(DepthPerCut: 0.5 mm <=>3 passes)
(Z_Move: 2.0 mm)
(Z Start: None mm)
(Z End: 10.0 mm)
(X,Y End: 0.0000, 0.0000 mm)
(Steps per circle: 64)
(Preprocessor Geometry: Default_no_M6)

(X range:    1.7676 ...   53.2125  mm)
(Y range:    1.7750 ...   89.7501  mm)

(Spindle Speed: 1000.0 RPM)
G21
G90
G94

G01 F100.00

M5
G00 Z15.0000
G00 X0.0000 Y0.0000
T1
(MSG, Change to Tool Dia = 1.2000)
M0
G00 Z15.0000
        
M03 S1000.0
G4 P1.0
G01 F100.00
G00 X4.3676 Y1.7750
G01 F60.00
G01 Z-0.5000
G01 F100.00
G01 X50.6125 Y1.7750
G01 X50.8673 Y1.7875
G01 X51.1197 Y1.8250
G01 X51.3672 Y1.8870
G01 X51.6075 Y1.9729
G01 X51.8381 Y2.0820
G01 X52.0570 Y2.2132
G01 X52.2619 Y2.3652
G01 X52.4510 Y2.5365
G01 X52.6223 Y2.7256
G01 X52.7743 Y2.9305
G01 X52.9055 Y3.1494
G01 X53.0146 Y3.3800
G01 X53.1005 Y3.6203
G01 X53.1625 Y3.8678
G01 X53.2000 Y4.1202
G01 X53.2125 Y4.3750
G01 X53.2125 Y87.1501
G01 X53.2000 Y87.4050
G01 X53.1625 Y87.6574
G01 X53.1005 Y87.9049
G01 X53.0146 Y88.1451
G01 X52.9055 Y88.3758
G01 X52.7743 Y88.5946
G01 X52.6223 Y88.7995
G01 X52.4510 Y88.9886
G01 X52.2619 Y89.1600
G01 X52.0570 Y89.3119
G01 X51.8381 Y89.4431
G01 X51.6075 Y89.5522
G01 X51.3672 Y89.6382
G01 X51.1197 Y89.7002
G01 X50.8673 Y89.7376
G01 X50.6125 Y89.7501
G01 X4.3676 Y89.7501
G01 X4.1128 Y89.7376
G01 X3.8604 Y89.7002
G01 X3.6129 Y89.6382
G01 X3.3727 Y89.5522
G01 X3.1420 Y89.4431
G01 X2.9232 Y89.3119
G01 X2.7182 Y89.1600
G01 X2.5292 Y88.9886
G01 X2.3578 Y88.7995
G01 X2.2058 Y88.5946
G01 X2.0747 Y88.3758
G01 X1.9656 Y88.1451
G01 X1.8796 Y87.9049
G01 X1.8176 Y87.6574
G01 X1.7802 Y87.4050
G01 X1.7676 Y87.1501
G01 X1.7676 Y4.3750
G01 X1.7802 Y4.1202
G01 X1.8176 Y3.8678
G01 X1.8796 Y3.6203
G01 X1.9656 Y3.3800
G01 X2.0747 Y3.1494
G01 X2.2058 Y2.9305
G01 X2.3578 Y2.7256
G01 X2.5292 Y2.5365
G01 X2.7182 Y2.3652
G01 X2.9232 Y2.2132
G01 X3.1420 Y2.0820
G01 X3.3727 Y1.9729
G01 X3.6129 Y1.8870
G01 X3.8604 Y1.8250
G01 X4.1128 Y1.7875
G01 X4.3676 Y1.7750
G00 X4.3676 Y1.7750
G01 F60.00
G01 Z-1.0000
G01 F100.00
G01 X4.1128 Y1.7875
G01 X3.8604 Y1.8250
G01 X3.6129 Y1.8870
G01 X3.3727 Y1.9729
G01 X3.1420 Y2.0820
G01 X2.9232 Y2.2132
G01 X2.7182 Y2.3652
G01 X2.5292 Y2.5365
G01 X2.3578 Y2.7256
G01 X2.2058 Y2.9305
G01 X2.0747 Y3.1494
G01 X1.9656 Y3.3800
G01 X1.8796 Y3.6203
G01 X1.8176 Y3.8678
G01 X1.7802 Y4.1202
G01 X1.7676 Y4.3750
G01 X1.7676 Y87.1501
G01 X1.7802 Y87.4050
G01 X1.8176 Y87.6574
G01 X1.8796 Y87.9049
G01 X1.9656 Y88.1451
G01 X2.0747 Y88.3758
G01 X2.2058 Y88.5946
G01 X2.3578 Y88.7995
G01 X2.5292 Y88.9886
G01 X2.7182 Y89.1600
G01 X2.9232 Y89.3119
G01 X3.1420 Y89.4431
G01 X3.3727 Y89.5522
G01 X3.6129 Y89.6382
G01 X3.8604 Y89.7002
G01 X4.1128 Y89.7376
G01 X4.3676 Y89.7501
G01 X50.6125 Y89.7501
G01 X50.8673 Y89.7376
G01 X51.1197 Y89.7002
G01 X51.3672 Y89.6382
G01 X51.6075 Y89.5522
G01 X51.8381 Y89.4431
G01 X52.0570 Y89.3119
G01 X52.2619 Y89.1600
G01 X52.4510 Y88.9886
G01 X52.6223 Y88.7995
G01 X52.7743 Y88.5946
G01 X52.9055 Y88.3758
G01 X53.0146 Y88.1451
G01 X53.1005 Y87.9049
G01 X53.1625 Y87.6574
G01 X53.2000 Y87.4050
G01 X53.2125 Y87.1501
G01 X53.2125 Y4.3750
G01 X53.2000 Y4.1202
G01 X53.1625 Y3.8678
G01 X53.1005 Y3.6203
G01 X53.0146 Y3.3800
G01 X52.9055 Y3.1494
G01 X52.7743 Y2.9305
G01 X52.6223 Y2.7256
G01 X52.4510 Y2.5365
G01 X52.2619 Y2.3652
G01 X52.0570 Y2.2132
G01 X51.8381 Y2.0820
G01 X51.6075 Y1.9729
G01 X51.3672 Y1.8870
G01 X51.1197 Y1.8250
G01 X50.8673 Y1.7875
G01 X50.6125 Y1.7750
G01 X4.3676 Y1.7750
G00 X4.3676 Y1.7750
G01 F60.00
G01 Z-1.5000
G01 F100.00
G01 X50.6125 Y1.7750
G01 X50.8673 Y1.7875
G01 X51.1197 Y1.8250
G01 X51.3672 Y1.8870
G01 X51.6075 Y1.9729
G01 X51.8381 Y2.0820
G01 X52.0570 Y2.2132
G01 X52.2619 Y2.3652
G01 X52.4510 Y2.5365
G01 X52.6223 Y2.7256
G01 X52.7743 Y2.9305
G01 X52.9055 Y3.1494
G01 X53.0146 Y3.3800
G01 X53.1005 Y3.6203
G01 X53.1625 Y3.8678
G01 X53.2000 Y4.1202
G01 X53.2125 Y4.3750
G01 X53.2125 Y87.1501
G01 X53.2000 Y87.4050
G01 X53.1625 Y87.6574
G01 X53.1005 Y87.9049
G01 X53.0146 Y88.1451
G01 X52.9055 Y88.3758
G01 X52.7743 Y88.5946
G01 X52.6223 Y88.7995
G01 X52.4510 Y88.9886
G01 X52.2619 Y89.1600
G01 X52.0570 Y89.3119
G01 X51.8381 Y89.4431
G01 X51.6075 Y89.5522
G01 X51.3672 Y89.6382
G01 X51.1197 Y89.7002
G01 X50.8673 Y89.7376
G01 X50.6125 Y89.7501
G01 X4.3676 Y89.7501
G01 X4.1128 Y89.7376
G01 X3.8604 Y89.7002
G01 X3.6129 Y89.6382
G01 X3.3727 Y89.5522
G01 X3.1420 Y89.4431
G01 X2.9232 Y89.3119
G01 X2.7182 Y89.1600
G01 X2.5292 Y88.9886
G01 X2.3578 Y88.7995
G01 X2.2058 Y88.5946
G01 X2.0747 Y88.3758
G01 X1.9656 Y88.1451
G01 X1.8796 Y87.9049
G01 X1.8176 Y87.6574
G01 X1.7802 Y87.4050
G01 X1.7676 Y87.1501
G01 X1.7676 Y4.3750
G01 X1.7802 Y4.1202
G01 X1.8176 Y3.8678
G01 X1.8796 Y3.6203
G01 X1.9656 Y3.3800
G01 X2.0747 Y3.1494
G01 X2.2058 Y2.9305
G01 X2.3578 Y2.7256
G01 X2.5292 Y2.5365
G01 X2.7182 Y2.3652
G01 X2.9232 Y2.2132
G01 X3.1420 Y2.0820
G01 X3.3727 Y1.9729
G01 X3.6129 Y1.8870
G01 X3.8604 Y1.8250
G01 X4.1128 Y1.7875
G01 X4.3676 Y1.7750
G00 Z2.0000
M05
G00 Z2.0000
G00 Z10.00
G00 X0.0 Y0.0


